1160800601/legged_gym/resources/traces/Stop_forward_Walk_001__A017_M_50hz.csv
Frame,root_translateX,root_translateY,root_translateZ,root_quatW,root_quatX,root_quatY,root_quatZ,left_hip_pitch_joint_dof,left_hip_roll_joint_dof,left_hip_yaw_joint_dof,left_knee_pitch_joint_dof,left_ankle_pitch_joint_dof,left_ankle_roll_joint_dof,right_hip_pitch_joint_dof,right_hip_roll_joint_dof,right_hip_yaw_joint_dof,right_knee_pitch_joint_dof,right_ankle_pitch_joint_dof,right_ankle_roll_joint_dof,waist_yaw_joint_dof,head_yaw_joint_dof,head_pitch_joint_dof,left_shoulder_pitch_joint_dof,left_shoulder_roll_joint_dof,left_shoulder_yaw_joint_dof,left_elbow_pitch_joint_dof,left_wrist_yaw_joint_dof,right_shoulder_pitch_joint_dof,right_shoulder_roll_joint_dof,right_shoulder_yaw_joint_dof,right_elbow_pitch_joint_dof,right_wrist_yaw_joint_dof
0,0.0104952985,0.0317266025,0.611594498,0.6589953641,0.0193872854,0.0190713622,-0.7516551911,-0.226172909,0.0563638844,0.233861044,0.461005449,-0.314979315,-0.0151982633,-0.290319979,-0.0326861963,-0.00672268635,0.484877884,-0.286566883,0.00932880025,-0.000778308196,0,-0.174267486,0.0798646584,0.129428074,-0.0538496114,-0.541401744,-0.178748146,0.0365269184,-0.165129662,0.437016219,-0.600197375,0.200872079
1,0.010513507,0.03180897684,0.6116081478,0.658987297,0.01936280523,0.01905549073,-0.7516632972,-0.2260693964,0.05631783382,0.2340040204,0.4605194388,-0.3146510066,-0.01508469902,-0.290130115,-0.03270292432,-0.006837971228,0.4842791258,-0.286064875,0.009615561182,-0.0008060944496,0,-0.1742677538,0.07986355572,0.1296146512,-0.05385422484,-0.5413928388,-0.1787543386,0.0365242355,-0.1652437062,0.4370144426,-0.6001872418,0.2008708298
2,0.0105212696,0.03199786394,0.6116448876,0.6589464683,0.01931649503,0.01903500875,-0.7517008004,-0.2260500846,0.05631470608,0.23419219,0.4600630522,-0.3142241712,-0.014984886,-0.2900945006,-0.0326361433,-0.006799013542,0.4837537584,-0.2854637984,0.009709987046,-0.0009989280046,0,-0.174268922,0.07987774164,0.1304195258,-0.05389312508,-0.5413377168,-0.1787885964,0.03652326538,-0.1657348482,0.4370025334,-0.600136745,0.2008584024
3,0.01054502336,0.03221194592,0.6116650104,0.6588786138,0.01944286274,0.01924377432,-0.7517517041,-0.226925969,0.0564889893,0.234193626,0.460011256,-0.3138911366,-0.01495564596,-0.2908553956,-0.0323016942,-0.006455797984,0.4833752812,-0.2848190424,0.009480635266,-0.001807954812,0,-0.1742735804,0.08002320532,0.1334905712,-0.05412322882,-0.5410405038,-0.1789601062,0.03654485494,-0.1676379142,0.4369511962,-0.59992224,0.2007989288
4,0.01053340246,0.03242765368,0.6116728308,0.6588623438,0.01974959573,0.01963517196,-0.751747847,-0.2285857948,0.05676271766,0.2337886422,0.4605957744,-0.3141266466,-0.01443545872,-0.2919940828,-0.03188567088,-0.00622587688,0.4829498412,-0.2843722282,0.009421466476,-0.002664198912,0,-0.1742797404,0.08028306518,0.137218627,-0.05446491316,-0.5405838488,-0.1791988698,0.0365572743,-0.1700318278,0.4368654488,-0.5996534586,0.200718975
5,0.0105153723,0.0325930305,0.611670971,0.6588788485,0.02009148481,0.02007652401,-0.7517126635,-0.230425507,0.0570715442,0.233195975,0.461385041,-0.314558178,-0.0137556512,-0.293106049,-0.0314516909,-0.00613031583,0.482418895,-0.283990741,0.00944980979,-0.00334300729,0,-0.174285784,0.0805833042,0.140556306,-0.0548011139,-0.540086627,-0.179423034,0.0365225971,-0.172274381,0.436734587,-0.599419892,0.200642467
6,0.01050801576,0.0327246085,0.6116570952,0.6589286228,0.02033306816,0.02042267774,-0.7516532117,-0.2317341416,0.05725159202,0.2327092916,0.461595464,-0.3143635926,-0.01390836298,-0.29401806,-0.03112047912,-0.006026883984,0.4821005168,-0.2835964026,0.009335119836,-0.003749128154,0,-0.1742902726,0.08083325024,0.1428327318,-0.05505914912,-0.5396864296,-0.1795938254,0.03645734716,-0.1738536476,0.436603093,-0.5992757562,0.2005859076
7,0.01049768512,0.03284212202,0.6116558912,0.6589765256,0.02051781958,0.02067254314,-0.7515993639,-0.2327757952,0.05737408326,0.2322934362,0.4618335902,-0.3141789612,-0.01370297878,-0.294817752,-0.0308745734,-0.005959523376,0.4820806744,-0.2833603438,0.009116427786,-0.004013521038,0,-0.1742935328,0.08102660034,0.1444064168,-0.0552571863,-0.5393804908,-0.1797257934,0.03638774084,-0.174961823,0.4364981652,-0.5991884114,0.200546512
8,0.01047057884,0.03293771148,0.6116499304,0.6590100308,0.02073113701,0.02092836727,-0.7515570522,-0.233997992,0.05754298266,0.2318146974,0.4624789174,-0.3142975748,-0.01271477156,-0.2957738696,-0.03062341922,-0.005913769732,0.4823462068,-0.2832985404,0.008781928572,-0.00430127047,0,-0.1742968914,0.08122728018,0.1459614068,-0.05547143372,-0.5390597102,-0.1798659294,0.03629655764,-0.1760693312,0.4364109756,-0.5991150502,0.2005155624
9,0.01044183932,0.03300044242,0.6116104484,0.659045749,0.02090124092,0.02114562142,-0.7515149377,-0.23502267,0.05765622034,0.2313957988,0.463058728,-0.3147236888,-0.0125234751,-0.2965380668,-0.0304423299,-0.00587237533,0.482570726,-0.2833414794,0.008852573668,-0.0044655662,0,-0.1742997292,0.08138876704,0.1472162874,-0.05565963086,-0.5387939214,-0.1799849894,0.03621064278,-0.1769671234,0.436371976,-0.5990656138,0.2004971742
10,0.0104453014,0.0330415741,0.611573696,0.6590808509,0.0210174859,0.0212950423,-0.7514766919,-0.235796303,0.0577094629,0.231065035,0.463614643,-0.315304399,-0.012730415,-0.297096163,-0.030350063,-0.00583256641,0.482837051,-0.283514798,0.00914617907,-0.00448153354,0,-0.174301669,0.0814919099,0.148049891,-0.0557948761,-0.538617611,-0.18006736,0.0361513421,-0.177560583,0.436372101,-0.599037528,0.200487211
11,0.0104422292,0.03303935976,0.6115351318,0.6590993671,0.0210814156,0.02136876402,-0.7514565683,-0.236408168,0.05774602074,0.2308391664,0.4644208492,-0.3157192708,-0.01231523158,-0.2974650442,-0.0303393662,-0.005784979834,0.4831848442,-0.2838126306,0.009218104554,-0.004453045596,0,-0.1743025836,0.08153603376,0.1484320284,-0.05586041958,-0.5385384918,-0.1801070484,0.03612512498,-0.177829364,0.4363817038,-0.5990258456,0.2004828124
12,0.0104807582,0.03303192632,0.6115214584,0.6591155149,0.0211388114,0.02143587678,-0.7514388809,-0.237051502,0.05778650866,0.230599862,0.4653986094,-0.316320372,-0.01184474228,-0.2978684606,-0.03034509422,-0.005701863582,0.4836629448,-0.2841223358,0.009222572484,-0.004394259492,0,-0.1743033466,0.08156773594,0.1487471942,-0.05591578636,-0.53847692,-0.1801416636,0.0361071035,-0.178045449,0.4363950968,-0.5990159628,0.2004776118
13,0.010509935,0.03302048296,0.611489856,0.6591290987,0.02121147929,0.02151392367,-0.7514226876,-0.2377351374,0.0578071274,0.2303309112,0.4663816092,-0.3171425342,-0.01147533916,-0.2983807382,-0.0303566344,-0.00556035284,0.4842563692,-0.2843680144,0.009182826986,-0.004311762008,0,-0.1743043422,0.08160330656,0.1491559448,-0.0559877172,-0.5384014128,-0.1801870312,0.03608798164,-0.1783207564,0.4364115356,-0.5990016458,0.2004660964
14,0.01055075958,0.03300963048,0.611454761,0.6591441526,0.02128292958,0.02159517448,-0.7514051314,-0.2383504778,0.05782170596,0.230145782,0.4672095598,-0.3173473242,-0.0109357238,-0.2989242912,-0.03039285578,-0.005419270692,0.4849563896,-0.2847746966,0.009187986328,-0.00419941852,0,-0.1743053854,0.0816337675,0.1495827466,-0.0560614958,-0.5383276344,-0.1802347094,0.03607148756,-0.1786055894,0.4364258054,-0.5989849088,0.2004496572
15,0.010595995,0.0329859443,0.611415744,0.6591663841,0.0213228683,0.0216600928,-0.7513826281,-0.238852337,0.0578313656,0.230002314,0.467911243,-0.31728518,-0.0103710052,-0.299338102,-0.0304496344,-0.00534023764,0.485564351,-0.285162985,0.0092132166,-0.0040549715,0,-0.174306139,0.0816494301,0.149886623,-0.0561111011,-0.538279533,-0.180269301,0.0360607617,-0.178810433,0.436433256,-0.598971486,0.200436845
16,0.01068329498,0.0330349177,0.6113996506,0.6591927769,0.0213576041,0.02174493406,-0.7513560365,-0.2395260332,0.05775448386,0.229671848,0.468642658,-0.3179054736,-0.01021401286,-0.2997258248,-0.03051961214,-0.005301983002,0.4858499884,-0.2851070764,0.009182861446,-0.003759219544,0,-0.1743076564,0.08166996236,0.1504829704,-0.05620711444,-0.5381923914,-0.180337912,0.0360388525,-0.1792175682,0.4364406824,-0.5989444732,0.200406781
17,0.01077697572,0.0330308415,0.6113837006,0.6592027028,0.02137257403,0.02181198765,-0.7513449586,-0.2400117728,0.05768412498,0.229475951,0.4692830684,-0.3185163078,-0.009758730412,-0.2999138412,-0.03060012086,-0.005311099906,0.48591159,-0.2850270094,0.009249771384,-0.00357979783,0,-0.1743086544,0.08167869746,0.1508680554,-0.05626946986,-0.5381389262,-0.1803824214,0.03602339254,-0.1794842902,0.436441952,-0.5989270328,0.2003842982
18,0.01087506744,0.0329935573,0.6113799216,0.6592098463,0.02141540118,0.02190190882,-0.7513348558,-0.2404785004,0.05763733312,0.2293843804,0.4700770316,-0.3190594728,-0.008700059352,-0.3001230416,-0.0307169221,-0.005339828876,0.4860646488,-0.285240358,0.0095189834,-0.00341475233,0,-0.1743098262,0.08168543134,0.1513112664,-0.05634176954,-0.5380790234,-0.1804328976,0.03600282746,-0.1797967704,0.4364410936,-0.598907554,0.2003570976
19,0.0109538998,0.03295750618,0.6113464836,0.6592122353,0.021432094,0.0219749798,-0.7513301501,-0.2407324286,0.05755409748,0.229280725,0.4703982946,-0.3193505528,-0.008368450032,-0.3002422514,-0.03082151562,-0.00530257858,0.4860865594,-0.2854247098,0.009874071928,-0.003305649476,0,-0.1743108656,0.08169085088,0.151689538,-0.05640426652,-0.5380269406,-0.1804752978,0.03598242254,-0.180067742,0.4364415112,-0.59889245,0.2003345372
20,0.0110882912,0.0329530351,0.611329317,0.659210872,0.0214268792,0.0220473412,-0.751329375,-0.240938634,0.0574554354,0.229139403,0.470562309,-0.319539517,-0.00841566082,-0.300307006,-0.0309201479,-0.0052252952,0.485991418,-0.285524428,0.0102890711,-0.00319942832,0,-0.1743121,0.0816987827,0.152126774,-0.0564774796,-0.537963688,-0.180523813,0.0359557793,-0.180384427,0.436445862,-0.598877847,0.200310066
21,0.01124768892,0.03296055718,0.6113214494,0.659201282,0.02141145893,0.02212754907,-0.7513358708,-0.2412955644,0.0573617734,0.229022664,0.4710750698,-0.3198473214,-0.00810106173,-0.3003206016,-0.03104654734,-0.005176653062,0.4857816456,-0.2854087536,0.0106791038,-0.003131796092,0,-0.1743132744,0.08170893942,0.1525354324,-0.05654428004,-0.5379003528,-0.1805661828,0.03592742906,-0.1806823908,0.4364537296,-0.5988680602,0.2002868686
22,0.01139840022,0.03293600234,0.6113069656,0.6591832015,0.0214116211,0.0222166906,-0.7513490987,-0.2417849452,0.05722271952,0.228880835,0.4718075516,-0.320392072,-0.007410035842,-0.3003816132,-0.031216231,-0.005083568578,0.4855652094,-0.2852874454,0.0110244766,-0.003077993724,0,-0.1743147518,0.08172327426,0.1530370294,-0.05662321746,-0.5378191234,-0.1806145224,0.03588985874,-0.1810477074,0.436464703,-0.598859334,0.200256097
23,0.01162386126,0.0329363972,0.6112925648,0.6591491351,0.02146168464,0.02232046272,-0.751374481,-0.2424780456,0.05695075096,0.2286831738,0.4727965952,-0.321277207,-0.006227684858,-0.3006961286,-0.03148777408,-0.004841134042,0.4856095968,-0.2853227674,0.0113482809,-0.003011387538,0,-0.1743176402,0.08175119904,0.1539939852,-0.05676669926,-0.5376575706,-0.1807003768,0.0358137153,-0.181738195,0.436482042,-0.5988481762,0.2001901684
24,0.01185776852,0.03302637412,0.6112273812,0.6591213235,0.02154219931,0.02239632901,-0.7513943166,-0.2436881718,0.05657576918,0.2281942188,0.4744137104,-0.3220290482,-0.005162254254,-0.3013428866,-0.03193021638,-0.004419803062,0.4858979348,-0.2854699788,0.0119486464,-0.002844109298,0,-0.1743218036,0.08178479224,0.155312577,-0.0569538191,-0.5374265672,-0.1808054808,0.03570401892,-0.1826886088,0.4364925622,-0.5988365886,0.200083274
25,0.0121071618,0.0332182683,0.611139715,0.659128586,0.0216722445,0.0224612311,-0.7513822689,-0.245423958,0.0561767742,0.227366596,0.476646543,-0.322829336,-0.00428286754,-0.302525938,-0.0324483998,-0.00383957825,0.486849546,-0.28595075,0.0127229048,-0.00245373975,0,-0.174326882,0.0818106234,0.156823739,-0.0571547113,-0.537152588,-0.180901855,0.0355744138,-0.183783844,0.4364703,-0.598823309,0.199930146
26,0.0121714728,0.03347444462,0.6110041498,0.6592749297,0.02185377156,0.02254428727,-0.7512461214,-0.2480838178,0.05618197394,0.2259054212,0.4802931252,-0.3245060564,-0.003860581948,-0.304541856,-0.0327628419,-0.003277920232,0.4892512918,-0.287297428,0.01340681466,-0.00176903624,0,-0.1743324604,0.08181109726,0.158361608,-0.05738007354,-0.5368708612,-0.1809918672,0.03543722408,-0.1849036124,0.4363524022,-0.598806977,0.1997167644
27,0.01220553704,0.03371711896,0.6108023408,0.659610776,0.02213728427,0.02278086989,-0.7509358141,-0.2517386794,0.05641618672,0.2236186144,0.4851150748,-0.326898986,-0.00364907663,-0.307063109,-0.03301193042,-0.003082772528,0.4923324704,-0.289193326,0.01411050632,-0.0008762495356,0,-0.1743409516,0.08175778984,0.1604941996,-0.05777769236,-0.5364832046,-0.1811410638,0.03523101734,-0.1864547168,0.4359836342,-0.598787379,0.1993015674
28,0.01220499466,0.03382022082,0.6105593562,0.6602095123,0.02245872169,0.02316929768,-0.7503880259,-0.2561012748,0.05676464212,0.2204704076,0.4908582326,-0.32990759,-0.00363799459,-0.3097051916,-0.03328329028,-0.003619641442,0.4958502236,-0.2916088578,0.01487612276,-0.000181740781,0,-0.1743521124,0.08159569202,0.1629560206,-0.05844127832,-0.5360283018,-0.1814227786,0.03496705886,-0.1882155182,0.435100573,-0.5987791064,0.1985354988
29,0.0123101441,0.03378899324,0.6102365614,0.6615581201,0.02285932224,0.02380013398,-0.7491674437,-0.2616614402,0.05679491908,0.215101546,0.4977689386,-0.3337666034,-0.003685120026,-0.31250934,-0.03415651546,-0.005979617404,0.5000135776,-0.2948606434,0.01610968448,-0.0005194522554,0,-0.1743752122,0.08102385552,0.1670041174,-0.05999216732,-0.5352068542,-0.1820871982,0.0343663752,-0.1910498858,0.4326431454,-0.5989009976,0.1965298562
30,0.012551154,0.0335096605,0.609910846,0.6634309081,0.023165296,0.0243799641,-0.7474813821,-0.266650021,0.0561783612,0.208632663,0.504154861,-0.337766349,-0.00381176919,-0.314486623,-0.0358066149,-0.00980758667,0.504083097,-0.298544258,0.0178034939,-0.00163305155,0,-0.174403459,0.0800186694,0.170427099,-0.0619145595,-0.534258068,-0.182867572,0.0335806049,-0.193442196,0.429112852,-0.599245608,0.193600744
31,0.0129920395,0.03300160912,0.6096028806,0.6654553263,0.02326835859,0.0247196317,-0.7456652948,-0.2695140542,0.05474881236,0.2022434594,0.508587432,-0.3415908518,-0.00412475718,-0.3149283406,-0.03827039448,-0.01438385528,0.5073445678,-0.3022913336,0.0199579168,-0.002078046698,0,-0.1744286328,0.07890754042,0.1721607328,-0.06331059488,-0.5333256962,-0.1833132358,0.03302000312,-0.1948871852,0.425560117,-0.5995060444,0.1905568838
32,0.01360603984,0.03226001112,0.6093235492,0.6675843694,0.0232549485,0.0248400973,-0.7437562011,-0.2706273912,0.05246676504,0.1961204472,0.5114782928,-0.3454622982,-0.004453654774,-0.3142613772,-0.04152854156,-0.0194608282,0.5103741648,-0.3062613484,0.02231797166,-0.00237090513,0,-0.1744521496,0.07777425794,0.1729312982,-0.06400218306,-0.5322557926,-0.1833320554,0.03283418344,-0.1959945172,0.4221055746,-0.59944284,0.1874377876
33,0.01445927822,0.0311753426,0.6090672014,0.6697508965,0.02316900523,0.02472856534,-0.7418122619,-0.269980109,0.04926659618,0.1905243066,0.512871778,-0.3494928298,-0.004733448852,-0.3127097842,-0.0456263147,-0.02478220502,0.5135179876,-0.310560411,0.02478152696,-0.00267915921,0,-0.174474755,0.07670226692,0.1730645748,-0.06368015708,-0.5308920146,-0.1828986942,0.0332254045,-0.197109029,0.4191446122,-0.5987208364,0.1843473942
34,0.01547423902,0.02990261168,0.6088344932,0.6719120987,0.02306426161,0.02442509548,-0.7398686277,-0.2681372222,0.04532842114,0.1855269794,0.5131270646,-0.3530144274,-0.004809355734,-0.3107448578,-0.05046545122,-0.0301391445,0.5168974042,-0.3149909616,0.02757466024,-0.003111478498,0,-0.1744979264,0.0756448507,0.172589338,-0.06173767374,-0.5289931418,-0.1814980778,0.034390568,-0.1982531158,0.4165100758,-0.5969208598,0.1809530646
35,0.0167071279,0.0284959991,0.608550787,0.6743265288,0.02299654819,0.02401415219,-0.7376843578,-0.265981823,0.0405330956,0.180095419,0.51321584,-0.356366992,-0.00422136625,-0.308542073,-0.0562278293,-0.0361497179,0.520669818,-0.319647491,0.0308126733,-0.00429689558,0,-0.174543321,0.071509026,0.171764329,-0.0556198508,-0.522242486,-0.174592435,0.0357117429,-0.199541941,0.413593382,-0.590698063,0.170738325
36,0.01816507804,0.02700782272,0.6082375882,0.6755473797,0.0228287443,0.02381577162,-0.7365781664,-0.2639987048,0.03669896274,0.1775914938,0.5149595146,-0.3611697436,-0.002241102698,-0.3070194482,-0.06095488668,-0.0389593035,0.5245784758,-0.323706424,0.03414401782,-0.001319410534,0,-0.1745453744,0.07113991084,0.1713707684,-0.054397814,-0.521573961,-0.173302227,0.03613107058,-0.1997406066,0.4132948814,-0.5892143728,0.169650671
37,0.0199258763,0.0252968915,0.6078141334,0.6770958638,0.02277565821,0.0235168577,-0.735166252,-0.2628011878,0.03174188136,0.174014735,0.5183516864,-0.3667028426,0.0007199866928,-0.3063949648,-0.06701239942,-0.04200156332,0.5308766368,-0.3287541032,0.03861042706,0.000809873431,0,-0.1745467988,0.07105362116,0.1708947778,-0.05336038988,-0.5211418274,-0.1720717904,0.03654099404,-0.2000441104,0.4127717912,-0.5874372246,0.1689085962
38,0.02207319846,0.02344221692,0.60719794,0.6790091414,0.02294650885,0.02308992059,-0.7334077305,-0.262553471,0.025325004,0.169271511,0.5235573414,-0.3729526404,0.004473196716,-0.3079478024,-0.07497850208,-0.04484288468,0.5416373372,-0.3356640336,0.0445073798,0.001698649882,0,-0.1745478954,0.07117930648,0.1702111748,-0.05273969916,-0.5210293058,-0.170752552,0.03636367098,-0.200664592,0.4123720762,-0.585487878,0.1689628158
39,0.02464976458,0.02154714648,0.606272924,0.6813127326,0.02343554978,0.02263758751,-0.7312668973,-0.2645356058,0.01731027958,0.1629844276,0.5323512914,-0.3811560034,0.008985013332,-0.3126207352,-0.08523794708,-0.04823364838,0.5580423236,-0.3440837026,0.05211518778,0.001943272798,0,-0.1745488108,0.07182334514,0.1691844494,-0.05259186106,-0.5211577894,-0.1688358756,0.03488266542,-0.2015865444,0.4122226064,-0.5833511112,0.17005254
40,0.0276859403,0.0196014121,0.604980707,0.6838294389,0.0242609814,0.0223035518,-0.7288972869,-0.268716246,0.00819988456,0.155735806,0.544426978,-0.39115116,0.0141007276,-0.322484255,-0.0974449068,-0.0508731268,0.582912326,-0.353297293,0.0607667565,0.00163229671,0,-0.17454955,0.0733518824,0.167926416,-0.0530601665,-0.521754861,-0.165260389,0.0309908036,-0.202604964,0.412364841,-0.581131041,0.172651947
41,0.03101147188,0.01758634448,0.6033860088,0.686006895,0.02550999704,0.02220783927,-0.7268084974,-0.2748124424,-0.001365485369,0.1493011772,0.5592800142,-0.4028690932,0.01972588486,-0.3394749048,-0.1106086422,-0.05037613062,0.6189167736,-0.3616747796,0.06929879488,0.001391709738,0,-0.174549907,0.076104337,0.1668057976,-0.05434823706,-0.5247025012,-0.1517187506,0.02239800806,-0.2031402884,0.4118403974,-0.57727716,0.1814286082
42,0.03410382342,0.01560107284,0.6019180656,0.687835626,0.02681303469,0.02258497012,-0.7250194011,-0.2806416452,-0.009661342296,0.14418377,0.5725286604,-0.4135455964,0.02483585028,-0.3660544216,-0.1226507962,-0.04458453726,0.6692767024,-0.3598094344,0.07803718598,0.001278954116,0,-0.174549907,0.07799976764,0.1667125162,-0.05908275096,-0.5275176526,-0.141298652,0.0159028646,-0.2029944066,0.4079432784,-0.576742041,0.1893419474
43,0.0367161609,0.013514694,0.6006768822,0.6894504666,0.02833129849,0.02354946742,-0.7233953374,-0.2862490116,-0.01637544486,0.140009135,0.583118856,-0.422338122,0.02899061772,-0.4048526526,-0.132814747,-0.03220821658,0.7378632662,-0.3436566118,0.08702948394,0.0007455092508,0,-0.174549907,0.07911765722,0.1673726738,-0.06838736536,-0.5305243728,-0.1434619516,0.00990520624,-0.20242345,0.3986555996,-0.579278207,0.1947133812
44,0.03876872662,0.01087071934,0.5996126054,0.6905990459,0.02988029222,0.02447451669,-0.7222057352,-0.2883226398,-0.02192888598,0.1376836746,0.5896432046,-0.4302900912,0.03083769158,-0.4498495158,-0.141756216,-0.01804753988,0.8167001484,-0.3172491136,0.09084708542,0.000297569073,0,-0.174549907,0.07972053736,0.1676038238,-0.07484693972,-0.5310226802,-0.1482858746,0.004999579768,-0.2011351318,0.3819279078,-0.5842021224,0.199940738
45,0.0402197354,0.00739451125,0.598820627,0.6913577882,0.03144991011,0.02545126521,-0.7213789192,-0.287347704,-0.0261857286,0.136838168,0.592472613,-0.43737182,0.0307996813,-0.499114454,-0.148363441,-0.00287039392,0.900443017,-0.286615372,0.0853217244,-0.000325139932,0,-0.174549907,0.0795958638,0.167767137,-0.0797908679,-0.529323399,-0.150412649,0.000829504745,-0.199220553,0.358432651,-0.591379642,0.207980812
46,0.0410058096,0.003419094722,0.5983043554,0.6917710106,0.03298685048,0.02671558687,-0.7208682362,-0.2836325822,-0.02843983772,0.1372368694,0.5914939642,-0.4431711498,0.02941077872,-0.5518731356,-0.1493762168,0.01174253821,0.9842251046,-0.2658093988,0.05335772782,-0.001955432768,0,-0.174549907,0.0793736175,0.1678057254,-0.08111880864,-0.5265994906,-0.152883142,-0.002737705784,-0.1971661268,0.331963569,-0.6017474176,0.2197781622
47,0.04150494856,-0.000713466179,0.5980127932,0.6924478211,0.03450071028,0.02813765731,-0.7200930415,-0.2789643526,-0.03006663806,0.1367193192,0.5883291122,-0.4478316966,0.0277500182,-0.6001207712,-0.1450016438,0.02568717746,1.047629,-0.2509642306,0.03461467402,-0.004024130666,0,-0.174549907,0.07871526334,0.1676726728,-0.08154377342,-0.5238390922,-0.1559764894,-0.00500491234,-0.1952904788,0.3036914822,-0.6152564764,0.230489838
48,0.04165785688,-0.004873843958,0.5978151918,0.6936223844,0.03596801744,0.02972103168,-0.7188260915,-0.2741621198,-0.03138263972,0.1343741444,0.5836912158,-0.4513611198,0.02627381608,-0.640810466,-0.1345387904,0.0398762494,1.081593804,-0.2432866008,0.04525331332,-0.006244351904,0,-0.174549907,0.07751967606,0.1674586624,-0.08287920652,-0.5216967578,-0.15828819,-0.005313408744,-0.194085529,0.2758654596,-0.63250922,0.233836073
49,0.041374629,-0.009276453032,0.597737944,0.6951423138,0.03747934305,0.03163463228,-0.7171971225,-0.2694571438,-0.03165658264,0.1309316844,0.5786115648,-0.4545998334,0.02443698644,-0.6781837942,-0.12560533,0.045455008,1.093449164,-0.2325190484,0.05369478314,-0.01053556632,0,-0.174549907,0.07597867996,0.1672171148,-0.08456653354,-0.5210394384,-0.160333538,-0.004491655902,-0.1937355812,0.24999049,-0.6517537116,0.2340810748
50,0.0408380628,-0.0138469618,0.597593963,0.696837374,0.0390612156,0.033823741,-0.715365536,-0.264700323,-0.031081114,0.126859963,0.573220432,-0.457777262,0.0221410915,-0.712430894,-0.118393689,0.0448513515,1.08486784,-0.219287321,0.0585209429,-0.0164884292,0,-0.174549907,0.0743321776,0.166893154,-0.0863691717,-0.521842182,-0.162240073,-0.00209540036,-0.193902671,0.224986985,-0.672579348,0.234440789
51,0.04011293278,-0.01885064056,0.5973621606,0.6983782029,0.04076693561,0.03624219458,-0.713647284,-0.2598377822,-0.0298775688,0.1229366672,0.5678163766,-0.4612432718,0.0187096208,-0.7431029318,-0.112321021,0.04109188244,1.056162856,-0.2059236498,0.05741111784,-0.02347886192,0,-0.174549907,0.07330010982,0.166476673,-0.08809688984,-0.5244138838,-0.1616902884,-0.0006735718228,-0.1942576022,0.2019322126,-0.689780736,0.2350217404
52,0.03939817398,-0.0242849838,0.5969383958,0.6996908709,0.04265377012,0.03870052124,-0.712120503,-0.2547615888,-0.02861864792,0.1197139352,0.563273859,-0.4662061036,0.01593167708,-0.7703184368,-0.1051896172,0.03938285558,1.01184838,-0.1910001754,0.05467502174,-0.03072257486,0,-0.174549907,0.07255103736,0.1660473258,-0.0916947395,-0.528326714,-0.1594141664,-0.0009490041662,-0.194749239,0.1781037268,-0.7031823516,0.2339598862
53,0.03866846782,-0.03032033518,0.5962797764,0.7006929363,0.04476761134,0.04110291767,-0.7108697632,-0.2494467168,-0.02758012002,0.117580485,0.560068178,-0.4733068226,0.01451469288,-0.793629253,-0.09587884692,0.0423170909,0.9528693912,-0.1738676312,0.05191604568,-0.03774872052,0,-0.174549907,0.07182584406,0.165615636,-0.09842266728,-0.5333272698,-0.1557459294,-0.002557242522,-0.1955416198,0.1518351852,-0.7134185318,0.2293986376
54,0.03788093476,-0.0369774707,0.5953773498,0.7014781425,0.04681902619,0.043382271,-0.7098270021,-0.2428536888,-0.02610757314,0.1165390342,0.5575667022,-0.4823047042,0.01295788012,-0.8109297754,-0.0861358583,0.04517976266,0.881540465,-0.1540444228,0.0512830101,-0.04386909604,0,-0.174549907,0.07168685794,0.1655797808,-0.1094485478,-0.5396407128,-0.1519690572,-0.004373024402,-0.1964312732,0.1229533348,-0.7210921408,0.222483286
55,0.0369423889,-0.0442831106,0.594194293,0.7021759701,0.04884458301,0.04552327441,-0.7088658161,-0.235218927,-0.0243187808,0.116288893,0.555802524,-0.49277541,0.0109028062,-0.822550476,-0.0759020597,0.0482282564,0.799910128,-0.129974678,0.0517812148,-0.0493629389,0,-0.174549907,0.0722640231,0.165823817,-0.12356478,-0.546913564,-0.149284467,-0.00638097944,-0.197411209,0.0935963616,-0.725684464,0.214505687
56,0.03595447614,-0.0520772785,0.5927582504,0.7028807054,0.05093867534,0.04751797162,-0.7078884147,-0.2268896844,-0.02233729514,0.1167585418,0.5548555136,-0.5040548204,0.007616971808,-0.8296512962,-0.06508027316,0.05408832278,0.7119695426,-0.09691452388,0.04967745618,-0.05426429438,0,-0.174549907,0.0733374283,0.1664182038,-0.1395983636,-0.5547693848,-0.147030795,-0.00864315368,-0.198666355,0.06520977464,-0.7268520478,0.2074950872
57,0.03486830066,-0.06039199456,0.5910490394,0.7039156472,0.05310502244,0.04922203571,-0.7065831936,-0.2177930382,-0.02048469408,0.1171527416,0.554890621,-0.5160313728,0.002832599726,-0.83021096,-0.05642780516,0.05680809242,0.6164502142,-0.06024499834,0.05013912764,-0.05910878036,0,-0.174549907,0.074966377,0.1670582888,-0.1557039498,-0.5627410892,-0.144330657,-0.01159718148,-0.2000931504,0.03841454236,-0.7242504356,0.2031137226
58,0.03369420614,-0.069259879,0.5889238594,0.7061103502,0.0556030153,0.05032596161,-0.7041191488,-0.208452028,-0.01998620668,0.1152020086,0.5567877292,-0.5287870882,-0.003462357912,-0.8233826874,-0.05352459926,0.05319760288,0.5127668858,-0.02198326291,0.0555468738,-0.06620056482,0,-0.174549907,0.07605186254,0.1672579614,-0.1689726592,-0.5689010974,-0.1419549104,-0.01524935552,-0.2019250006,0.01558399869,-0.7182364228,0.2027665138
59,0.0323867269,-0.078779307,0.5863408806,0.7097272923,0.05864569659,0.05062062126,-0.7002038315,-0.1987100096,-0.02155120112,0.1097738608,0.5600672602,-0.5417913796,-0.01138439606,-0.8054051518,-0.05689180866,0.04415402112,0.39485358,0.02095674836,0.06746776996,-0.0775936648,0,-0.174549907,0.07637788358,0.1669592198,-0.1796171336,-0.5726539968,-0.1408777918,-0.01894692926,-0.2045314012,-0.002928633334,-0.7103985786,0.2046321004
60,0.0308169555,-0.088930279,0.583471,0.7139279938,0.06189114538,0.05051359178,-0.6956469528,-0.18845506,-0.0232721716,0.103254095,0.564841568,-0.554400444,-0.0205023922,-0.823610544,-0.0619147718,0.0436027199,0.355828196,0.024002146,0.0800025016,-0.090854384,0,-0.174549907,0.076087527,0.166466057,-0.18669261,-0.574134469,-0.141133949,-0.0208687559,-0.207518548,-0.0154543817,-0.703674972,0.206269562
61,0.02884249238,-0.09964535524,0.5808468102,0.7170013317,0.06468799427,0.05074679433,-0.6922061229,-0.176353842,-0.02170748338,0.1011725264,0.568904686,-0.5634086608,-0.02931840758,-0.85008533,-0.06442325414,0.04056868626,0.3473848816,0.0191835344,0.08091039656,-0.1011177748,0,-0.174549907,0.07564327718,0.1662503718,-0.1902587952,-0.5742951394,-0.1415252654,-0.02092027066,-0.2099883706,-0.02259818464,-0.6986867546,0.2075176478
62,0.02636157572,-0.1107697192,0.5786611078,0.7190428432,0.06711727132,0.05132393961,-0.6898104919,-0.1622522054,-0.01743535474,0.1034039166,0.571141994,-0.567495394,-0.03980936032,-0.8685499192,-0.06570224766,0.03122760726,0.3423788188,0.01433641274,0.0785130352,-0.1075555962,0,-0.174549907,0.07528374642,0.1663674206,-0.1922902138,-0.5739312052,-0.1419875118,-0.02008684836,-0.2118009446,-0.02696957364,-0.6947250248,0.2083868536
63,0.02337082808,-0.122396338,0.5769026752,0.7207247367,0.06902077147,0.05219784989,-0.6877989325,-0.1464547428,-0.01014684519,0.108114672,0.5719839212,-0.5655725836,-0.05268931312,-0.8760516404,-0.06691513658,0.0132633686,0.3400276844,0.007789096328,0.07549516114,-0.1115753768,0,-0.174549907,0.07454388146,0.1670457484,-0.1952893138,-0.571832836,-0.1436677874,-0.01855796014,-0.2135402266,-0.03363168686,-0.686150849,0.2102368292
64,0.01957251618,-0.1346359312,0.575723636,0.7222856159,0.06950607273,0.05375602985,-0.6859902946,-0.1292621284,0.003186261442,0.112522246,0.5722201108,-0.5546252848,-0.0693955094,-0.868697524,-0.06481527838,-0.002929346882,0.3401468336,0.004899302218,0.07283241448,-0.1129541446,0,-0.174549907,0.0695355341,0.1688900498,-0.1997589708,-0.5599014402,-0.1527953446,-0.02466810828,-0.213407192,-0.04913214222,-0.6537960056,0.2195858688
65,0.0145902159,-0.147157133,0.57558769,0.7227615423,0.06939731263,0.05602360292,-0.6853182632,-0.111437403,0.0211662184,0.118061565,0.571445763,-0.534109473,-0.0896509513,-0.852163851,-0.0567115583,-0.0152417077,0.342268616,0.0114198625,0.0644548461,-0.110171832,0,-0.174549907,0.0652131215,0.171251103,-0.197852954,-0.54911238,-0.163481906,-0.0285026617,-0.211618692,-0.0548476316,-0.632133186,0.221018702
66,0.008451659234,-0.1605451198,0.576141715,0.7224214162,0.06802013381,0.05897964627,-0.6855668896,-0.0917122275,0.0452566482,0.1219308064,0.5683539866,-0.5016075134,-0.1159856082,-0.8323061582,-0.0410168849,-0.02990770746,0.3457332728,0.0457561575,0.03203313056,-0.1043259336,0,-0.174549907,0.06211038084,0.1744549156,-0.1901674182,-0.5387914778,-0.1738852438,-0.0275788102,-0.2088105056,-0.05674237608,-0.6136227132,0.2175735178
67,0.000863568752,-0.1742762028,0.5779653668,0.7211626346,0.06595013414,0.06178475502,-0.6868461824,-0.07095738202,0.07142923774,0.124545525,0.5664102674,-0.4559206248,-0.1427925824,-0.8106891516,-0.02010239658,-0.03981405422,0.3500235138,0.0798508942,-0.004721854442,-0.09697328958,0,-0.174549907,0.06038203762,0.177905768,-0.1761694546,-0.5294262884,-0.1826096356,-0.02428823112,-0.2054735064,-0.05358587358,-0.596570146,0.211531022
68,-0.006889524494,-0.1890827324,0.5800004838,0.7188953852,0.06339243541,0.06394068358,-0.6892622238,-0.04961279182,0.09751694808,0.12551081,0.567832649,-0.39582985,-0.1679813414,-0.7883799788,0.005358174824,-0.04130909292,0.3546386298,0.1033493816,-0.03761621862,-0.08887407036,0,-0.174549907,0.06042906942,0.1812387912,-0.154863086,-0.5216209652,-0.1885850546,-0.0198986541,-0.20201014,-0.04402178224,-0.580109024,0.2035001274
69,-0.01415691468,-0.2048087446,0.5820626854,0.7158142809,0.06106831069,0.06459087879,-0.6926099877,-0.03552376402,0.1178696154,0.1211212952,0.5857883216,-0.3233676968,-0.1830574396,-0.7670665026,0.02284802906,-0.04797440764,0.3697361766,0.1024149583,-0.03233592476,-0.08242561968,0,-0.174549907,0.06283956318,0.1831256688,-0.1249871034,-0.5154583808,-0.1898825616,-0.01567883904,-0.1991413262,-0.0285784673,-0.5635578034,0.1966463268
70,-0.0209729653,-0.220619008,0.584347665,0.7118848341,0.05873051481,0.06419025911,-0.6968861601,-0.0320222937,0.134451941,0.112650231,0.623675466,-0.240053341,-0.190167069,-0.749662876,0.0356309563,-0.0535503775,0.400262862,0.0793256089,-0.0100179007,-0.077007018,0,-0.174549907,0.0671184584,0.184071645,-0.0897256061,-0.510773063,-0.187218085,-0.0123707671,-0.196400881,-0.00804326404,-0.546946943,0.192411065
71,-0.0271400038,-0.2363664238,0.5867741108,0.7069079567,0.05605819352,0.0636351752,-0.7022030933,-0.0443065271,0.1501339884,0.1040880486,0.6857481362,-0.1407049508,-0.193587586,-0.7370266556,0.05489549936,-0.04501333236,0.4390526176,0.04395931738,-0.0248754669,-0.0719792038,0,-0.174549907,0.07254353466,0.18490296,-0.05639184938,-0.5068537834,-0.1829135476,-0.01036122236,-0.1931194034,0.01704984662,-0.5316501258,0.1908070324
72,-0.03291488142,-0.2521411536,0.5889654636,0.7022090916,0.05325165056,0.06296344273,-0.707179085,-0.07480644952,0.1666014252,0.08999259916,0.776300442,-0.04808341264,-0.183163464,-0.7208038214,0.0737484291,-0.03758414906,0.472018343,0.006700979372,-0.04571872648,-0.066686964,0,-0.174549907,0.07681653944,0.185764906,-0.03364480586,-0.504792154,-0.1779128256,-0.00772003233,-0.1899205984,0.03990939408,-0.52233696,0.1935264196
73,-0.03834867328,-0.2677931186,0.5905745386,0.6986815824,0.05039500191,0.06242718776,-0.710919993,-0.1248060614,0.1860279858,0.06877133474,0.8952539682,0.02973228466,-0.1528776022,-0.700754905,0.08919742704,-0.03673256486,0.4983734606,-0.03027798754,-0.06379888062,-0.06199580428,0,-0.174549907,0.08094726204,0.1871601314,-0.01699115522,-0.5050287246,-0.1739870342,-0.006483056676,-0.1864940674,0.06649785488,-0.5158209442,0.1985815046
74,-0.04342475016,-0.2833683194,0.5917338612,0.6967827191,0.04807245107,0.06182321368,-0.71299423,-0.1896567646,0.2063050452,0.04450939742,1.022188186,0.1084209961,-0.1198836134,-0.6811105848,0.09979839796,-0.03783247996,0.5241712926,-0.06848083882,-0.07592021376,-0.05638965142,0,-0.174549907,0.0829624116,0.1889994918,-0.01165570338,-0.5088449596,-0.1717675476,-0.007281478398,-0.1840519698,0.09194126278,-0.5140213612,0.2053903814
75,-0.0479595475,-0.298759937,0.592365623,0.6955999308,0.04580752268,0.06148198618,-0.7143265168,-0.262144536,0.230626553,0.0241571851,1.14747012,0.168942302,-0.0897862986,-0.661936462,0.108439118,-0.0398023501,0.549673378,-0.107372798,-0.0831074417,-0.0485121049,0,-0.174549907,0.0826163515,0.19116129,-0.0160765424,-0.51521945,-0.170785233,-0.00947475806,-0.182547182,0.113816656,-0.516326964,0.213001966
76,-0.05192273782,-0.3140790936,0.5930346726,0.6961804086,0.0445562209,0.06043057905,-0.7139297773,-0.3258388224,0.25798586,0.01860507056,1.242660544,0.1626877042,-0.08838098346,-0.6428264258,0.1101716638,-0.04373169766,0.5739959718,-0.1469206094,-0.08352250008,-0.0439636625,0,-0.174549907,0.08005385252,0.1933907302,-0.02678475382,-0.525906086,-0.1700534252,-0.01322146898,-0.1823928328,0.1377741392,-0.5220701574,0.2210384754
77,-0.05504854922,-0.329119438,0.593928111,0.6959221331,0.04403775539,0.05882573059,-0.7143476704,-0.39062534,0.2781438116,0.0151468277,1.322070194,0.1272418532,-0.07488013652,-0.6228427652,0.1106205824,-0.04494611622,0.5940538766,-0.1832158268,-0.08379832062,-0.0374886677,0,-0.174549907,0.07631829832,0.194647554,-0.0414464727,-0.5425486326,-0.16814757,-0.01812448538,-0.1839721562,0.1663458232,-0.5316447618,0.2277217778
78,-0.0571856193,-0.3437852504,0.5946422694,0.6928899335,0.04348381271,0.05708842137,-0.7174633163,-0.457838869,0.2859080616,0.01115804874,1.388890028,0.0723145433,-0.03574802726,-0.6021839622,0.1136952248,-0.03967618498,0.6108706956,-0.2151796786,-0.08628466428,-0.02483931854,0,-0.174549907,0.07337735146,0.1946776242,-0.05047375262,-0.5624490972,-0.1645761698,-0.02268854974,-0.1868440658,0.194068712,-0.5432208418,0.227046475
79,-0.05855628774,-0.3582748352,0.5954411982,0.6889363,0.04299871809,0.05493929306,-0.7214565537,-0.5190809014,0.2887254776,0.01336179842,1.432732848,0.03387812714,-0.008152004518,-0.5797029614,0.1158831924,-0.0315500006,0.6238115188,-0.243642035,-0.08738710286,-0.01024064823,0,-0.174549907,0.07690407188,0.1935556144,-0.05115055668,-0.5915860652,-0.155316779,-0.02634197848,-0.191445944,0.2302721798,-0.560243416,0.212473285
80,-0.059279751,-0.372689456,0.596280873,0.6842544508,0.04231753469,0.05242149779,-0.7261246858,-0.574128509,0.286559016,0.0204499811,1.45471907,0.00771644246,0.00816099253,-0.55480063,0.117013656,-0.0216780547,0.632521451,-0.269020706,-0.0870343745,0.00584370829,0,-0.174549907,0.0844445676,0.191341445,-0.0438469388,-0.6170789,-0.143462047,-0.0285656657,-0.196170896,0.260960847,-0.574491501,0.19484061
81,-0.0595221929,-0.3870913208,0.5971295478,0.6803100403,0.04150079603,0.04961184787,-0.73006479,-0.6249750018,0.2719129798,0.02310000134,1.454451088,-0.0166052075,0.01182803454,-0.5278295158,0.1148703754,-0.01491556764,0.6383585568,-0.2938505114,-0.08515308346,0.0184728574,0,-0.174549907,0.08889896426,0.1880836336,-0.03197629826,-0.6326085684,-0.1310562168,-0.03192787992,-0.1994009794,0.2869631114,-0.5827514412,0.1882000238
82,-0.05954510642,-0.4011784318,0.5979273796,0.6769893925,0.04082976786,0.04685439471,-0.7333641375,-0.6722500924,0.255019641,0.02876498436,1.435451338,-0.03868031354,0.008961675872,-0.5006084558,0.1107939886,-0.009597284908,0.6419567704,-0.317634654,-0.08221745638,0.02841674794,0,-0.174549907,0.09478720424,0.1848850368,-0.01843067186,-0.6454372048,-0.1156344128,-0.03618423192,-0.201748899,0.3129874112,-0.588479602,0.1854190204
83,-0.05936190632,-0.4148608448,0.5985694168,0.67429993,0.04041812524,0.04430464471,-0.7360183952,-0.7154018764,0.2394791152,0.04080242366,1.397689198,-0.05889785736,0.001270179698,-0.4738859532,0.1052940248,-0.00533740893,0.6436253666,-0.3402723668,-0.07847588954,0.03592306974,0,-0.174549907,0.1024660426,0.1819609908,-0.005840991204,-0.6552937626,-0.09946879132,-0.04190692158,-0.2029912054,0.3370777132,-0.5909153938,0.1861060444
84,-0.05889476162,-0.4284218432,0.599083054,0.6720343007,0.04037370236,0.04222197476,-0.7382121427,-0.751280439,0.2341388434,0.06856106666,1.342261698,-0.07447912394,-0.0013879756,-0.448446274,0.09882890294,-0.002428312574,0.6451452732,-0.3611435294,-0.07663143426,0.04199045298,0,-0.174549907,0.1082061158,0.1796803504,0.00274892808,-0.6596214294,-0.08890262096,-0.0480436556,-0.2031684934,0.3540230872,-0.5921181202,0.189895719
85,-0.0584378801,-0.441880852,0.59932673,0.669567264,0.040762587,0.0403314741,-0.740534579,-0.778284132,0.23445724,0.111068338,1.26969719,-0.0851799473,0.000421081088,-0.424219102,0.0919770002,0.000781115552,0.646785975,-0.380727023,-0.0759984404,0.047595311,0,-0.174549907,0.114717901,0.177422583,0.0109412223,-0.661114633,-0.0796647668,-0.0560976304,-0.202745482,0.371353775,-0.59391278,0.196037516
86,-0.058194951,-0.4550634502,0.5991592406,0.6669568627,0.04124540135,0.03931946927,-0.7429140863,-0.7983083724,0.2361258868,0.1609285652,1.18145428,-0.09180264772,0.01100512296,-0.4014692964,0.08674893976,0.003285663574,0.6477193712,-0.3998086872,-0.07487445026,0.0518343225,0,-0.174549907,0.1197039126,0.1761689246,0.0157037906,-0.6589773894,-0.07623437048,-0.06269088014,-0.2012491466,0.3827297924,-0.596884394,0.1993585704
87,-0.05793664084,-0.46825372,0.598672044,0.6640134974,0.04188751173,0.03874559192,-0.7455402677,-0.8091403366,0.2282619,0.2094248352,1.074208356,-0.08852736802,0.02020694388,-0.379705447,0.0823360324,0.00641461434,0.6489923596,-0.419556206,-0.07362975178,0.05548624698,0,-0.174549907,0.1238072348,0.1753132284,0.01939579102,-0.6549180504,-0.07553546582,-0.06788138746,-0.1990545784,0.3898873032,-0.6012116794,0.2005549284
88,-0.05778203308,-0.481587672,0.5977626564,0.6602754854,0.04272620356,0.03833822028,-0.7488263723,-0.8095337628,0.2087323842,0.2507714804,0.9439044712,-0.07152552528,0.02525250462,-0.3588275194,0.07854076918,0.0116950598,0.6512559768,-0.4405320586,-0.07226455662,0.05948774592,0,-0.174549907,0.129760608,0.174043891,0.02557664664,-0.6467168448,-0.07531992196,-0.07452378568,-0.1968042196,0.3992767154,-0.6082365396,0.2004821004
89,-0.05780002696,-0.4951746522,0.5963621612,0.6568452976,0.04337364897,0.03814694725,-0.7518096781,-0.7950001712,0.177997798,0.2881399094,0.7835346224,-0.03395178878,0.00749838866,-0.3375744102,0.0748141557,0.01515306774,0.654674983,-0.4624900878,-0.0716717228,0.06178400366,0,-0.174549907,0.1355736048,0.1724017236,0.036338751,-0.6334543346,-0.07407681344,-0.08051713256,-0.1945459156,0.4083710078,-0.6176687356,0.1974962682
90,-0.0578744486,-0.50940609,0.59437567,0.653658977,0.0434946859,0.0382749545,-0.754568209,-0.762727797,0.138189018,0.320058465,0.588221014,0.0231561642,-0.0285768341,-0.315422595,0.0717601627,0.0165917352,0.659502923,-0.485290349,-0.0716643855,0.0627233386,0,-0.174549907,0.138463601,0.170872554,0.0527904443,-0.611820519,-0.070319064,-0.0835121125,-0.192621484,0.416119516,-0.630581677,0.190061733
91,-0.05812257306,-0.5246417646,0.5911577108,0.6463770396,0.04122150525,0.04043758831,-0.7608300149,-0.7139555932,0.1053441152,0.3507973668,0.3660219792,0.08714789002,-0.0827104032,-0.2936599674,0.07809018936,0.02536799872,0.6700888278,-0.5091853858,-0.07360767724,0.07467000332,0,-0.174549907,0.134480119,0.1713951262,0.07248288694,-0.5800938128,-0.06763952226,-0.08049657198,-0.189394969,0.420330507,-0.6491979362,0.1768663526
92,-0.0582096577,-0.540643799,0.5871903536,0.6366232876,0.03814339121,0.04354775095,-0.7689990018,-0.7492732646,0.1141635384,0.3340977786,0.3248171568,0.0596508592,-0.138116515,-0.273009926,0.08720424174,0.04015229718,0.6846384172,-0.5330387238,-0.07372409108,0.09232955274,0,-0.174549907,0.1352444764,0.1726827774,0.08657100348,-0.5593797804,-0.06877913772,-0.07835064532,-0.1853074554,0.4208492758,-0.6619881752,0.168874344
93,-0.0579590574,-0.5567921164,0.5835399748,0.6285868774,0.03619701513,0.04534198832,-0.7755723162,-0.7898486376,0.1204569044,0.2936142322,0.3128885808,0.0184178476,-0.177225232,-0.2511920806,0.08896950038,0.05204513592,0.697564399,-0.5544627668,-0.06924342364,0.1042070236,0,-0.174549907,0.140458992,0.173436114,0.09325236678,-0.548809099,-0.07091753778,-0.0783722505,-0.1820630404,0.4201950132,-0.6667487028,0.1662194372
94,-0.05705185606,-0.5729049086,0.580396605,0.6217757111,0.03508030702,0.04619916187,-0.7810441566,-0.8175040842,0.1247993766,0.2614042878,0.3098096372,-0.009245913856,-0.2080038758,-0.229158083,0.08495569378,0.06313742844,0.7087116598,-0.5690291284,-0.06198335664,0.111831951,0,-0.174549907,0.149771184,0.1741315602,0.1038431048,-0.528175402,-0.08059375732,-0.07645702062,-0.1790412158,0.4175196708,-0.6734941124,0.1609870908
95,-0.0555581674,-0.589269459,0.577772021,0.6171806122,0.03439699301,0.04573039842,-0.7847379623,-0.827504754,0.121523291,0.238459066,0.308878273,-0.0201118533,-0.231858537,-0.206050709,0.0744116977,0.0705225691,0.719454467,-0.577568412,-0.0505822375,0.113173515,0,-0.174549907,0.154560536,0.173051924,0.120936707,-0.492996216,-0.117083035,-0.0667029172,-0.178633943,0.412457407,-0.68307656,0.150111482
96,-0.05335138814,-0.6062321424,0.5757377504,0.6158285463,0.03401868384,0.04365688112,-0.7859338442,-0.8110790012,0.11139988,0.22419402,0.3103889526,-0.01614105778,-0.2489787516,-0.1790842864,0.05632947754,0.07098120154,0.7271868346,-0.5785961508,-0.03199966626,0.106837964,0,-0.174549907,0.1571871756,0.1699844898,0.135407507,-0.4672313276,-0.1645182608,-0.05484438688,-0.1795734884,0.4058131638,-0.6839265346,0.1431397084
97,-0.04987736646,-0.6236364006,0.5747262478,0.6169586945,0.03461583339,0.03999074644,-0.7852161827,-0.7850106594,0.0937536016,0.2299978494,0.31368795,0.01146639266,-0.2247165052,-0.1497760476,0.0296755575,0.06656960696,0.7307933806,-0.5669389244,-0.003562942661,0.09643171428,0,-0.174549907,0.1678472312,0.1664050698,0.1412773966,-0.452884036,-0.1956533308,-0.04628503022,-0.1808073548,0.3924623844,-0.6722674248,0.1417372048
98,-0.04494679796,-0.6412338732,0.5752216578,0.6213094659,0.03666324911,0.03444391885,-0.7819488283,-0.7557536842,0.06622198518,0.262691599,0.318826097,0.06407127978,-0.1389736758,-0.1181224908,-0.006872448508,0.05513633938,0.7301046134,-0.5397961972,0.03675332964,0.08089924606,0,-0.174549907,0.1799551692,0.1617969842,0.1413019064,-0.4435461044,-0.2175068854,-0.03816773592,-0.1833483608,0.3713126954,-0.6525688292,0.143297195
99,-0.03906176164,-0.6596827504,0.576381445,0.626466676,0.03843060721,0.02789144297,-0.778000424,-0.7249446034,0.03223106676,0.2791202186,0.324718648,0.0964100986,-0.0633182727,-0.08821939078,-0.04544464724,0.0440677032,0.7368601202,-0.4904226838,0.08261006624,0.0668707058,0,-0.174549907,0.1905579984,0.1572762102,0.1389386386,-0.4365504442,-0.231068042,-0.02886101378,-0.186196417,0.3439994394,-0.6252814534,0.1456648796
100,-0.0333104469,-0.678622186,0.578279376,0.6316577501,0.03947727201,0.021192369,-0.7739514941,-0.692086399,-0.00237981533,0.283762574,0.330825955,0.112519167,-0.00996540859,-0.0646602809,-0.0809021369,0.0398369618,0.755400002,-0.418286532,0.127651349,0.0568270162,0,-0.174549907,0.198360205,0.15350312,0.134351045,-0.431574941,-0.238365218,-0.0182850491,-0.188854188,0.311585933,-0.592711866,0.147573203
101,-0.02823302374,-0.697764945,0.580739307,0.6367909517,0.03912629295,0.01565717274,-0.7698839328,-0.6557421804,-0.0276066132,0.2893453952,0.3353703676,0.1214073138,-0.01434242744,-0.0551750205,-0.1032123312,0.05135463398,0.7930955884,-0.3138415274,0.1613484712,0.05405904052,0,-0.174549907,0.2014731498,0.1515918584,0.126197258,-0.4293211818,-0.245035812,-0.004749748205,-0.190263638,0.2723970176,-0.559261465,0.1475316642
102,-0.02373089682,-0.7166077854,0.5835606098,0.6418051644,0.03844113752,0.01069208563,-0.7658290209,-0.6193821788,-0.04958006814,0.2882462384,0.3406077978,0.1156379642,-0.01252968942,-0.05990039708,-0.1151208492,0.07733624576,0.849197984,-0.2013743582,0.1963380572,0.0529877201,0,-0.174549907,0.1997263968,0.1502496092,0.119538648,-0.4297117412,-0.2511295556,0.01145731851,-0.1914156138,0.238562852,-0.5317069528,0.1515020874
103,-0.02020314782,-0.7343695878,0.5862428902,0.6473329642,0.037729708,0.006375372742,-0.7612462526,-0.5882848858,-0.07416737976,0.276465666,0.3487141432,0.09049281626,0.02074975966,-0.08057278248,-0.1159504918,0.1178411572,0.9255896928,-0.09061719996,0.2355301708,0.04924075156,0,-0.174549907,0.1951075162,0.1494734286,0.1174969612,-0.4328934548,-0.2539098144,0.0255207285,-0.1928022888,0.2253942876,-0.5184115412,0.1547052056
104,-0.01705413908,-0.7508667352,0.5884821652,0.6503166615,0.03747524355,0.003037766349,-0.7587322439,-0.5733923434,-0.08833410594,0.270161253,0.3846302092,0.048808559,0.04800008684,-0.1282771376,-0.1062932266,0.1707429764,1.036211918,0.0059747685,0.2334322306,0.04654398114,0,-0.174549907,0.1853265702,0.1483855692,0.1178718088,-0.4397409736,-0.2526247742,0.04149102274,-0.1940073728,0.220891595,-0.5072824838,0.1615294666
105,-0.0141098434,-0.766544223,0.590361238,0.6506166467,0.03771737988,0.0004356078758,-0.7584689766,-0.557778239,-0.0978774726,0.27236855,0.414645553,0.00821212307,0.0702507049,-0.193329945,-0.0894294977,0.228884324,1.1613313,0.0998014882,0.213248506,0.0453062393,0,-0.174549907,0.170496613,0.147398591,0.121078931,-0.449686617,-0.243344814,0.0542559996,-0.195379183,0.231778815,-0.502462626,0.173021913
106,-0.01119263434,-0.7821266292,0.5915475012,0.6486753466,0.03878100187,-0.002997248929,-0.7600706185,-0.5411585692,-0.1070027812,0.280670595,0.4428693174,-0.03210109356,0.0908703789,-0.257950112,-0.06610604374,0.2934208572,1.269733214,0.215178126,0.2428053888,0.04304520414,0,-0.174549907,0.152527711,0.1465270608,0.1252857342,-0.462658602,-0.2256593078,0.06164428222,-0.1987386252,0.2617782832,-0.504551387,0.1878377888
107,-0.00877242703,-0.7977140784,0.5926279068,0.6466954204,0.03925474699,-0.006048834675,-0.7617135352,-0.5215367198,-0.1136834424,0.2890366674,0.4656323134,-0.06941137168,0.1013724862,-0.3193701866,-0.05447540658,0.3337690648,1.360695334,0.2915275994,0.2824040356,0.0391201548,0,-0.174549907,0.1345779356,0.1472812654,0.1272099968,-0.4759951054,-0.202164629,0.06368473474,-0.2033853592,0.2971531036,-0.5119987128,0.2028109432
108,-0.00715105599,-0.812979126,0.5939898852,0.6457677324,0.03838932562,-0.008177534976,-0.7625243756,-0.4978607592,-0.1174481686,0.294585407,0.481231481,-0.102566914,0.09771682768,-0.3792866234,-0.07585702388,0.3315676334,1.426697372,0.3052680192,0.3076748014,0.03303357026,0,-0.174549907,0.1202174184,0.1500996796,0.126461163,-0.4889742732,-0.1847806718,0.05830633122,-0.2087387834,0.3234488904,-0.522036362,0.2132626954
109,-0.006793031376,-0.827384925,0.595765829,0.6482495839,0.03611106407,-0.009087751232,-0.7605168511,-0.4732031108,-0.1206791906,0.2908688248,0.491159886,-0.1292669892,0.09436879756,-0.4396902086,-0.09214804172,0.3205562416,1.476784682,0.2745193724,0.2803729594,0.02285476848,0,-0.174549907,0.1084382104,0.1535437526,0.1248519422,-0.5009770038,-0.1732679816,0.05017186554,-0.2122738392,0.336142731,-0.5313073754,0.2197303142
110,-0.00727164885,-0.841066241,0.597572207,0.6541298702,0.03310701291,-0.009006578573,-0.7556036793,-0.449419081,-0.123717502,0.277997315,0.498427987,-0.151314929,0.0916442424,-0.498626053,-0.105673924,0.300124079,1.51084316,0.216086403,0.2200903,0.00826378074,0,-0.174549907,0.0934614986,0.158829436,0.116209604,-0.519973338,-0.145224199,0.0361110456,-0.214241356,0.336355388,-0.54523313,0.230462134
111,-0.008522573488,-0.8541548726,0.5991550208,0.6646415895,0.02957333375,-0.00897416907,-0.7465228997,-0.4260708454,-0.1300385324,0.2546330988,0.504649925,-0.1701213838,0.09242931158,-0.5514336824,-0.1348389896,0.2587522268,1.525099494,0.1667041122,0.1531025766,-0.01279499419,0,-0.174549907,0.08296080376,0.1647581844,0.09853615748,-0.538721621,-0.1215719954,0.02634780516,-0.2102692754,0.2985467316,-0.5558496832,0.235433623
112,-0.01008420267,-0.8669414642,0.6006829384,0.6746109597,0.02572183172,-0.008794697925,-0.7376727552,-0.4027508262,-0.1329683038,0.2317672224,0.5103984114,-0.1880859676,0.0912783742,-0.5967940096,-0.1692543896,0.2107210544,1.518777654,0.121970281,0.09763085556,-0.0295613166,0,-0.174549907,0.07375531944,0.1695424498,0.0833903596,-0.5508997916,-0.1153093916,0.02109803038,-0.2052644316,0.2601137698,-0.5645054098,0.2284863738
113,-0.0120216757,-0.8795876858,0.601981592,0.6852538844,0.02216525104,-0.008643937872,-0.7279155843,-0.380816156,-0.1351067784,0.2066144228,0.51772635,-0.2060737908,0.08730865864,-0.6309195998,-0.2120838824,0.1511179474,1.490515664,0.08159389942,0.06426911208,-0.04616333544,0,-0.174549907,0.06257741004,0.1738039164,0.0666096747,-0.5601453782,-0.1158508848,0.01669575128,-0.2009219496,0.2244583908,-0.5736263634,0.206321916
114,-0.0140599873,-0.8919241666,0.6032163856,0.6944867945,0.01887392124,-0.0080308939,-0.7192130228,-0.3608273802,-0.1339792758,0.1841530238,0.5256392002,-0.2238092928,0.08153023872,-0.6583033798,-0.2392994044,0.09875138848,1.44579911,0.0371373951,0.033258412,-0.05878472552,0,-0.174549907,0.0497286774,0.1783350114,0.04735193922,-0.568150306,-0.121024439,0.0119355839,-0.1984954388,0.199842471,-0.5847684026,0.1833807052
115,-0.0160118919,-0.903881431,0.604279935,0.702428438,0.0159136853,-0.00708139945,-0.711541213,-0.342445344,-0.130781978,0.164569139,0.533918798,-0.241451591,0.074805975,-0.679724813,-0.252007455,0.0534672104,1.38561571,-0.00719339261,0.00925645139,-0.0675917566,0,-0.174549907,0.0357060619,0.182915047,0.0263629593,-0.575294793,-0.129599035,0.00759826787,-0.19741179,0.184357166,-0.597965717,0.166837692
116,-0.01757729796,-0.9155374884,0.605001557,0.7088949385,0.01367735455,-0.006213421284,-0.7051540892,-0.3251796364,-0.1273541452,0.1490147234,0.5416667342,-0.2590349196,0.06836809216,-0.6948444126,-0.254841852,0.01560183915,1.309847978,-0.04190678296,0.004851883652,-0.07177095414,0,-0.174549907,0.02287981098,0.1867250502,0.007418471948,-0.5813295006,-0.1376054826,0.002897685022,-0.1976420072,0.177863303,-0.6092715146,0.1631977024
117,-0.018828607,-0.9268418194,0.6054015162,0.7150358988,0.01186281367,-0.005224514687,-0.698967554,-0.3097492218,-0.1243078262,0.1340398518,0.5503930208,-0.276597369,0.06299375148,-0.7039793372,-0.2493897618,-0.0162886029,1.21995242,-0.06313953548,0.00972997695,-0.074168244,0,-0.174549907,0.00900644884,0.1900416404,-0.01202309823,-0.5862563018,-0.1458161114,-0.0006189358275,-0.1985769866,0.1755588712,-0.6214415196,0.1655496804
118,-0.01985497552,-0.937758136,0.6055343386,0.7218234062,0.009910342661,-0.003791642299,-0.6919959384,-0.2968951878,-0.1212014018,0.1164466652,0.5616602418,-0.2943225864,0.05905764628,-0.7054354546,-0.2375267532,-0.04374053554,1.114442614,-0.06760184166,0.01989001852,-0.07735875098,0,-0.174549907,-0.009262667404,0.1935785022,-0.03603101822,-0.591026115,-0.155086225,-0.003656724282,-0.1994986384,0.1768148542,-0.6359929446,0.1758558244
119,-0.02096237952,-0.9483492974,0.6052954074,0.7269120398,0.009037267762,-0.002635382354,-0.6866660534,-0.2850040916,-0.11857089,0.1035858588,0.5721797584,-0.3126156692,0.05568813908,-0.7027018186,-0.2151673582,-0.05592258202,0.9935788978,-0.05868209824,0.02831296066,-0.07515910566,0,-0.174549907,-0.01934191772,0.1952821406,-0.0475172348,-0.5947556138,-0.1593711314,-0.005572420546,-0.2013563158,0.179609865,-0.6418501018,0.1828682362
120,-0.0219183173,-0.958861172,0.60483855,0.7324230617,0.007917998297,-0.00113516999,-0.6808028168,-0.274577111,-0.115014188,0.0892688781,0.584582984,-0.331973076,0.0529503413,-0.689415038,-0.190991521,-0.0668767989,0.854905665,-0.0364681333,0.0388346575,-0.0739767104,0,-0.174549907,-0.0346680209,0.197686508,-0.0652760267,-0.599600732,-0.166173384,-0.00701542385,-0.202344239,0.185009092,-0.649166822,0.196573213
121,-0.02271767708,-0.9697055576,0.6039225338,0.7373686327,0.006968741773,-0.0001577540482,-0.6754545959,-0.2630363342,-0.1113700972,0.07867777346,0.5974722508,-0.352968252,0.0514862083,-0.6589155078,-0.172771448,-0.0918172464,0.690023661,0.006624479306,0.06620903314,-0.0724116728,0,-0.174549907,-0.05678079726,0.1990594656,-0.0845843583,-0.597536838,-0.1733077616,-0.002070004994,-0.2003729194,0.1862457212,-0.6589437368,0.2264827488
122,-0.02328513826,-0.980913329,0.6023228528,0.7423165646,0.007145805664,-0.0004191208917,-0.6700111042,-0.2512929556,-0.1116658892,0.06870324608,0.6124169352,-0.37614817,0.05129704844,-0.6175164464,-0.159323701,-0.1226127718,0.5104652998,0.05347158238,0.0954869345,-0.07190817444,0,-0.174549907,-0.07264489528,0.1981771438,-0.09200875614,-0.594040251,-0.174335027,0.003871419698,-0.1992279114,0.1829248276,-0.6635625242,0.2475266578
123,-0.02362632228,-0.9926838998,0.5996486784,0.7491357574,0.008819936359,-0.002403475525,-0.662353417,-0.2406754998,-0.1189598736,0.05326348618,0.632826245,-0.4025505122,0.05266165662,-0.58282727,-0.1573168156,-0.1564871284,0.3529517354,0.08057625296,0.1217410686,-0.07800061702,0,-0.174549907,-0.0827145979,0.1952530444,-0.09404580448,-0.5945180416,-0.170801237,0.007637504306,-0.1991667958,0.1789745032,-0.6617122766,0.2564780596
124,-0.02404119076,-1.004595758,0.5965570332,0.7555885711,0.01099153692,-0.004324561731,-0.6549399938,-0.2305099246,-0.1260014504,0.0388586387,0.6530846952,-0.4289701524,0.05314039738,-0.617126489,-0.1663472504,-0.1618912756,0.3342109084,0.0399211116,0.1396413478,-0.08246899846,0,-0.174549907,-0.08820441066,0.1923801128,-0.09348765164,-0.596720946,-0.1673681024,0.009147866632,-0.1992314158,0.174175274,-0.6580112578,0.2613990248
125,-0.0247404445,-1.01614988,0.593656123,0.7602974379,0.0130026175,-0.005700224719,-0.6494199299,-0.219124913,-0.129665062,0.0292379707,0.66972518,-0.453951597,0.0522247925,-0.650062621,-0.172147304,-0.166672468,0.323403448,0.00188457535,0.151985377,-0.0815935433,0,-0.174549907,-0.0905885771,0.18977803,-0.0916513056,-0.59852457,-0.165923119,0.0104112765,-0.199275672,0.170564726,-0.655768812,0.262935817
126,-0.0261191182,-1.027382848,0.5908556582,0.7676131185,0.01489321442,-0.005451693179,-0.6407172321,-0.2127422482,-0.1312090576,0.009664609648,0.6888361574,-0.4782339572,0.05041068944,-0.6761366604,-0.1811432064,-0.1934648182,0.3171571552,-0.02347215862,0.1780014812,-0.09058807346,0,-0.174549907,-0.09511061756,0.1867033038,-0.08346675786,-0.6020756126,-0.157502404,0.009553179124,-0.1973777026,0.1547703236,-0.6477194784,0.2747280898
127,-0.02795832084,-1.038694194,0.5883798718,0.7715601337,0.01650775487,-0.005150555109,-0.6359213206,-0.2034374054,-0.128265849,0.0002217504668,0.7036987304,-0.4996132734,0.04648410306,-0.69503063,-0.1826931444,-0.1974187434,0.3132527228,-0.04013571664,0.1912743478,-0.09051540496,0,-0.174549907,-0.09572353662,0.1849480804,-0.0783870563,-0.6027463674,-0.1524687858,0.008418992536,-0.196589416,0.1477119744,-0.6443071722,0.2796671512
128,-0.03006998112,-1.050261834,0.5860529542,0.7748855528,0.01742362174,-0.0042096474,-0.6318473521,-0.1950709882,-0.1213421642,-0.007930635848,0.7206071736,-0.5184755086,0.04032749312,-0.7058200958,-0.1777911334,-0.1740717052,0.3161258282,-0.05101159294,0.18410871,-0.0904274136,0,-0.174549907,-0.09330581576,0.1829059658,-0.06970461604,-0.601422334,-0.1475436746,0.007613952462,-0.1958211954,0.1405064344,-0.6416008468,0.2795497772
129,-0.03203080146,-1.062298062,0.5836889984,0.7755410239,0.01806815345,-0.003644476864,-0.6310280341,-0.1838924022,-0.1121129156,-0.006517774608,0.7368908408,-0.534619737,0.0323109664,-0.7016152742,-0.1659006836,-0.1437175454,0.3191625716,-0.04212746916,0.1658377022,-0.08605584948,0,-0.174549907,-0.08423428386,0.18144435,-0.05054227114,-0.5966269732,-0.1363270462,0.003258784534,-0.1953214798,0.132369393,-0.6335812214,0.27970168
130,-0.0342459008,-1.0749023,0.581588089,0.7740020129,0.0180758498,-0.003164280659,-0.6329171629,-0.170251399,-0.0986089483,0.00334081543,0.75248456,-0.545351148,0.0215306859,-0.687202454,-0.150169253,-0.114002258,0.323957264,-0.0178138334,0.141384467,-0.0779142231,0,-0.174549907,-0.0722923279,0.180474699,-0.0340063535,-0.589397728,-0.12834689,-0.000591285818,-0.195559338,0.134918302,-0.62686491,0.277240038
131,-0.03797790408,-1.08781033,0.5801097632,0.7717570594,0.01727061492,-0.00140395961,-0.6356813636,-0.1600766,-0.07685929682,0.01705673098,0.7727370622,-0.5466675874,0.006715322844,-0.6717775224,-0.1307225468,-0.1099231156,0.3280680422,0.01981316062,0.1268384632,-0.06997282654,0,-0.174549907,-0.05754393188,0.1806992592,-0.01773545222,-0.5797841428,-0.1231129702,-0.004756133166,-0.1949093076,0.1408250062,-0.6214077948,0.2719367088
132,-0.04365716802,-1.100673676,0.5798136588,0.7700790522,0.0149224058,0.0009749328353,-0.6377731765,-0.1530390766,-0.04681705308,0.03062526992,0.7996398208,-0.5371230004,-0.0143386038,-0.6551536084,-0.107472622,-0.1141363964,0.3324847042,0.06677227538,0.09458292272,-0.06191714112,0,-0.174549907,-0.0397016555,0.1820605816,-0.004492681098,-0.5668673396,-0.1215509016,-0.008222775344,-0.193142691,0.145941606,-0.6158888336,0.2643858316
133,-0.05018407108,-1.11417711,0.579774153,0.7697795341,0.0107535338,0.003874973046,-0.6382075014,-0.149796075,-0.008299915974,0.04137418718,0.8353908776,-0.5150845648,-0.04256414774,-0.6391421438,-0.08095769282,-0.1246302782,0.3377553284,0.120809281,0.03439432386,-0.05424705,0,-0.174549907,-0.0199342258,0.1847112956,0.002095380798,-0.5498547674,-0.1244808346,-0.009069347758,-0.189893237,0.146251434,-0.6110882162,0.2574048994
134,-0.05681585,-1.128481318,0.580145693,0.769508891,0.00628646881,0.006011352912,-0.6385768635,-0.147757515,0.02967529294,0.0451148495,0.8746934058,-0.4743907932,-0.06984244736,-0.6193563698,-0.0565603763,-0.1366352914,0.3450647116,0.1448333798,0.00139652919,-0.04718293622,0,-0.174549907,0.001762519776,0.1867302776,0.009207644308,-0.527300906,-0.1325801998,-0.007774231582,-0.1863078956,0.1460128876,-0.6054920672,0.2489847842
135,-0.0634698272,-1.14306307,0.581286132,0.7682345598,0.002314891049,0.007097287558,-0.6401249338,-0.147639796,0.0628230721,0.0448415503,0.917323232,-0.414755106,-0.0932705328,-0.602242589,-0.0353293419,-0.141963586,0.36616981,0.137433246,-0.012259353,-0.0395419486,0,-0.174549907,0.0255002081,0.187307,0.0195759032,-0.501558244,-0.146253616,-0.00582765881,-0.183255121,0.148300618,-0.598636687,0.23879613
136,-0.06888343242,-1.15721471,0.5825030682,0.7623810467,9.519275108e-05,0.006496252454,-0.6470957652,-0.1533265888,0.0847213015,0.0495724142,0.9675000192,-0.3320441128,-0.1032062678,-0.6111419202,-0.01489228123,-0.125914401,0.4348620232,0.08887228968,-0.02789262162,-0.02615506946,0,-0.174549907,0.05369600652,0.1849281638,0.04002888422,-0.4768159868,-0.16775969,-0.005005188196,-0.1818174364,0.1592692882,-0.590381861,0.2297980096
137,-0.07315400544,-1.170529104,0.5835555552,0.7554732224,-0.001100572954,0.005305842249,-0.6551571162,-0.1681646738,0.1006919729,0.05177780614,1.02673476,-0.2389192166,-0.1123944702,-0.6111245272,0.005087606634,-0.1095108476,0.4818883954,0.04736012446,-0.04006505612,-0.01349617764,0,-0.174549907,0.08445737658,0.1805613962,0.06541172714,-0.4565758884,-0.1947756558,-0.006127478744,-0.1813658356,0.1757697702,-0.5824650644,0.2220628378
138,-0.07627243546,-1.18280761,0.584460735,0.7486412519,-0.001430656081,0.004133791967,-0.6629608894,-0.1947237132,0.1124142586,0.04809867072,1.096277948,-0.1405587418,-0.1253189262,-0.6066513774,0.0215608541,-0.09455766976,0.5151352882,0.01468134848,-0.04747198446,-0.003529606996,0,-0.174549907,0.1161106046,0.1749771508,0.09253256624,-0.4412529172,-0.223104745,-0.0089041667,-0.1817115154,0.1969145208,-0.5766621948,0.2161340948
139,-0.07898193004,-1.194032024,0.5851723076,0.7444783186,-0.001429284068,0.004197103519,-0.6676319155,-0.2378635466,0.122812304,0.03211665564,1.179420206,-0.05599516262,-0.1211071222,-0.601109612,0.03439716844,-0.08693258018,0.5397845624,-0.01328943578,-0.0578718327,0.003316317218,0,-0.174549907,0.1381690916,0.1701681106,0.1064802068,-0.430692893,-0.2376228422,-0.01242072692,-0.1824976864,0.2132543742,-0.5762071254,0.2144395352
140,-0.0814497322,-1.20428836,0.585878551,0.7428615427,-0.00112970297,0.005324628948,-0.6694229608,-0.292447954,0.134288952,0.00908629317,1.26714849,0.0157781653,-0.110737689,-0.595306158,0.0431202278,-0.0856751949,0.559296668,-0.0381903686,-0.0700623393,0.00668693008,0,-0.174549907,0.158040851,0.165718406,0.114384286,-0.423026502,-0.245437384,-0.0177406147,-0.183626875,0.230641454,-0.579589009,0.214997262
141,-0.08362689912,-1.213906336,0.586738622,0.7437328717,-0.0005665801512,0.007185573139,-0.6684380765,-0.3500509742,0.149402243,-0.0147215001,1.343693854,0.08104072212,-0.1302918884,-0.5898946522,0.04758834688,-0.09130161254,0.5759179594,-0.06057044638,-0.08296518178,0.00669315336,0,-0.174549907,0.1743732926,0.1613403472,0.1172645676,-0.4199805974,-0.2480810496,-0.02481063794,-0.1852122216,0.2483240638,-0.5848937036,0.2140780836
142,-0.0853926048,-1.223344112,0.5877895596,0.7450858469,-0.0001443267093,0.008859441004,-0.6669097167,-0.403945088,0.1747601214,-0.02261312564,1.406257436,0.0991459236,-0.1316722632,-0.5828335766,0.05016577394,-0.09836741686,0.589818287,-0.081248185,-0.0945000112,0.00522287227,0,-0.174549907,0.1872295682,0.1576538204,0.1132166418,-0.4197541836,-0.2462777164,-0.03253105244,-0.187177795,0.2656885922,-0.59039762,0.2119099256
143,-0.08632228228,-1.23259764,0.5891184214,0.7445402598,2.311289057e-05,0.009714930322,-0.6675068697,-0.446628195,0.2155262262,-0.002353931218,1.449094728,0.05036792606,-0.09989578886,-0.5729723098,0.05404837282,-0.1007008732,0.6003093958,-0.09958498488,-0.1038371664,0.007807767762,0,-0.174549907,0.1999670298,0.154640621,0.09787718502,-0.4233077284,-0.242984152,-0.0414906047,-0.1896594404,0.2866374136,-0.5942035202,0.2074295762
144,-0.0864506632,-1.24115982,0.5905956742,0.7410122598,0.0007303483432,0.009711130577,-0.6714208749,-0.4840769292,0.2457774846,0.02098875936,1.475894786,0.007328271159,-0.06317507104,-0.5628200054,0.06016166358,-0.0929873943,0.6065730692,-0.1131228654,-0.1106733438,0.01590587796,0,-0.174549907,0.2114249498,0.151919949,0.07495256214,-0.430524379,-0.236209774,-0.05167183878,-0.1924006222,0.3080639602,-0.5920744296,0.2013442844
145,-0.0858670548,-1.24891055,0.592108428,0.7361850399,0.00194330516,0.009151601739,-0.676715641,-0.517849445,0.261879474,0.0416896008,1.48783553,-0.0279041268,-0.0289212577,-0.553065956,0.065568693,-0.0803363472,0.610217929,-0.123862915,-0.114857733,0.0253380202,0,-0.174549907,0.217685327,0.149209499,0.0575915985,-0.437013954,-0.22615917,-0.0627629235,-0.194197595,0.323700607,-0.584299028,0.201516449
146,-0.08469620202,-1.255902052,0.593634701,0.731480531,0.003563823145,0.008386120807,-0.681801441,-0.5478749874,0.2574638248,0.05112658814,1.482727262,-0.0515888393,-0.01477767822,-0.5438874126,0.06795025764,-0.06922150252,0.6118510128,-0.1337561874,-0.1166672082,0.0339390658,0,-0.174549907,0.217350444,0.146289006,0.06097607012,-0.4394857288,-0.1950667914,-0.0722188324,-0.194792408,0.3312776804,-0.5767213468,0.2060402096
147,-0.0833187386,-1.262337136,0.5951120498,0.727516898,0.00543875264,0.007535786445,-0.686026818,-0.5746087434,0.241196099,0.0536543727,1.464332936,-0.07026267346,-0.01431485432,-0.53570025,0.06783227922,-0.05892446038,0.6134961728,-0.143700182,-0.116600925,0.04042638992,0,-0.174549907,0.2118145886,0.1439492466,0.07621233614,-0.4399908066,-0.143748447,-0.08021199998,-0.194688219,0.3363003258,-0.5715368866,0.2100504904
148,-0.08189676404,-1.268539408,0.5964405776,0.724809399,0.007492359547,0.006673917582,-0.6888763739,-0.597893822,0.2158869922,0.049612277,1.433388064,-0.08619431556,-0.02681805416,-0.5285845516,0.06531684696,-0.05009487942,0.6161922814,-0.1543428394,-0.1148889702,0.04369038642,0,-0.174549907,0.2009544672,0.1425704478,0.1021657516,-0.4388339582,-0.07369480062,-0.08638925102,-0.1942326814,0.3411624494,-0.5704876904,0.2096446368
149,-0.08064513504,-1.274523472,0.5975796582,0.722668132,0.009141530508,0.005838029287,-0.6911100641,-0.6172171474,0.1902207764,0.04294969442,1.394403174,-0.09892159416,-0.04088526886,-0.5212401748,0.06227660552,-0.04417747408,0.6192736272,-0.165597525,-0.113429506,0.04543898476,0,-0.174549907,0.194972503,0.143647537,0.1088807256,-0.4403260648,-0.04940530208,-0.08914836798,-0.1934141968,0.344696081,-0.5718043208,0.2083742172
150,-0.0796541497,-1.28036368,0.598561406,0.720688171,0.0107299584,0.00504437792,-0.693157978,-0.63238591,0.164548397,0.0349841714,1.34763563,-0.107901983,-0.0529533289,-0.514437497,0.059163101,-0.0392709784,0.62308526,-0.177311391,-0.111824818,0.0463528,0,-0.174549907,0.189971179,0.146908462,0.107749276,-0.444188744,-0.0475904569,-0.0916285813,-0.192241251,0.348651618,-0.574431181,0.207636133
151,-0.07878502606,-1.286120318,0.5993873358,0.7188105393,0.01246610018,0.004040623377,-0.6950824975,-0.6423360588,0.1391537102,0.026837397,1.29274731,-0.110946551,-0.05286507232,-0.5081199528,0.05560821442,-0.03364728838,0.6273408058,-0.1891004654,-0.1082938434,0.04687556624,0,-0.174549907,0.1822568238,0.1537238036,0.0852330476,-0.4517256498,-0.07102727744,-0.09595726578,-0.1916942388,0.3620437382,-0.581583762,0.2037952334
152,-0.07806720138,-1.291704368,0.6000650406,0.7167345517,0.01369365346,0.003046866783,-0.6972049791,-0.6460802676,0.1127118958,0.01546179354,1.229041794,-0.1086717274,-0.05114338624,-0.5012345668,0.05322399142,-0.02792015892,0.6316340206,-0.2004624068,-0.1052686988,0.04788451638,0,-0.174549907,0.1761189074,0.1600900676,0.04781143664,-0.4601113082,-0.1377821028,-0.09900797904,-0.1928407464,0.3854676602,-0.5937154056,0.1936139108
153,-0.07750761214,-1.29729862,0.6006224156,0.7142623888,0.01420554949,0.002218391397,-0.6997303203,-0.6427605392,0.08553749772,-0.000942932674,1.155446718,-0.1009377358,-0.05130068886,-0.493436134,0.05285333696,-0.02198255022,0.6355565904,-0.210996291,-0.1037000212,0.0491630614,0,-0.174549907,0.1736680656,0.1647766348,0.02593199276,-0.464413267,-0.2219232324,-0.09870073496,-0.1945281264,0.4066753682,-0.6062789318,0.1864277812
154,-0.0770438835,-1.30281401,0.6010148164,0.7118288578,0.01405696257,0.001479748504,-0.7022107158,-0.6290344478,0.05974391624,-0.01955334616,1.06831994,-0.08846299052,-0.06856878546,-0.4844350398,0.05361005514,-0.01682515998,0.6386619808,-0.2211921988,-0.1020400986,0.0493813403,0,-0.174549907,0.1699863136,0.1685817658,0.0133586606,-0.4670358062,-0.2639826894,-0.098671633,-0.1947896214,0.4224009696,-0.6151834012,0.1851622312
155,-0.0766937882,-1.30835497,0.601357043,0.7094958449,0.0133212619,0.0007609465999,-0.7045832889,-0.607521117,0.0380774401,-0.0380905457,0.974668503,-0.0807996169,-0.0892382339,-0.474139154,0.0551362857,-0.0125371497,0.640924513,-0.231099367,-0.100228511,0.0483887382,0,-0.174549907,0.166135907,0.171170115,0.0098833302,-0.468855083,-0.276058137,-0.0990155637,-0.19411625,0.433232963,-0.62057966,0.184953555
156,-0.07651195674,-1.313995172,0.6016923072,0.7071424571,0.01201981715,-0.0003077392592,-0.706968864,-0.5840062622,0.02350314072,-0.051127772,0.891312826,-0.1063201278,-0.0763573274,-0.461520195,0.05701163784,-0.008858037922,0.641704786,-0.2407034934,-0.09763046056,0.04589418622,0,-0.174549907,0.1577862386,0.1709915844,0.01930257898,-0.468314379,-0.2741607908,-0.09407965688,-0.1947424264,0.453281099,-0.6311326858,0.1842340496
157,-0.07623715102,-1.319457528,0.6019860982,0.7051659544,0.01035053397,-0.001150328128,-0.7089658101,-0.5606400488,0.02110721912,-0.0491724856,0.8263753414,-0.1333089292,-0.06371945146,-0.448677617,0.05901160764,-0.006553296374,0.6423560144,-0.249289599,-0.0974717319,0.04119299576,0,-0.174549907,0.1495509744,0.1715608448,0.0309112731,-0.467797512,-0.2506611052,-0.087356171,-0.1939662068,0.4627895358,-0.6380115744,0.1830739554
158,-0.07586110534,-1.32474024,0.6022919298,0.7037036551,0.008504620984,-0.002051289612,-0.7104397437,-0.5364004488,0.0313845359,-0.02471619356,0.7828075166,-0.1492963288,-0.06525080504,-0.4359086986,0.06006357892,-0.005532719474,0.643313134,-0.2564340354,-0.1009540426,0.03378604986,0,-0.174549907,0.1410593304,0.1730184406,0.0397161111,-0.4688233374,-0.2221224572,-0.0790240422,-0.1920029012,0.466750777,-0.6417278054,0.1774384704
159,-0.07519167362,-1.329851534,0.6027269838,0.7027454786,0.006583158337,-0.002821564146,-0.7114052946,-0.5141970754,0.0378891282,-0.006951257766,0.7623674868,-0.1687509478,-0.06027788446,-0.4223851506,0.06045341792,-0.005641962032,0.6421327832,-0.2630253074,-0.101611464,0.02558784634,0,-0.174549907,0.1325883392,0.1753315124,0.04382381516,-0.4714593414,-0.2012898354,-0.07070071252,-0.1900824992,0.4665154696,-0.6415186404,0.1728892538
160,-0.0741521791,-1.33472323,0.603256047,0.7024065769,0.004824696049,-0.00350303897,-0.7117509759,-0.493268669,0.0404343531,0.00497556943,0.754506052,-0.188699529,-0.0512988269,-0.408219248,0.0592974164,-0.0069708894,0.638237417,-0.268602252,-0.0997204855,0.0169186294,0,-0.174549907,0.123633318,0.178076267,0.0449701734,-0.475339681,-0.19119896,-0.0621522032,-0.187943369,0.461250007,-0.637467861,0.171572581
161,-0.07215233,-1.338980532,0.6042619942,0.703121479,0.003882535189,-0.004166265692,-0.7110469421,-0.4717357876,0.03752998856,0.01473564522,0.735912573,-0.2006157128,-0.04545497968,-0.3936515986,0.05394016354,-0.009964319122,0.6294472216,-0.2716596186,-0.09562056808,0.00835288931,0,-0.174549907,0.1124137174,0.1810903666,0.0421277948,-0.4794133424,-0.1881302682,-0.0525880486,-0.1860448866,0.4490084648,-0.630882001,0.1702405362
162,-0.0697590813,-1.343264296,0.6055660364,0.7039441176,0.003195822808,-0.004876649923,-0.7102314301,-0.4480802772,0.0325539276,0.02254071792,0.7116351132,-0.210327345,-0.04168644324,-0.3785855112,0.0474009268,-0.01324866042,0.6186228636,-0.2732423484,-0.0906134397,0.001489416512,0,-0.174549907,0.0998464242,0.1838029266,0.03807236626,-0.4829217792,-0.1899208012,-0.04152988122,-0.1840077402,0.4333546578,-0.623106992,0.170043394
163,-0.06724069122,-1.347433112,0.6069127916,0.7044386008,0.002588993162,-0.005664072446,-0.7097376086,-0.4212944628,0.02670703532,0.02884285452,0.68175869,-0.2197105556,-0.04029514788,-0.363214666,0.04070004892,-0.01604589856,0.6068714976,-0.2736129344,-0.08528120812,-0.002731390992,0,-0.174549907,0.08724887522,0.1859614822,0.03411800708,-0.4865392984,-0.1942076116,-0.02775728108,-0.1817893626,0.4162201286,-0.6157498596,0.1708111074
164,-0.06483959404,-1.351362468,0.608151126,0.7035076531,0.002436496574,-0.006516275145,-0.7106536313,-0.3927207348,0.02180887682,0.03937990294,0.6475362062,-0.228820208,-0.03715715928,-0.3504806758,0.03523629382,-0.0147142362,0.5968474028,-0.2730220138,-0.08184277118,-0.004067387712,0,-0.174549907,0.07428735642,0.1869193018,0.03401192128,-0.4900873246,-0.1970253556,-0.01055066995,-0.1785882148,0.3982171358,-0.6095232126,0.168045947
165,-0.0624555089,-1.35489154,0.609232843,0.701418386,0.00276454323,-0.00741018107,-0.712705896,-0.36380741,0.0170722045,0.0534728765,0.611056089,-0.236277789,-0.0321662575,-0.340120465,0.0303499531,-0.00977727398,0.588090956,-0.271641582,-0.0797384232,-0.00341236778,0,-0.174549907,0.060991887,0.186829582,0.0371096991,-0.493907005,-0.197128177,0.00924986508,-0.174939528,0.381634533,-0.604327023,0.158777907
166,-0.059824086,-1.357978486,0.6103993178,0.6985184747,0.003848243454,-0.008408497543,-0.7155322695,-0.3376369182,0.01069967208,0.07062157244,0.576173103,-0.2378979948,-0.02456278952,-0.332088053,0.02448421904,-0.001521427764,0.5795539142,-0.269382,-0.0777994588,-0.002539788282,0,-0.174549907,0.04755275924,0.185692033,0.04204390944,-0.499397111,-0.191249749,0.02987070902,-0.171155512,0.3709682762,-0.597230542,0.1371448934
167,-0.05693893208,-1.36087711,0.6114874362,0.6961718545,0.00499228058,-0.009389243902,-0.7177963974,-0.3142705266,0.002793775402,0.08565109822,0.5447229264,-0.2371791928,-0.01601272818,-0.3247225288,0.01760139764,0.005433635088,0.571744323,-0.2677425082,-0.0755115196,-0.002996607774,0,-0.174549907,0.03451559246,0.1844336632,0.04575126174,-0.5062561158,-0.1804550888,0.04540660602,-0.1697095634,0.3679796042,-0.5918429252,0.1091569188
168,-0.0542150468,-1.363715002,0.6124747038,0.6951289154,0.00581113796,-0.01023063505,-0.7187888116,-0.2938498136,-0.005954816936,0.0958033323,0.5170006034,-0.2344795378,-0.00699325558,-0.3157710136,0.009896554078,0.008275245314,0.5621248602,-0.266060412,-0.0726461574,-0.005920777284,0,-0.174549907,0.0224408098,0.1835393008,0.0463802293,-0.514773369,-0.1650156738,0.05256853548,-0.1717159748,0.3734774172,-0.5894932982,0.08104384242
169,-0.05187377186,-1.366547702,0.6132775186,0.6952696877,0.005875794367,-0.0105030536,-0.7186481909,-0.2778802394,-0.0120918473,0.1004653573,0.4966793776,-0.2322268278,-0.002255346972,-0.3052811384,0.003934953596,0.006420003528,0.5512309668,-0.2647224906,-0.07000827642,-0.01033665107,0,-0.174549907,0.01238002854,0.1835021438,0.04365513472,-0.5238330956,-0.1507001996,0.0514781527,-0.1768671692,0.381923103,-0.5896612524,0.06642929766
170,-0.0500828326,-1.36930919,0.61394912,0.6961722607,0.005523905798,-0.0103881363,-0.7177783477,-0.265355885,-0.0161199663,0.101283409,0.481612802,-0.230398685,-0.000621562009,-0.294290572,-0.000645440712,0.00170106895,0.540108085,-0.26381883,-0.0675083697,-0.0154769821,0,-0.174549907,0.00392178167,0.183950469,0.0381137207,-0.533372343,-0.137716666,0.0442423671,-0.18414706,0.391012013,-0.590129018,0.0707758591
171,-0.04858453344,-1.371713734,0.614466345,0.6968820943,0.005418010071,-0.01010671564,-0.7170940288,-0.2549932838,-0.01926402152,0.1018503874,0.4686208126,-0.2291722354,-0.0007295319814,-0.2856181622,-0.004235943596,-0.001927566458,0.5310019732,-0.2635008454,-0.06480762956,-0.0192278601,0,-0.174549907,-0.003062736198,0.1840153898,0.03229380402,-0.54213562,-0.1292669742,0.03489008544,-0.192109048,0.398871243,-0.5855881096,0.0975589498
172,-0.04726994332,-1.373957492,0.6148649458,0.6972453975,0.005572315223,-0.009891892304,-0.7167426005,-0.2454369934,-0.02235917224,0.1030621352,0.4564585508,-0.2284810306,-0.0001556956341,-0.2789008502,-0.007563002594,-0.003984233132,0.524445963,-0.264051008,-0.06222123652,-0.02202593572,0,-0.174549907,-0.008899749812,0.1836147608,0.0261343736,-0.5500200034,-0.1243675918,0.02538369822,-0.1989571066,0.4030370416,-0.5791939496,0.1363472056
173,-0.04607577248,-1.376108576,0.6150856378,0.6970843416,0.006051774581,-0.00985650119,-0.7168958404,-0.2362591776,-0.02601866912,0.1056978388,0.4448409734,-0.2285255698,0.002128481864,-0.2743901912,-0.01089402508,-0.003829515492,0.5210188152,-0.2656360742,-0.05985799956,-0.02379277198,0,-0.174549907,-0.01330878862,0.1827305676,0.01928575372,-0.5571796416,-0.121656184,0.01883529272,-0.2041116896,0.4028839468,-0.5738013626,0.1785541534
174,-0.045046749,-1.3780535,0.615156698,0.6963875296,0.006667911288,-0.009763146729,-0.7175685532,-0.2293787744,-0.02883950808,0.1089438186,0.4370274666,-0.2302653044,0.00356355095,-0.272232658,-0.0134141479,-0.001641604842,0.5206159472,-0.2681340038,-0.05910279158,-0.02452517488,0,-0.174549907,-0.01682394482,0.181544188,0.01352439574,-0.5637310742,-0.1194546564,0.01698142104,-0.2062222332,0.3958560766,-0.5712359666,0.2067099304
175,-0.04411624,-1.3798089,0.615123391,0.6954035809,0.007344993189,-0.009448724988,-0.7185197509,-0.224623904,-0.0308661573,0.112316914,0.431955963,-0.232631534,0.00450597098,-0.271793336,-0.0149666304,0.00167919917,0.521773219,-0.271222562,-0.058009468,-0.0246292017,0,-0.174549907,-0.0196054876,0.180191576,0.0091135893,-0.568951547,-0.117684692,0.0189290643,-0.206415907,0.386658013,-0.571223199,0.213805407
176,-0.04341318684,-1.381235526,0.6151093484,0.6944035178,0.008116825719,-0.00864672054,-0.719488086,-0.2239006282,-0.03183054626,0.1150762948,0.4313914718,-0.235075897,0.006212747188,-0.2711785434,-0.01544810852,0.00497458223,0.5195965292,-0.273740524,-0.04996610434,-0.02421866508,0,-0.174549907,-0.02196363884,0.178663522,0.005459496566,-0.572639644,-0.1160783796,0.02252268268,-0.2049020708,0.3770858702,-0.5718675856,0.2033620774
177,-0.04271354974,-1.382241628,0.6150801422,0.6938392899,0.008971298143,-0.007564781445,-0.7200342559,-0.2252008286,-0.03259069248,0.1163660404,0.432512647,-0.2374942244,0.008258772644,-0.271885365,-0.01576447596,0.007006566134,0.5184898016,-0.2754464988,-0.04520374314,-0.02399937252,0,-0.174549907,-0.02329410984,0.177054393,0.001890208062,-0.5746968272,-0.1142745702,0.0264818579,-0.2032554092,0.368951851,-0.5725404382,0.1862843126
178,-0.0422203615,-1.383122704,0.6150492194,0.6939079766,0.009857675817,-0.00625447604,-0.7199690464,-0.2284989238,-0.03313076498,0.115612581,0.4357007566,-0.240485838,0.01059583128,-0.2746890906,-0.01608163192,0.007288621464,0.5205883738,-0.2764275554,-0.04781698808,-0.0242201075,0,-0.174549907,-0.02359168564,0.1754437654,-0.001150820731,-0.5748540518,-0.113112761,0.0294437479,-0.2016918096,0.3629096984,-0.5722472072,0.1745585802
179,-0.04179565314,-1.384021474,0.6149947644,0.6942208578,0.01071304758,-0.005102810291,-0.7196642221,-0.2312813282,-0.03380061762,0.1144105748,0.4383489072,-0.2431842388,0.0128853416,-0.27712093,-0.01654982346,0.007080276772,0.5229380606,-0.2781141756,-0.04910696526,-0.02411009186,0,-0.174549907,-0.02308438386,0.1739025322,-0.004420408698,-0.574020207,-0.1126349124,0.03180101068,-0.2012209952,0.3592581152,-0.5713987468,0.167386258
180,-0.0415015556,-1.3850019,0.614915788,0.694635705,0.0115296573,-0.00405670677,-0.719257845,-0.233578205,-0.0344687663,0.112979248,0.440541059,-0.245711476,0.0147453705,-0.279130608,-0.0170416236,0.00659358129,0.525208473,-0.280135036,-0.0494059511,-0.0238495339,0,-0.174549907,-0.0217214171,0.172317296,-0.00841722731,-0.572340369,-0.112829931,0.0338536985,-0.201803982,0.357983589,-0.570106566,0.163691074
181,-0.04126612468,-1.386063026,0.6148520472,0.6948163912,0.01222882645,-0.002974064842,-0.7190770426,-0.2355252384,-0.03456368148,0.111681923,0.4427145186,-0.2482677934,0.0150715435,-0.2806699392,-0.01706718542,0.006246092544,0.5267962218,-0.2814563574,-0.04974806084,-0.02380232958,0,-0.174549907,-0.01925508902,0.1708448736,-0.01376135166,-0.5697865126,-0.1140154316,0.03569131792,-0.2029496464,0.3595196246,-0.5687040804,0.16279164
182,-0.0410583928,-1.38722947,0.6147670272,0.6946329092,0.01278032058,-0.001882213017,-0.7192483869,-0.2371754766,-0.03397829532,0.1114144386,0.4454764124,-0.2517555598,0.01497753562,-0.2816296998,-0.01652932058,0.00661496455,0.5278773306,-0.2830281082,-0.05012833326,-0.02307624478,0,-0.174549907,-0.01144672412,0.1683157328,-0.03002777176,-0.561702871,-0.1191445264,0.0396288782,-0.204308426,0.370303327,-0.565886319,0.166465348
183,-0.04078185558,-1.388537334,0.6146763208,0.6939598732,0.013108021,-0.0009325196801,-0.7198937453,-0.2375613426,-0.03278221714,0.1129779388,0.4478586316,-0.2560063362,0.01488147116,-0.2813317958,-0.01551614426,0.00797556136,0.527853811,-0.284911221,-0.05055194052,-0.02154256964,0,-0.174549907,-0.004017711496,0.166306895,-0.03783392984,-0.5548247218,-0.121800268,0.04340090082,-0.2034391312,0.3788875696,-0.5644704696,0.173925549
184,-0.04052596244,-1.389793448,0.6145441886,0.6931903293,0.01337700722,-0.0001177698468,-0.7206304248,-0.2373227092,-0.03181966544,0.1149500172,0.449360591,-0.2595471082,0.01499482786,-0.2804049668,-0.01459688022,0.009572494774,0.526781297,-0.2865214406,-0.05044387056,-0.02055074904,0,-0.174549907,0.00381113803,0.1643229514,-0.03865721898,-0.5475350858,-0.120403302,0.04694064632,-0.2020314008,0.3865326048,-0.5652307984,0.1838404178
185,-0.0403013825,-1.39102328,0.614498973,0.6923145054,0.01359691841,0.0005633393883,-0.7214675544,-0.236375526,-0.0310289096,0.117310651,0.449798316,-0.262388527,0.0150094563,-0.279075921,-0.0137668997,0.0114407875,0.525052309,-0.287739277,-0.049857676,-0.0199723691,0,-0.174549907,0.0117352456,0.162402764,-0.0361953266,-0.538276494,-0.115418002,0.0502971187,-0.200433791,0.394408673,-0.567689538,0.194906861
186,-0.04005175604,-1.392144916,0.6145612478,0.6912307681,0.01381902457,0.001084388606,-0.7225011307,-0.233957684,-0.03039362018,0.1202724024,0.4477117654,-0.2642022372,0.01371427458,-0.277915126,-0.01305943898,0.01390115544,0.5235850098,-0.2882003844,-0.04869024604,-0.019544521,0,-0.174549907,0.01974647122,0.160843015,-0.03097417282,-0.5272925736,-0.106616773,0.05254926086,-0.1986368182,0.4001614394,-0.5713110684,0.2062336478
187,-0.03983923866,-1.39318304,0.6146368506,0.6901105849,0.01394479228,0.001544067441,-0.7235679231,-0.2318162088,-0.02953325022,0.1234855992,0.4462381956,-0.265797162,0.01391906476,-0.276598245,-0.01220452264,0.01639398932,0.5219205978,-0.2883695724,-0.04788906948,-0.01920527552,0,-0.174549907,0.02729691152,0.160157722,-0.02580643516,-0.5166164282,-0.09892845744,0.05318901468,-0.1976833168,0.4037869332,-0.5743739608,0.2168558802
188,-0.03967409806,-1.394097018,0.61462729,0.6890267199,0.01393310078,0.001985398343,-0.7245992728,-0.23059417,-0.02825987714,0.126798835,0.4465084134,-0.2674575748,0.01670676882,-0.2750698206,-0.0110756982,0.01869225094,0.520008254,-0.2884484352,-0.047873763,-0.01892666776,0,-0.174549907,0.03443283588,0.1604977996,-0.02128009646,-0.5073169472,-0.09761025306,0.05116003676,-0.1979397714,0.405095601,-0.5752676128,0.2260150436
189,-0.0395825319,-1.394948956,0.6146134856,0.6884624243,0.01401721667,0.002516561894,-0.7251321776,-0.2297558724,-0.02744898162,0.1281227736,0.4465737816,-0.269219679,0.016074108,-0.2735161602,-0.01025625878,0.0195065636,0.5178239822,-0.288647735,-0.04782532082,-0.01990928652,0,-0.174549907,0.03841203752,0.1615139184,-0.01979434642,-0.5030798912,-0.09932738542,0.04956306292,-0.1984061778,0.4053865908,-0.575473535,0.2285664202
190,-0.0395646989,-1.39576209,0.614698529,0.6880557047,0.01418419919,0.003136361029,-0.7255124527,-0.229258478,-0.0267403387,0.12867716,0.446468383,-0.270925939,0.0136763323,-0.272284478,-0.0093870461,0.0199339036,0.51565057,-0.288710028,-0.047949072,-0.0210948642,0,-0.174549907,0.0421782173,0.163416266,-0.0198681094,-0.499806017,-0.101370357,0.0481742471,-0.199175403,0.405494422,-0.57600826,0.228602231
191,-0.03955224678,-1.396395946,0.6147852418,0.6877287796,0.0146286616,0.003995580767,-0.7258093161,-0.230209297,-0.02594105268,0.128926867,0.4467064676,-0.271789205,0.0136972079,-0.2727067412,-0.00833949,0.02066687196,0.5144108888,-0.2881270408,-0.04874083476,-0.02185852674,0,-0.174549907,0.04688759594,0.1661055174,-0.02104139182,-0.4960272728,-0.1054827168,0.04650740552,-0.2003211378,0.4056385698,-0.5765095232,0.2285466908
192,-0.03959372712,-1.396889138,0.614733744,0.6875197685,0.01518080791,0.004976662546,-0.7259899062,-0.2320504248,-0.02493207638,0.1289831818,0.4480542538,-0.2732765618,0.01473104172,-0.2733790334,-0.007230851798,0.02101099152,0.513273227,-0.2883232,-0.04932134152,-0.02194055054,0,-0.174549907,0.05213634296,0.1690635444,-0.02327382676,-0.4921528698,-0.1117279264,0.0447477795,-0.2013892506,0.4052692534,-0.5769263144,0.2280698688
193,-0.0397497505,-1.397583268,0.6145855068,0.6875471597,0.01550616586,0.006039358867,-0.7259490259,-0.2347206144,-0.0231776949,0.1285612526,0.4517998398,-0.2763833878,0.01647510084,-0.2731257496,-0.00577704916,0.0201979108,0.511619222,-0.2897233488,-0.04957696346,-0.02095866164,0,-0.174549907,0.06712294522,0.171288028,-0.02462657204,-0.485576266,-0.1497394918,0.04018551708,-0.2019412606,0.3996482374,-0.5764641998,0.2162334888
194,-0.03980248572,-1.398247048,0.614593077,0.6876819709,0.01603003364,0.006857794687,-0.7258026698,-0.2368176792,-0.02260036022,0.1282258896,0.4542095184,-0.2781250294,0.01828832664,-0.2748695672,-0.004697835444,0.02101592348,0.5136833906,-0.2893509744,-0.05803057324,-0.0199560888,0,-0.174549907,0.07195248904,0.1714140388,-0.02102337966,-0.484126246,-0.1676054062,0.03931737538,-0.2013201956,0.3975451412,-0.5761996624,0.2075838178
195,-0.0397886671,-1.39873803,0.614558756,0.687698664,0.0167064388,0.007683927671,-0.725763322,-0.239004597,-0.0223871134,0.128101751,0.45614481,-0.279330373,0.0196283981,-0.277723312,-0.00368015049,0.0226532426,0.51701647,-0.288030118,-0.0690241456,-0.0180848483,0,-0.174549907,0.0762745738,0.17179516,-0.0203002822,-0.481605679,-0.173417643,0.0395350978,-0.199992523,0.3942146,-0.577469766,0.20075193
196,-0.03989799096,-1.399267104,0.614595258,0.6874531036,0.01731483789,0.008558117229,-0.7259718902,-0.2408445298,-0.0217603121,0.1280625972,0.457244408,-0.2807018696,0.01934904754,-0.2785755692,-0.003342725804,0.02171696834,0.5158312798,-0.2883807064,-0.06834690574,-0.01531329156,0,-0.174549907,0.08220546988,0.171439123,-0.01675224046,-0.4800851464,-0.1838753342,0.04092116802,-0.1999228836,0.393252486,-0.5813094612,0.1860836862
197,-0.04018604162,-1.399822356,0.6144476298,0.6873065483,0.01779286703,0.009227773854,-0.7260908832,-0.2416131462,-0.02124730794,0.1277249786,0.4574471474,-0.2821637572,0.01762897224,-0.2778628824,-0.003109546566,0.0206788454,0.5131432536,-0.2899720494,-0.06231668146,-0.01323421242,0,-0.174549907,0.08410392554,0.1713975014,-0.01575302966,-0.4793127356,-0.1848195224,0.04133472888,-0.1996657256,0.3940289618,-0.5822512862,0.1840261224
198,-0.04037945718,-1.400560716,0.6144709586,0.6869064958,0.018131338,0.009856377283,-0.7264527324,-0.2414366338,-0.02026801932,0.1280367466,0.4571450056,-0.284186512,0.0142869186,-0.2757461068,-0.00197981114,0.02156288138,0.5090097664,-0.2922470812,-0.05246964846,-0.01089092344,0,-0.174549907,0.08946189578,0.1714406042,-0.01303046942,-0.47837801,-0.186169419,0.04330678284,-0.199902633,0.4012586058,-0.5842910644,0.1827433136
199,-0.0405659132,-1.400930622,0.6143986584,0.6868127435,0.01849071427,0.01035018505,-0.7265254452,-0.2421427788,-0.01959034576,0.1281292436,0.4579172256,-0.2851398828,0.01431521844,-0.2746228996,-0.001060041007,0.02207871004,0.50612247,-0.2931383012,-0.04699568968,-0.008527384326,0,-0.174549907,0.09270527218,0.1714454736,-0.01176636388,-0.4787338196,-0.1866469352,0.04506646396,-0.2000500914,0.4079805674,-0.5852318648,0.1841414864
200,-0.0408271477,-1.4014672,0.614545822,0.686854576,0.0188380473,0.0107987715,-0.726470444,-0.243256718,-0.0190123189,0.128085554,0.459161609,-0.285606831,0.0158860013,-0.273717403,-0.000261171663,0.0222901404,0.503324091,-0.293480605,-0.0425067768,-0.00622657361,0,-0.174549907,0.0962496176,0.171501726,-0.0114151668,-0.479935437,-0.186460063,0.0472222567,-0.199873969,0.416353256,-0.58580792,0.187768057
201,-0.04104349612,-1.40206673,0.6145282746,0.6868471014,0.01905797534,0.01109121517,-0.7264673687,-0.242561537,-0.01871007944,0.1276768686,0.458321136,-0.2865439954,0.01396453606,-0.2702214358,-0.0001296284126,0.02168576644,0.4973097442,-0.2961106836,-0.02776225024,-0.004885844142,0,-0.174549907,0.1004885287,0.1716772914,-0.01230692302,-0.4822026312,-0.1865033296,0.0494023994,-0.199767676,0.4225273074,-0.5853832962,0.191182205
202,-0.04114027698,-1.402472472,0.6144452094,0.6869828991,0.01926376541,0.01133815019,-0.7263297116,-0.242234987,-0.01845081708,0.1273516568,0.4580581786,-0.2873412844,0.01360816824,-0.2680864096,-0.000400677533,0.0203172613,0.4939458672,-0.2981844546,-0.0191990558,-0.003636407852,0,-0.174549907,0.1029968326,0.1716027912,-0.01309363336,-0.4835521938,-0.1865868032,0.0503537416,-0.1998015138,0.425280517,-0.5842632416,0.1921842814
203,-0.04124511328,-1.402838448,0.6144260052,0.6872694568,0.019463615,0.01156167958,-0.7260497152,-0.2428955376,-0.01807347986,0.1274795922,0.4592404128,-0.2878058376,0.01657445916,-0.2688427808,-0.0009210274788,0.01843194294,0.495707154,-0.2987491068,-0.02322145032,-0.002096991194,0,-0.174549907,0.103631817,0.1712235304,-0.01327029842,-0.4836970748,-0.1862567868,0.05067294912,-0.199940196,0.425890887,-0.5835932616,0.1919300232
204,-0.04132078442,-1.403368138,0.6144581794,0.6877408329,0.01960532139,0.01170365705,-0.7255971352,-0.2429765522,-0.01820631362,0.126600945,0.4599046586,-0.288617933,0.01667753418,-0.268020767,-0.001347345698,0.01671724244,0.4953638672,-0.300078398,-0.0223591052,-0.000876631286,0,-0.174549907,0.104212642,0.170793879,-0.01379261704,-0.483808708,-0.1858804642,0.0507815726,-0.2003506274,0.4266085324,-0.5828808668,0.191786149
205,-0.041446887,-1.40389633,0.614413679,0.6889587109,0.0196084682,0.0117337965,-0.7244402809,-0.242834732,-0.0190504678,0.123285927,0.460380524,-0.289412856,0.0154947108,-0.266201854,-0.00208132528,0.0134834424,0.494623005,-0.301688194,-0.0210045986,-0.00169122277,0,-0.174549907,0.106006555,0.170293316,-0.0167602319,-0.484695554,-0.184460774,0.0497285686,-0.20132263,0.429159313,-0.580710471,0.192502275
206,-0.04139863996,-1.404241276,0.61424129,0.6895883029,0.01964163988,0.01180519729,-0.7238389433,-0.2431075036,-0.0193359844,0.12141124,0.461309749,-0.2902595164,0.01702204418,-0.2682125926,-0.001869995586,0.01290818658,0.5001108406,-0.3011982442,-0.03378512486,-0.001025871884,0,-0.174549907,0.1062991412,0.169917303,-0.01811101958,-0.4849654914,-0.184276655,0.0490678802,-0.2020504028,0.4302200856,-0.5803335432,0.1932737678
207,-0.04147703646,-1.40451479,0.6142083402,0.6901825521,0.01968182774,0.01193205293,-0.7232691729,-0.243391514,-0.0196437269,0.119234672,0.4620995048,-0.2911299466,0.01646693382,-0.2691623334,-0.001812350284,0.0119616015,0.5032876732,-0.3011139928,-0.04160455166,-0.0003311638834,0,-0.174549907,0.1063610878,0.1695146142,-0.01964312006,-0.4852623164,-0.1842909928,0.04832125236,-0.2026224106,0.4312278448,-0.5802007914,0.1940148056
208,-0.04148861098,-1.404910636,0.6142263056,0.6916978113,0.01958489609,0.01211857587,-0.7218197211,-0.243714663,-0.02046482938,0.1140364734,0.462679821,-0.2917341292,0.01221289768,-0.2664207698,-0.002754143576,0.007199721968,0.5004790904,-0.302453625,-0.0373320907,-0.001960599002,0,-0.174549907,0.1056743596,0.1688747142,-0.02482952326,-0.4863853456,-0.1846332106,0.046325621,-0.2023760644,0.4322805404,-0.580320871,0.192932078
209,-0.04148338662,-1.405198644,0.6141129372,0.6924636621,0.01960700497,0.0121593504,-0.7210837622,-0.2443423508,-0.02075054982,0.1125756712,0.4640127122,-0.2919588268,0.01419427094,-0.2679492056,-0.002925996532,0.005770196114,0.5047845724,-0.3016825736,-0.04884109496,-0.001346388062,0,-0.174549907,0.1048569008,0.1686788228,-0.02628373578,-0.4869272412,-0.1847763924,0.04581988674,-0.2020667164,0.432268143,-0.5804055452,0.1919059484
210,-0.0415475368,-1.40543807,0.614114463,0.6932118219,0.019698537,0.012139277,-0.7203623919,-0.245221376,-0.0209972505,0.111767776,0.465720892,-0.292162985,0.0185833108,-0.270711809,-0.00297337933,0.00495056622,0.511274755,-0.300654471,-0.0643987209,-0.000674466777,0,-0.174549907,0.103632756,0.168537229,-0.0271710642,-0.48755458,-0.185181141,0.0455307998,-0.201776415,0.432194054,-0.580591381,0.191900343
211,-0.04165688824,-1.405869746,0.6140262722,0.6940805475,0.0196566798,0.01206725127,-0.7195277548,-0.243975812,-0.02157263532,0.1087585762,0.4649239482,-0.2934659722,0.01428315958,-0.2670764264,-0.003448266304,0.002697431901,0.507277846,-0.3039595068,-0.05287685618,-0.0008938255539,0,-0.174549907,0.1011247158,0.1683307322,-0.02796167956,-0.4884274182,-0.1856098534,0.04556460604,-0.2013192952,0.4330310584,-0.5811884524,0.1921568186
212,-0.04179521424,-1.406310078,0.6139698382,0.6953940221,0.01953127597,0.01197484255,-0.7182633824,-0.2431386288,-0.0220540024,0.1048979072,0.464301163,-0.2937190532,0.01223845072,-0.261852014,-0.003619757392,-0.0004061686265,0.499971926,-0.3068111424,-0.03511368486,-0.002542029278,0,-0.174549907,0.09613454046,0.1681581168,-0.0288005326,-0.4888752758,-0.186125839,0.04654400122,-0.200934124,0.4356945096,-0.5827761652,0.1929233608
213,-0.0419237666,-1.4063766,0.6138881918,0.6961847509,0.01960613201,0.01200099556,-0.7174945075,-0.2438170966,-0.02174707764,0.1035329254,0.4648544194,-0.292545253,0.01612765568,-0.2580924992,-0.002484129414,-0.0007304353876,0.4923190474,-0.3075270536,-0.0176012579,-0.002749717192,0,-0.174549907,0.0922411293,0.1681500044,-0.029487548,-0.4894177794,-0.1864034984,0.04695103836,-0.2009669752,0.4381464306,-0.5833079458,0.1949740916
214,-0.04234145504,-1.406751748,0.6141576294,0.6966835592,0.01960283106,0.01182083035,-0.7170132602,-0.2431038676,-0.02202225324,0.1028917996,0.4648781536,-0.292870128,0.01696136818,-0.2540063976,-0.00341804037,-0.002927906906,0.48698861,-0.3106307268,-0.002793304787,-0.002693399926,0,-0.174549907,0.08907686918,0.1680862006,-0.03084775806,-0.4904144582,-0.1853804084,0.04695847632,-0.2009088784,0.4391357482,-0.5832600356,0.1963566452
215,-0.0423186049,-1.40723228,0.614003599,0.6968887469,0.0195817464,0.0116135413,-0.7168177979,-0.241810083,-0.0225255303,0.102668904,0.464560896,-0.29404676,0.0156275462,-0.250902981,-0.00544733508,-0.00604469702,0.484564841,-0.314505786,0.00681006815,-0.00212268368,0,-0.174549907,0.0872929692,0.168079317,-0.0323382802,-0.49156636,-0.184045121,0.0468573868,-0.20091337,0.439296603,-0.583118618,0.196551844
216,-0.04233017786,-1.407389668,0.6140064002,0.6970011874,0.01958008096,0.01161520018,-0.7167084849,-0.2412649004,-0.02282687684,0.1015127466,0.4637386144,-0.2941114366,0.01415027846,-0.251690304,-0.00675770389,-0.00884004477,0.486903816,-0.3146681368,0.001560419819,-0.001015958518,0,-0.174549907,0.08640416562,0.168273714,-0.03356007338,-0.4923232856,-0.1842144756,0.0468574621,-0.2010903206,0.4395662548,-0.5829887032,0.1968008368
217,-0.0423844047,-1.407301732,0.6140337232,0.6974600807,0.01970793944,0.01168315579,-0.7162573119,-0.2415142182,-0.02325603738,0.0998127148,0.4632701156,-0.2936029728,0.013478313,-0.2521092714,-0.007845105228,-0.01168904084,0.4876563194,-0.314640182,-6.39841668e-05,-0.0008571720334,0,-0.174549907,0.08417905572,0.1686725172,-0.03714802932,-0.494267654,-0.1848941176,0.04684733822,-0.201471323,0.4402826252,-0.5826358196,0.197453117
218,-0.04246152338,-1.407349084,0.6140973452,0.6982213966,0.02005477436,0.01173986252,-0.7155046212,-0.2422948542,-0.02397783812,0.0984573513,0.4629502116,-0.292437333,0.014244044,-0.2507766068,-0.008759517778,-0.01384595296,0.4844223678,-0.3155036272,0.009205573432,-0.00181910554,0,-0.174549907,0.07941918376,0.1689121488,-0.04611252922,-0.4983902692,-0.1831084878,0.0461361118,-0.2016429692,0.4418574278,-0.5816758398,0.198317346
219,-0.04247077554,-1.407640434,0.6140400168,0.6982972594,0.02023626752,0.01166313619,-0.7154267274,-0.2419802816,-0.02443944476,0.09851404576,0.4628086326,-0.2928830206,0.01420246382,-0.2505115806,-0.009387174434,-0.0142902298,0.4845194696,-0.3167488934,0.01035429351,-0.001636037046,0,-0.174549907,0.07832540274,0.1690007092,-0.0480070554,-0.4994359374,-0.182265592,0.04604834472,-0.2016685364,0.4422795056,-0.5814805868,0.1981651662
220,-0.0424909219,-1.40783823,0.613931,0.6983177954,0.02034091301,0.01150549801,-0.7154062674,-0.24120535,-0.0249733496,0.0984661356,0.462644786,-0.293852061,0.0138372649,-0.25075841,-0.0100167608,-0.0145528382,0.486395866,-0.318175822,0.00725497492,-0.0016083204,0,-0.174549907,0.0775409117,0.169080704,-0.0493871644,-0.500214517,-0.182342604,0.0461574867,-0.201670513,0.442597389,-0.581391215,0.198168889
221,-0.04260308518,-1.40786841,0.613887584,0.6985270557,0.02055368366,0.01150912691,-0.7151958044,-0.241246864,-0.02511042882,0.0982798591,0.4620873752,-0.293199247,0.01400000768,-0.2503616632,-0.009894826262,-0.01457507928,0.4850337682,-0.3187037172,0.01192518438,-0.001418249078,0,-0.174549907,0.07462964356,0.1691128912,-0.05381358114,-0.5031675338,-0.182046458,0.0464773305,-0.2015853198,0.4440391122,-0.5814491272,0.1981701406
222,-0.04266148956,-1.40799854,0.614052594,0.6986373542,0.02068943945,0.01155856151,-0.7150833476,-0.2415121702,-0.02521173286,0.09809896948,0.4621078912,-0.2927872536,0.01499032972,-0.2516769228,-0.00988071412,-0.01420324798,0.487406284,-0.318174684,0.006835894476,-0.001561308838,0,-0.174549907,0.07330939324,0.1691044628,-0.0554987237,-0.504536164,-0.1813947292,0.04656918198,-0.2015069544,0.4447655322,-0.5816178684,0.1981355368
223,-0.04255153388,-1.408125016,0.6141161442,0.6986222154,0.02074946055,0.0115627242,-0.7150963316,-0.2419254686,-0.02563093042,0.097783269,0.463194877,-0.2932635364,0.0170335941,-0.2558162212,-0.01053021402,-0.01354840116,0.4964999972,-0.3165965732,-0.01475524086,-0.002371198542,0,-0.174549907,0.07223314944,0.1690915912,-0.05645261854,-0.50565331,-0.1806767882,0.04675552178,-0.201392257,0.4452615916,-0.5816352128,0.1982595204
224,-0.04241864236,-1.408091546,0.613935208,0.6985350384,0.02088330989,0.01157289539,-0.7151774294,-0.2421967004,-0.02583919652,0.09821840822,0.46359818,-0.2933211146,0.01821976228,-0.2580161928,-0.0106047669,-0.01308935472,0.5003023858,-0.3159442838,-0.02349952792,-0.003076340304,0,-0.174549907,0.07147937716,0.1690508602,-0.05710495334,-0.506422329,-0.1800840346,0.04687598348,-0.2012150346,0.4454119324,-0.5816299082,0.198306322
225,-0.0424725711,-1.40818155,0.613899291,0.6983479851,0.0211142134,0.0116130691,-0.7153526531,-0.242220178,-0.025949873,0.09916991,0.463154584,-0.293116122,0.0181246139,-0.258629471,-0.0103207342,-0.0124861635,0.499985635,-0.31618616,-0.0219426546,-0.00365242874,0,-0.174549907,0.0707448795,0.168953016,-0.0578764826,-0.507103026,-0.179540098,0.0468574762,-0.200884774,0.445154428,-0.581708193,0.198068649
226,-0.0425517425,-1.408407762,0.6139497158,0.6980035453,0.02131643901,0.01160068554,-0.7156829495,-0.2413502188,-0.02618927996,0.0999586999,0.4617906036,-0.2934562382,0.01472801326,-0.2575558902,-0.009833477994,-0.01023327948,0.4978413942,-0.3173021076,-0.0154399667,-0.00355918924,0,-0.174549907,0.06947579534,0.169011432,-0.0616508789,-0.5082660794,-0.1771906468,0.04680717288,-0.2005943448,0.4439268056,-0.5816940192,0.1968071314
227,-0.04259754714,-1.408482692,0.613852489,0.6978280281,0.02140827845,0.01168259937,-0.7158500162,-0.2408113744,-0.02597333752,0.1001060334,0.4607629118,-0.2934385242,0.01303363258,-0.2558930638,-0.0107152652,-0.01344470398,0.4936749164,-0.3181645812,-0.005376163868,-0.004131194014,0,-0.174549907,0.06958034334,0.169334543,-0.06589516698,-0.508412945,-0.1747494456,0.04659138922,-0.2006494402,0.4436157704,-0.5816400644,0.195694071
228,-0.04291245494,-1.408547306,0.6140652416,0.6975909426,0.021499732,0.01193162968,-0.7160742102,-0.2410962286,-0.02506509166,0.1003864676,0.4604440392,-0.2928113702,0.01503158398,-0.254922956,-0.01353081878,-0.02387301774,0.4883465114,-0.3183624566,0.007209642046,-0.004860927628,0,-0.174549907,0.06988462952,0.1696244088,-0.06914309266,-0.5081927538,-0.1750111284,0.04588111786,-0.2007197914,0.4444941822,-0.5821692822,0.195592311
229,-0.04287294446,-1.408643342,0.6139486076,0.697410854,0.02157872387,0.01200001101,-0.7162460884,-0.2406377702,-0.0249456491,0.1006745488,0.4597975732,-0.293246114,0.0135139139,-0.2550380766,-0.01443785338,-0.02676207688,0.487765461,-0.3191890538,0.009519120508,-0.005874087754,0,-0.174549907,0.0702007219,0.1697135748,-0.07039055524,-0.5079032658,-0.1758568436,0.04557692928,-0.2007194224,0.4446189342,-0.5824474332,0.1955376088
230,-0.0428514518,-1.40882599,0.613936365,0.6973562479,0.0216332495,0.0119441201,-0.7162985439,-0.239879951,-0.0252963211,0.100911416,0.459135979,-0.294017255,0.0108065633,-0.255520463,-0.0141730402,-0.0251110941,0.489582658,-0.320087105,0.00565543585,-0.0071865865,0,-0.174549907,0.0706369653,0.16974166,-0.0711967871,-0.507552147,-0.176476225,0.0453801677,-0.200678006,0.444370449,-0.582616866,0.195366934
231,-0.04298048988,-1.40883172,0.6139723898,0.697235375,0.02171109223,0.01196969716,-0.7164134188,-0.2405333162,-0.02500279432,0.1021039752,0.4602414788,-0.293634826,0.0136790557,-0.2558350862,-0.01404019148,-0.0247597523,0.4897101938,-0.3198831202,0.005305097256,-0.007797325958,0,-0.174549907,0.07119951548,0.16962851,-0.07171828006,-0.5070592522,-0.1767795682,0.0451123938,-0.2006416884,0.4439656022,-0.5829008102,0.1951799124
