1160800601/legged_gym/resources/traces/victory_dance_macarena_change_direction_R_loop_001__A321.csv
Frame,root_translateX,root_translateY,root_translateZ,root_quatW,root_quatX,root_quatY,root_quatZ,left_hip_pitch_joint_dof,left_hip_roll_joint_dof,left_hip_yaw_joint_dof,left_knee_pitch_joint_dof,left_ankle_pitch_joint_dof,left_ankle_roll_joint_dof,right_hip_pitch_joint_dof,right_hip_roll_joint_dof,right_hip_yaw_joint_dof,right_knee_pitch_joint_dof,right_ankle_pitch_joint_dof,right_ankle_roll_joint_dof,waist_yaw_joint_dof,head_yaw_joint_dof,head_pitch_joint_dof,left_shoulder_pitch_joint_dof,left_shoulder_roll_joint_dof,left_shoulder_yaw_joint_dof,left_elbow_pitch_joint_dof,left_wrist_yaw_joint_dof,right_shoulder_pitch_joint_dof,right_shoulder_roll_joint_dof,right_shoulder_yaw_joint_dof,right_elbow_pitch_joint_dof,right_wrist_yaw_joint_dof
0,0.000617184909,0.0181660317,0.612475812,0.6887612378,0.008565242448,0.01917970379,-0.7246838848,-0.288859725,0.0627941489,0.0654986799,0.536241531,-0.340992838,-0.0486386009,-0.266285539,-0.00920485146,0.0635453016,0.452216208,-0.238701373,0.0759145394,-0.0179482996,0,-0.174267486,-0.0156764612,0.199189916,-0.60117197,-0.474796325,-0.366690844,-0.09701702,-0.238603219,1.00877011,-0.422954589,-0.0531981923
1,0.0005682916962,0.01803900862,0.612479901,0.6887630702,0.008582129513,0.01916505062,-0.7246823312,-0.2886537256,0.06284339428,0.06558074206,0.5360590934,-0.341080636,-0.0490074225,-0.266170317,-0.0091939291,0.06358227132,0.4521636484,-0.2384148152,0.0765329525,-0.01796767788,0,-0.174268049,-0.01568953244,0.1993387786,-0.601171315,-0.4748133126,-0.3666986408,-0.09702934918,-0.2386804996,1.008776358,-0.4230197848,-0.05321440992
2,0.0005829720872,0.01804342978,0.6124845502,0.6887612658,0.008580541455,0.01915825229,-0.7246842446,-0.288652557,0.06290338486,0.06556071788,0.5361438872,-0.341221136,-0.04928862456,-0.2660796466,-0.009170241654,0.06346210538,0.4520079376,-0.2385785308,0.0766307637,-0.01797716802,0,-0.1742681532,-0.01569213684,0.1993666586,-0.601171315,-0.474816614,-0.36670019,-0.09703173938,-0.2386949684,1.008777118,-0.4230320576,-0.0532173805
3,0.0005935466154,0.01812018562,0.6124154328,0.6887357347,0.008538206659,0.01908732132,-0.7247108809,-0.2887184198,0.06287109104,0.0655343652,0.5364678502,-0.3413721976,-0.04936287328,-0.265857828,-0.009271942638,0.06312023994,0.4515906214,-0.2393576082,0.07601200192,-0.0180519085,0,-0.1742688416,-0.0157090869,0.1995466228,-0.6011713384,-0.4748381438,-0.3667108002,-0.09704692812,-0.2387886016,1.008785556,-0.423111278,-0.05323652628
4,0.0005143938704,0.01812967064,0.6124409918,0.688713008,0.008532193532,0.01906119288,-0.7247332372,-0.2884519278,0.0628856793,0.06570812312,0.536137247,-0.341135907,-0.04962882846,-0.2661819284,-0.00924916435,0.0632964104,0.4525339186,-0.2394657016,0.07559946478,-0.01811748892,0,-0.1742694348,-0.0157238271,0.1997036636,-0.6011705994,-0.4748571218,-0.36672014,-0.09706014394,-0.2388706688,1.008795162,-0.4231806874,-0.05325316116
5,0.000502795971,0.0179954506,0.612487793,0.6887066157,0.008554581297,0.01908817459,-0.7247383377,-0.287956536,0.0629346296,0.0659453869,0.535375476,-0.340730071,-0.0499974787,-0.266485006,-0.00916670263,0.0636417642,0.4535864,-0.239057943,0.0755783394,-0.0181993898,0,-0.174270272,-0.0157443844,0.19992055,-0.601166725,-0.474884182,-0.36673221,-0.0970792919,-0.238984346,1.00880873,-0.423277736,-0.0532757007
6,0.0004794529756,0.01794443314,0.612432861,0.6887190603,0.00855541307,0.01906615078,-0.7247270815,-0.2879314182,0.06294368358,0.0658037797,0.5355662228,-0.3408574696,-0.0503337905,-0.266001308,-0.009218637456,0.06354709268,0.4527543904,-0.2388465168,0.07675666216,-0.01822270642,0,-0.1742708264,-0.01575816796,0.200066471,-0.6011643888,-0.4749025824,-0.3667400004,-0.09709202348,-0.239061114,1.008816458,-0.4233432646,-0.05329044832
7,0.0005309542872,0.0180028882,0.61241225,0.6887471653,0.00848897016,0.01899046715,-0.7247031405,-0.2880055964,0.06292103082,0.0656435996,0.5361344098,-0.341265768,-0.05010456744,-0.2656565726,-0.009296269342,0.06334811302,0.4523605284,-0.2390347776,0.07697817836,-0.01824873832,0,-0.1742722008,-0.01579043866,0.200416896,-0.6011598942,-0.4749467912,-0.3667582032,-0.09712145034,-0.2392466096,1.008835434,-0.4235009612,-0.05332450644
8,0.0005463837874,0.01802321186,0.6123968006,0.6887518968,0.008450840975,0.01896093483,-0.7246998626,-0.2882441342,0.06286408154,0.06563943774,0.5366258976,-0.3417485238,-0.04903618396,-0.2659511926,-0.009315188978,0.06325842294,0.4528610824,-0.2395452498,0.07538834516,-0.01826200858,0,-0.1742726448,-0.01580070068,0.2005316052,-0.6011582974,-0.4749612032,-0.3667638364,-0.09713092146,-0.2393077524,1.008843994,-0.423552799,-0.05333446864
9,0.0005396734804,0.01798849928,0.612422037,0.6887539879,0.008435789818,0.01895488106,-0.7246982089,-0.288163602,0.06284337492,0.06564902812,0.5365104914,-0.3415466846,-0.0492386803,-0.2660486518,-0.009335021298,0.0632800028,0.453237796,-0.2392734706,0.07508230804,-0.01826669982,0,-0.174272922,-0.01580698342,0.2006040184,-0.6011567352,-0.4749702814,-0.3667671676,-0.09713690284,-0.2393464384,1.008851126,-0.4235857546,-0.05334021898
10,0.000567219162,0.0179495364,0.612458885,0.6887633797,0.008436400636,0.01897666439,-0.7246887057,-0.287860841,0.062869072,0.065670304,0.535961807,-0.340970963,-0.0501492061,-0.265957743,-0.00933002308,0.0633594543,0.453341156,-0.23868002,0.0755757019,-0.0182443224,0,-0.174273238,-0.0158137158,0.200683907,-0.601154208,-0.474980325,-0.366770864,-0.0971434787,-0.239388883,1.00885904,-0.4236224,-0.0533472188
11,0.0005979031212,0.017905619,0.6124399898,0.6888177891,0.008411659999,0.01896647418,-0.7246375441,-0.2876913604,0.06287642866,0.06570316256,0.5359478116,-0.3410925272,-0.0503272258,-0.2659321664,-0.00935250316,0.06348339618,0.4535038236,-0.2394403724,0.07575379312,-0.01815357136,0,-0.1742739288,-0.01582871788,0.2008601218,-0.6011485812,-0.475002515,-0.3667792316,-0.09715812656,-0.2394827876,1.008877584,-0.4237034798,-0.05336158724
12,0.0006232455144,0.01787511408,0.6123733402,0.6889111375,0.008361149122,0.01890529139,-0.7245509822,-0.2875987528,0.06277320982,0.06556238084,0.5361076234,-0.341258764,-0.05016541186,-0.2657622276,-0.00947067812,0.06334633528,0.4535516742,-0.239888522,0.0760844186,-0.01799369678,0,-0.174275109,-0.01585368288,0.201154736,-0.6011426806,-0.4750394644,-0.3667942882,-0.09718238856,-0.2396410558,1.008911824,-0.4238389906,-0.05338284822
13,0.000624301354,0.01787266772,0.612397075,0.6889202015,0.008351825983,0.01888408334,-0.7245430245,-0.2877494216,0.06264962108,0.0653882459,0.5364257692,-0.3414227426,-0.0497261718,-0.26566273,-0.00957065821,0.06313190756,0.4535031022,-0.2394801078,0.07665975394,-0.01796895528,0,-0.1742754254,-0.01586018278,0.2012336436,-0.6011422752,-0.4750493112,-0.3667985622,-0.09718886318,-0.2396833952,1.008922054,-0.4238752542,-0.0533886038
14,0.0007114413662,0.01787186336,0.6124377012,0.6889162163,0.008309439025,0.01885714342,-0.7245480027,-0.2877298538,0.06255610138,0.06543014646,0.5365216972,-0.3415410702,-0.04947739388,-0.265556681,-0.009697440078,0.06291883142,0.4534317556,-0.2393090608,0.07603415402,-0.01795041412,0,-0.1742759974,-0.01587179824,0.2013796954,-0.6011438374,-0.4750673354,-0.3668070492,-0.09720087202,-0.2397614804,1.00894394,-0.4239423276,-0.05339886844
15,0.000792446721,0.0179331116,0.612418532,0.6889157477,0.008235125296,0.01883604259,-0.7245498456,-0.287714601,0.0624738447,0.0655710474,0.536696434,-0.341702938,-0.0493253395,-0.265532136,-0.0098424973,0.0628084689,0.453518122,-0.239411205,0.0750528723,-0.0179297552,0,-0.174276605,-0.0158835314,0.20153445,-0.601148248,-0.475085914,-0.366816938,-0.0972134098,-0.239844158,1.00897133,-0.424013168,-0.0534075163
16,0.0008533178596,0.01793558932,0.6124012352,0.6889534874,0.008185017432,0.01880593771,-0.72451531,-0.287593532,0.06240457072,0.06574332562,0.5366890668,-0.3415802362,-0.04934241324,-0.2654804768,-0.009901304916,0.06309072522,0.4536331954,-0.2396644886,0.07577085046,-0.01786050016,0,-0.1742773262,-0.01589645334,0.2017145576,-0.6011552454,-0.475106579,-0.3668298184,-0.09722723958,-0.239940259,1.009005048,-0.4240953624,-0.05341677888
17,0.0008773742124,0.01794701554,0.6124229674,0.6889990773,0.008160880446,0.01877911465,-0.7244729231,-0.2876177608,0.0623005763,0.0656434506,0.5368694068,-0.3416253806,-0.04912094696,-0.2654632268,-0.01000675281,0.06308621022,0.453816748,-0.2398610534,0.076345925,-0.01778405346,0,-0.174277827,-0.01590499806,0.2018405442,-0.601161242,-0.4751203892,-0.36683982,-0.09723643662,-0.2400074572,1.00902903,-0.4241526842,-0.05342333916
18,0.0009289739186,0.01787992974,0.612432754,0.6889996289,0.008145946495,0.01874124266,-0.7244735473,-0.287739551,0.062103077,0.0652694523,0.5372086048,-0.3419276948,-0.04842383864,-0.2653612136,-0.01025631706,0.0625670835,0.4538173438,-0.239730507,0.0762134328,-0.01771326284,0,-0.17427851,-0.01591471878,0.2020126966,-0.601174414,-0.4751386882,-0.3668554066,-0.09724966734,-0.2400995072,1.009062818,-0.4242309514,-0.05343364848
19,0.00103277189,0.01798978228,0.6123812798,0.6889977432,0.008070147571,0.01862565365,-0.7244791699,-0.2875677762,0.06194495034,0.06540289968,0.537272346,-0.3420557018,-0.04837056694,-0.2652674972,-0.0104442438,0.06251441388,0.4538268148,-0.2399356846,0.07610803846,-0.01760567094,0,-0.1742798716,-0.01593141482,0.2023539934,-0.6012067316,-0.4751750584,-0.3668877482,-0.09727374908,-0.2402843146,1.009134126,-0.4243849874,-0.05345346928
20,0.00106596004,0.0180665646,0.612328589,0.6890367599,0.007988654699,0.0185176909,-0.7244457329,-0.287383944,0.0617924109,0.0656519681,0.537175357,-0.341955066,-0.0486300588,-0.265277982,-0.0105738398,0.0626901835,0.453919321,-0.240190282,0.0760850012,-0.0175135806,0,-0.174281195,-0.0159455314,0.202688098,-0.601245463,-0.475211084,-0.366920829,-0.0972923711,-0.240469232,1.00921071,-0.424533099,-0.0534695126
21,0.001158234776,0.01809038518,0.612381494,0.6890524696,0.00796730746,0.01846187115,-0.7244324506,-0.2871778128,0.0615932174,0.06550957416,0.5369662042,-0.3414577182,-0.04835632594,-0.2654097374,-0.01067567824,0.06279332194,0.4546867014,-0.239831799,0.07629387082,-0.01747778282,0,-0.174282339,-0.01595533976,0.2029773922,-0.6012908336,-0.475240958,-0.366953552,-0.097307837,-0.2406333504,1.00928209,-0.4246583522,-0.05347920434
22,0.001145168138,0.01795139348,0.6124459028,0.6890607296,0.007957671896,0.01841645472,-0.7244258558,-0.2870197352,0.06141104628,0.06547907892,0.5369027616,-0.3413065734,-0.0481639996,-0.2654479146,-0.01084150744,0.06283320482,0.4551124154,-0.2397088974,0.07654144762,-0.0174736638,0,-0.1742834988,-0.01596383192,0.2032687516,-0.6013421058,-0.4752702234,-0.3669887424,-0.09732451736,-0.240801066,1.009354972,-0.424784148,-0.05348825528
23,0.00126872195,0.01801417544,0.6123913166,0.6890813777,0.00788492126,0.01836522175,-0.7244083113,-0.2869656266,0.06134585962,0.06567479076,0.5372945426,-0.3419135986,-0.04824991078,-0.265113181,-0.0110639293,0.06268593672,0.454633814,-0.2400721076,0.07676302794,-0.0174863506,0,-0.174284491,-0.01597008,0.203515086,-0.6013837818,-0.4752946498,-0.367017996,-0.09733841272,-0.2409434466,1.009414556,-0.4248920324,-0.05349871818
24,0.001383476404,0.01808907802,0.6122861982,0.689108534,0.007796353848,0.01823278772,-0.7243867826,-0.2869017004,0.06110562088,0.06576686502,0.537771964,-0.3422677518,-0.04811208996,-0.264703554,-0.01139017656,0.06249727384,0.454331917,-0.2404189616,0.07691816244,-0.01755113378,0,-0.1742865652,-0.01598044374,0.2040225566,-0.601468587,-0.4753454806,-0.3670780602,-0.09736497398,-0.2412414194,1.009538674,-0.4251167,-0.05352386608
25,0.00142281421,0.018061446,0.612313867,0.6890986601,0.007741911851,0.0181540792,-0.7243987361,-0.286972314,0.0609004535,0.0657157302,0.538124204,-0.34230721,-0.0479430668,-0.264489383,-0.0115894172,0.0624319091,0.454153508,-0.240463272,0.0770310834,-0.0176126435,0,-0.174287722,-0.0159856994,0.204307199,-0.601522923,-0.475374281,-0.367114872,-0.0973800942,-0.241413847,1.00961578,-0.425241649,-0.0535351261
26,0.001485748496,0.01816625816,0.6124047518,0.6890527186,0.007670063875,0.01801986646,-0.7244465512,-0.2865072848,0.06066330672,0.06546530128,0.5374302744,-0.3415157796,-0.04811437056,-0.264860165,-0.01177508046,0.06272455306,0.455065817,-0.2397780984,0.07744199336,-0.01773432008,0,-0.1742892744,-0.0159909345,0.2046830028,-0.6016052246,-0.4754132684,-0.367166406,-0.09739845694,-0.2416468086,1.009717988,-0.4254056696,-0.05355036108
27,0.001546744418,0.01822094206,0.6123733046,0.6889992845,0.007598761598,0.01788101959,-0.7245015624,-0.2861990748,0.06047718522,0.06533805874,0.5371298314,-0.3411873876,-0.04803973216,-0.2650260926,-0.01194571816,0.06303645822,0.455598396,-0.2394734022,0.07774478048,-0.01789302674,0,-0.174290955,-0.01599518096,0.205082044,-0.601700294,-0.4754562082,-0.3672228338,-0.09741658714,-0.2418986378,1.009825202,-0.425579816,-0.05356798396
28,0.001580338858,0.01827720146,0.6123105766,0.6889784327,0.007526564778,0.01780342833,-0.7245240562,-0.2863926232,0.06040902958,0.06540040526,0.5378618238,-0.3419113282,-0.04750898702,-0.2647249636,-0.01208209338,0.06316775824,0.4552521172,-0.24007844,0.07777049836,-0.01801674178,0,-0.1742919352,-0.0159982465,0.2053120552,-0.601757288,-0.4754831252,-0.3672556998,-0.09742792694,-0.2420475812,1.009888916,-0.4256806074,-0.053578005
29,0.001634701552,0.01830029972,0.612316227,0.6889423054,0.007456451496,0.01772237897,-0.7245611212,-0.2864354072,0.06028432028,0.06537178456,0.5382376194,-0.3421216012,-0.04717867224,-0.2646143018,-0.01225249338,0.06295916736,0.4552335862,-0.2402282028,0.07752624152,-0.0181699455,0,-0.1742929998,-0.01600159632,0.205559313,-0.6018207432,-0.4755132078,-0.3672916832,-0.09744159876,-0.2422111004,1.00995982,-0.4257891654,-0.05358708498
30,0.00171395333,0.0183684081,0.612336278,0.6888608722,0.007362881922,0.0176338474,-0.7246416592,-0.286228895,0.0601798408,0.0654343516,0.538180172,-0.341872424,-0.0471485928,-0.264620841,-0.0123865586,0.0627539977,0.455433011,-0.23994346,0.0771645308,-0.0183443259,0,-0.174294159,-0.0160036255,0.205829367,-0.601896703,-0.475545108,-0.36733377,-0.0974592939,-0.242394403,1.01003993,-0.425907224,-0.0535925515
31,0.001715307592,0.0184779562,0.6123551846,0.6888360356,0.007266164352,0.01752176225,-0.7246689636,-0.2858612774,0.06015460044,0.06566532106,0.5377281786,-0.3412616312,-0.04778767676,-0.2649022636,-0.01238323584,0.06333007066,0.4561758998,-0.2394648968,0.07696245162,-0.01850211842,0,-0.1742954044,-0.01600274182,0.2061176482,-0.6019807338,-0.475576705,-0.3673793198,-0.09747864012,-0.2425914142,1.010124396,-0.4260335268,-0.05359854398
32,0.001707574932,0.01854527222,0.612338328,0.6888351376,0.007208904994,0.01744708562,-0.7246721908,-0.2856567382,0.06010264458,0.06572383192,0.5374748706,-0.3410118702,-0.0482555501,-0.264946884,-0.01242078842,0.06360504924,0.4563676056,-0.2392357526,0.07738801686,-0.01860895716,0,-0.1742961644,-0.01600108224,0.2062923702,-0.602033174,-0.4755952538,-0.3674072684,-0.09749025852,-0.2427114484,1.010174702,-0.4261102972,-0.05360328476
33,0.001778898156,0.01853914746,0.6123139384,0.688753602,0.007117244048,0.01728009551,-0.7247545922,-0.2853647534,0.0599958755,0.06578653602,0.5377513174,-0.3415312828,-0.0481886588,-0.2643598796,-0.01260110664,0.0633766621,0.4558110002,-0.2395569504,0.0786968157,-0.01901632924,0,-0.174298355,-0.01599517988,0.206783104,-0.6021908162,-0.4756527724,-0.3674897252,-0.0975232229,-0.243060523,1.010323214,-0.4263280034,-0.0536185481
34,0.001808076304,0.01856091732,0.612319815,0.6887181684,0.007067513984,0.01720937118,-0.7247904334,-0.2853242692,0.06002494694,0.06603117586,0.5379481672,-0.3416177272,-0.04778018596,-0.2643293562,-0.01257434634,0.0635928437,0.4559465232,-0.2394288392,0.07878539858,-0.01921729338,0,-0.174299386,-0.01599168334,0.2070098164,-0.6022664784,-0.4756805778,-0.3675289574,-0.0975377455,-0.2432251156,1.010394736,-0.4264292178,-0.0536259167
35,0.00178273336,0.0187033787,0.612309813,0.6887358652,0.006974754482,0.017104282,-0.7247770032,-0.285261422,0.0600583963,0.0663564056,0.538095832,-0.341396213,-0.0472536609,-0.264463216,-0.0125362817,0.0639655888,0.456511766,-0.239098474,0.0782364011,-0.0194988102,0,-0.174300686,-0.0159842074,0.207296625,-0.60236603,-0.475713104,-0.367579669,-0.0975513458,-0.243433312,1.0104841,-0.426555812,-0.0536364317
36,0.0018054212,0.01882478858,0.6122866988,0.6887315384,0.006871193768,0.01700131014,-0.7247845267,-0.2852914096,0.06000632124,0.06634922922,0.538315499,-0.3413354218,-0.0472942747,-0.2642488658,-0.01261491556,0.0638387263,0.4561416864,-0.2389479162,0.07837034316,-0.0197383743,0,-0.1743019104,-0.01597635858,0.2075629146,-0.6024622562,-0.4757437828,-0.36762743,-0.09756134454,-0.2436281208,1.010564188,-0.426673341,-0.05364987104
37,0.00186079771,0.0189346567,0.612306857,0.6887107352,0.00679222751,0.01693087073,-0.7248066876,-0.2853205738,0.05996539518,0.06633995622,0.5384230254,-0.3411878942,-0.04737137332,-0.2641696212,-0.01267797682,0.06371046006,0.4559564174,-0.2388675686,0.07860749366,-0.01989264008,0,-0.1743028102,-0.0159705449,0.2077557712,-0.6025338888,-0.4757669626,-0.3676623884,-0.09756757318,-0.2437705908,1.010620594,-0.4267588672,-0.05366148652
38,0.001853925362,0.01895667984,0.612316775,0.6886894874,0.006755939152,0.01689533243,-0.7248280451,-0.2852458118,0.05996746424,0.06642288564,0.5382368088,-0.3408270476,-0.04731945472,-0.2642415044,-0.01268399938,0.0636695176,0.4560976146,-0.2387313964,0.07880712448,-0.01997644898,0,-0.1743032576,-0.01596772042,0.207849598,-0.6025695444,-0.4757791402,-0.367679793,-0.09757015708,-0.2438413828,1.010646966,-0.4268009726,-0.0536667496
39,0.00181824595,0.0190633584,0.6123445392,0.6886690231,0.006698970773,0.01685037368,-0.7248490639,-0.2850432632,0.06005463378,0.0665776625,0.5379276036,-0.3405888856,-0.04775099378,-0.2644683126,-0.01259094294,0.06403920202,0.4566784736,-0.238728276,0.07871041296,-0.02009788712,0,-0.1743039724,-0.01596313158,0.207997504,-0.602625728,-0.4757991494,-0.3677074258,-0.09757333846,-0.2439546496,1.010689042,-0.4268678548,-0.05367459802
40,0.0018149846,0.0191995353,0.61232096,0.6886831053,0.006618598963,0.01681714391,-0.7248371943,-0.284960866,0.0601938665,0.0665876418,0.537796676,-0.340473205,-0.0482249595,-0.264602184,-0.0124431858,0.064373903,0.457075357,-0.23870793,0.0784117728,-0.0202089678,0,-0.174304843,-0.015957389,0.208179399,-0.602694273,-0.475824654,-0.367741793,-0.0975748375,-0.244096071,1.01074314,-0.426949918,-0.053685721
41,0.00185562365,0.01933120788,0.6122696518,0.6886428128,0.006507650248,0.01675197623,-0.7248779884,-0.285410595,0.06018890444,0.0663271427,0.5386639478,-0.3405454698,-0.04743996488,-0.2642698884,-0.01251087356,0.06383669526,0.456245619,-0.238692027,0.07801536472,-0.02037102282,0,-0.174306047,-0.0159475971,0.208430904,-0.6027914282,-0.4758597848,-0.3677906092,-0.09757246968,-0.244293472,1.01082032,-0.427061713,-0.05370195808
42,0.00188995737,0.01941104976,0.6123010516,0.6885960468,0.006440566242,0.01670599462,-0.724924074,-0.2856446566,0.06022891252,0.06630202238,0.5390612246,-0.3404466806,-0.04710443022,-0.2642055748,-0.01250094028,0.06372055858,0.4559701678,-0.2385020464,0.07793437838,-0.02047710048,0,-0.1743068662,-0.01594003438,0.2085987482,-0.602857184,-0.475883162,-0.3678237136,-0.0975683585,-0.2444259612,1.010872724,-0.427135563,-0.05371323602
43,0.001858708562,0.01946328204,0.6123641256,0.6886067034,0.006398015906,0.01669895149,-0.7249144904,-0.2852823318,0.06038610116,0.0666448921,0.538270545,-0.339897722,-0.04785820622,-0.2644945028,-0.01230496356,0.06437930612,0.4566724538,-0.2379056362,0.07834944428,-0.0205435686,0,-0.1743075162,-0.01593421732,0.208728808,-0.6029069544,-0.4759021994,-0.3678488436,-0.09756198674,-0.2445294704,1.010911774,-0.4271929386,-0.05372401852
44,0.001818791914,0.0195437055,0.612374675,0.688640841,0.006345052968,0.016687556,-0.724882789,-0.2852033018,0.06051209124,0.06695936172,0.5381767632,-0.3397732616,-0.04777904672,-0.2645995854,-0.01215840598,0.06441969422,0.4569095432,-0.2375998112,0.07843772468,-0.02064435484,0,-0.1743083778,-0.01592639946,0.2089004724,-0.6029723164,-0.4759279428,-0.3678813102,-0.09755304158,-0.2446666808,1.010962654,-0.4272691192,-0.05373809636
45,0.00181388448,0.0196255222,0.6123541,0.6886593616,0.006277609067,0.01666923959,-0.7248662026,-0.285356849,0.06058814,0.0672179982,0.538553894,-0.339931488,-0.0472040586,-0.264560312,-0.0120922439,0.0640739352,0.45670563,-0.237498924,0.0782776847,-0.0207961425,0,-0.174309194,-0.0159181524,0.209065199,-0.603036344,-0.475952625,-0.367911398,-0.097547017,-0.244799465,1.01101255,-0.427342445,-0.0537477732
46,0.001889472366,0.01979972798,0.612280631,0.688622286,0.00613883081,0.01665343366,-0.7249029764,-0.285953212,0.06072259394,0.06703740506,0.5395323634,-0.3404680194,-0.0468910538,-0.264069581,-0.01207645796,0.06360538748,0.4555219888,-0.2373483748,0.07804625336,-0.0211052608,0,-0.1743112414,-0.01589501128,0.2094716664,-0.6031921984,-0.4760141788,-0.3679813684,-0.09752801806,-0.2451265812,1.011130836,-0.4275256158,-0.05376830098
47,0.001929041816,0.01989942228,0.6123317836,0.6885938463,0.006073858045,0.01664918104,-0.7249306365,-0.2862628282,0.06077935696,0.06696729514,0.5399504422,-0.340660691,-0.04683777092,-0.2639832082,-0.01207159704,0.06356424092,0.4551693204,-0.2372340586,0.07795511182,-0.02121174598,0,-0.1743121714,-0.01588369016,0.2096535028,-0.603260696,-0.4760423838,-0.368011302,-0.0975168824,-0.2452732954,1.011181208,-0.427608573,-0.05377804414
48,0.001890622476,0.0199510861,0.6123803258,0.6885958615,0.006066944961,0.01666741318,-0.7249283613,-0.2860419574,0.06091391224,0.06720695946,0.5395268436,-0.340272778,-0.0471444674,-0.2643396078,-0.01190587042,0.06410391332,0.4559167384,-0.236880231,0.07809905556,-0.0212753888,0,-0.174312681,-0.01587688062,0.2097534358,-0.6032971616,-0.4760582266,-0.3680270378,-0.09751104116,-0.2453550394,1.0112097,-0.4276546122,-0.05378392116
49,0.00189089922,0.02002366188,0.612370598,0.6886157005,0.006031141857,0.01667780166,-0.7249095759,-0.2861833514,0.0610069968,0.06709345134,0.5395176292,-0.3398679614,-0.04728209156,-0.2644875528,-0.0117567556,0.06417871264,0.4559774754,-0.2363526938,0.07843078072,-0.02136799958,0,-0.1743134376,-0.01586613208,0.2098965108,-0.6033448338,-0.476082176,-0.3680473146,-0.09750399144,-0.2454752772,1.011251524,-0.4277221318,-0.05379343482
50,0.0018553565,0.0201692395,0.612341523,0.688622697,0.00592257068,0.0167226787,-0.724902791,-0.286722988,0.0612341277,0.0667415932,0.53999877,-0.339591235,-0.0473248735,-0.264382392,-0.0114858728,0.0639429092,0.455273986,-0.235646963,0.0786400959,-0.0215585846,0,-0.174316034,-0.0158275366,0.210377574,-0.603492975,-0.476166576,-0.368109077,-0.0974795744,-0.245884269,1.01138937,-0.427957118,-0.0538279004
51,0.001892085284,0.02037179994,0.61231339,0.6886048187,0.005838061664,0.01679272951,-0.7249188403,-0.2873714506,0.06141560974,0.06650779394,0.5405725356,-0.339737523,-0.04733189938,-0.2644425212,-0.0112877108,0.06388571412,0.4548018994,-0.2357981176,0.07786259202,-0.02163757086,0,-0.1743183612,-0.01578832678,0.2108002396,-0.6036218046,-0.4762418808,-0.368161738,-0.0974561855,-0.2462449996,1.011505794,-0.4281696382,-0.05386382938
52,0.001941540464,0.02053175046,0.6123362782,0.6885943033,0.005810347733,0.01688748858,-0.7249268501,-0.2879042086,0.06156856042,0.06636402456,0.5408665534,-0.3397859098,-0.04741769208,-0.2647465524,-0.01110560966,0.06394194218,0.4547439696,-0.2358126732,0.07744123342,-0.02167276816,0,-0.1743206828,-0.0157461151,0.211215568,-0.6037511352,-0.4763171432,-0.368213105,-0.09743258654,-0.2466003746,1.011616324,-0.4283827898,-0.05390408634
53,0.001897926556,0.02062536332,0.6123257874,0.6886124327,0.005808777591,0.01693433484,-0.7249085487,-0.288004994,0.06171924028,0.06635569482,0.540658689,-0.3395141062,-0.04763923136,-0.265117359,-0.0109255599,0.06404527278,0.4551449236,-0.2352765856,0.07789092064,-0.02167813292,0,-0.1743220804,-0.01571894772,0.2114601996,-0.60382539,-0.4763639448,-0.3682391044,-0.09741901454,-0.2468148734,1.011680222,-0.4285115004,-0.05392930954
54,0.001930791114,0.02073711638,0.612325418,0.6886710391,0.005775321441,0.01706328145,-0.7248501156,-0.2887076678,0.06198883952,0.06606916488,0.5412535786,-0.3396377744,-0.04738372936,-0.2651616332,-0.01063042,0.0639593586,0.4545163394,-0.2345469712,0.07830919176,-0.0216498971,0,-0.1743249236,-0.01566583068,0.2119436472,-0.6039663198,-0.4764638424,-0.3682853102,-0.09739285556,-0.247244826,1.011798456,-0.428772765,-0.05398540494
55,0.0019398696,0.0209209938,0.612361431,0.6887219094,0.005756486293,0.01726551801,-0.7247971414,-0.289816558,0.0622699037,0.0656346604,0.542263985,-0.339969724,-0.0469110236,-0.265158653,-0.0103158951,0.0638164803,0.453385919,-0.233795941,0.0785259679,-0.0215858147,0,-0.174329028,-0.0155978315,0.212624937,-0.604161024,-0.476615906,-0.368352503,-0.0973577201,-0.247850552,1.01195157,-0.429152906,-0.0540766306
56,0.001942060634,0.02099752462,0.6123480442,0.6886832094,0.005718628095,0.01732104726,-0.7248328882,-0.2903577804,0.06226770054,0.06543374506,0.5426689986,-0.3399520516,-0.04687923934,-0.2653100792,-0.01030911392,0.0637380749,0.4531203388,-0.2334764246,0.07798701972,-0.02162692026,0,-0.1743306252,-0.0155730378,0.2128848968,-0.6042241334,-0.4766770542,-0.3683746396,-0.097345455,-0.2480783792,1.011996248,-0.4293064476,-0.05412083194
57,0.002087467346,0.02111744392,0.612297952,0.6886032641,0.005726694618,0.01740619469,-0.7249067347,-0.290822852,0.06225540344,0.065293026,0.5429870844,-0.3400836108,-0.04707124976,-0.2656536104,-0.01028814576,0.06375851188,0.4531335178,-0.2335043606,0.07747228594,-0.02172568884,0,-0.1743333992,-0.0155321389,0.2133268324,-0.6043097022,-0.476784837,-0.3684038756,-0.09732864648,-0.2484604802,1.01205628,-0.4295813144,-0.05420651886
58,0.002142519176,0.02114710884,0.6123015044,0.6885495223,0.005731523703,0.01746473198,-0.7249563353,-0.2909138982,0.06224824934,0.0651902869,0.543096125,-0.340416896,-0.04742021856,-0.2657968582,-0.01025909244,0.0636998817,0.4531153496,-0.2338553754,0.07731480154,-0.021758515,0,-0.1743348506,-0.01551285352,0.2135535958,-0.6043436886,-0.4768424988,-0.3684156594,-0.09732496442,-0.2486587766,1.012082128,-0.4297273992,-0.05425229366
59,0.002110694766,0.02115049398,0.6123155828,0.6885421988,0.00573463783,0.0174705302,-0.7249631266,-0.290961325,0.06227939352,0.06533164832,0.5431056144,-0.3402645762,-0.04712160078,-0.2659819662,-0.01020274294,0.06398578582,0.4533803404,-0.2337504924,0.07771887478,-0.02176558268,0,-0.1743352414,-0.01550855932,0.2136134472,-0.6043508054,-0.4768585802,-0.368418181,-0.0973250821,-0.248711753,1.012087512,-0.4297665474,-0.05426450298
60,0.00212171068,0.0212627202,0.612354159,0.6885747519,0.005736678509,0.0174597995,-0.7249324499,-0.291143507,0.0623304211,0.0654653683,0.543164849,-0.339875698,-0.0466502011,-0.266262829,-0.0101273963,0.064368993,0.45380652,-0.233376756,0.0783077106,-0.0218090788,0,-0.174336508,-0.0154980319,0.213808015,-0.604369938,-0.476916015,-0.368424207,-0.097326301,-0.248884618,1.01209772,-0.429895669,-0.0543063357
61,0.002169849586,0.021361243,0.612322843,0.6885570656,0.005676871434,0.01743715248,-0.7249502646,-0.2910902444,0.06226704642,0.0653112918,0.5427836772,-0.3395648064,-0.04739312084,-0.2664157628,-0.01021033134,0.06418197904,0.453971994,-0.2331655026,0.07812875508,-0.02186932716,0,-0.1743374138,-0.01549219156,0.2139439762,-0.604381609,-0.476958495,-0.3684274256,-0.09732725768,-0.2490051984,1.012101056,-0.4299876214,-0.05433825256
62,0.002238141512,0.02144073996,0.6122390626,0.6885069907,0.005615343296,0.01741386227,-0.7249988615,-0.2912338258,0.06220607684,0.06523606628,0.5429888964,-0.33973043,-0.04766440916,-0.2664302288,-0.0102937719,0.06407197712,0.4537833568,-0.2331498984,0.07806192492,-0.02195253816,0,-0.1743387368,-0.01548353416,0.214141181,-0.6043962002,-0.477020383,-0.3684311328,-0.09732866582,-0.2491790026,1.012104944,-0.4301231624,-0.05438679678
63,0.00227584592,0.02150404116,0.6122160794,0.688500616,0.005589945776,0.01737863276,-0.7250059568,-0.29164173,0.062149778,0.06526664794,0.5440183642,-0.3404937742,-0.04687020856,-0.2661550876,-0.01036502218,0.0640897498,0.4530849342,-0.2334132254,0.07838560942,-0.02199732772,0,-0.1743394912,-0.01547780536,0.2142561404,-0.6044026494,-0.4770552692,-0.3684323374,-0.09733020814,-0.2492785486,1.012106442,-0.4302034858,-0.0544158116
64,0.002278983362,0.02154976316,0.612312698,0.6884993518,0.005582014434,0.01732680541,-0.725008459,-0.2917306306,0.06208255516,0.06523353902,0.5441328406,-0.3403389392,-0.04656937274,-0.266430771,-0.01038450486,0.06431795802,0.4535694716,-0.2331914396,0.07851837132,-0.02205137574,0,-0.1743403588,-0.01547084618,0.2143869848,-0.6044073704,-0.4770944296,-0.36843279,-0.09733310048,-0.2493907422,1.012107994,-0.4302962126,-0.05444821046
65,0.00225745933,0.021639742,0.612331927,0.688495945,0.00557372635,0.0172885529,-0.725012671,-0.291617215,0.0621002465,0.065178588,0.543668628,-0.33969295,-0.046722468,-0.266934127,-0.0103022745,0.0646054968,0.454535037,-0.232731268,0.0784805566,-0.0220780671,0,-0.17434074,-0.0154679529,0.214445248,-0.604407966,-0.477112293,-0.36843273,-0.0973350406,-0.249440655,1.01210916,-0.430338085,-0.054461699
66,0.002211585548,0.02176588366,0.6122813224,0.6885138493,0.005559365711,0.01722950494,-0.7249971841,-0.2915240584,0.0621768653,0.06526130434,0.543434429,-0.3395649674,-0.0472906634,-0.2673347356,-0.01023287906,0.06473385244,0.4552940426,-0.2331250398,0.0783658162,-0.02207754514,0,-0.1743413952,-0.01546380442,0.2145443676,-0.604408729,-0.4771427986,-0.3684334934,-0.0973368764,-0.2495226978,1.012104872,-0.4304092762,-0.05448842868
67,0.002175702856,0.02182721236,0.6122184396,0.688548531,0.00553607438,0.01718317831,-0.7249655238,-0.2917596878,0.06220162066,0.0651645988,0.5437936784,-0.3397533418,-0.047558143,-0.267400402,-0.0102260679,0.06461379234,0.4553011118,-0.2336253346,0.07822923066,-0.02201761862,0,-0.1743422718,-0.01545908078,0.2146765204,-0.6044124488,-0.4771829602,-0.3684365098,-0.09733575284,-0.24962689,1.012088088,-0.430503708,-0.0545318045
68,0.002230998824,0.02186690386,0.6121801016,0.6885580623,0.005491046482,0.01714829584,-0.7249576395,-0.292340922,0.06210650502,0.06490337254,0.5448333266,-0.3401981714,-0.0471921757,-0.2669931294,-0.0103252983,0.0642842725,0.454272717,-0.23398073,0.07811750026,-0.02194507904,0,-0.1743432756,-0.01545331332,0.2148278924,-0.604420352,-0.4772281346,-0.368441111,-0.09733242836,-0.2497427342,1.012065674,-0.430612171,-0.05458387508
69,0.002229410784,0.02195060734,0.6122554896,0.6885588186,0.005488816472,0.0171375127,-0.7249571932,-0.2922728002,0.06213440748,0.06505829094,0.544721866,-0.3399649028,-0.04716115294,-0.2672815738,-0.01026652644,0.0644793883,0.4549659016,-0.234004304,0.078118515,-0.0218974747,0,-0.1743442088,-0.01544780192,0.214968854,-0.604427874,-0.477270073,-0.3684454322,-0.09732858688,-0.2498475284,1.01204512,-0.4307149468,-0.05463374482
70,0.00216733827,0.0218900517,0.612282515,0.688568901,0.00552511222,0.0171576801,-0.724946864,-0.291902453,0.0622304603,0.0653238147,0.543957233,-0.339360058,-0.0473578237,-0.26789692,-0.0101099368,0.0648838431,0.456384093,-0.233778879,0.07805226,-0.0218982007,0,-0.174344659,-0.0154457716,0.215035796,-0.604428768,-0.477290869,-0.368446887,-0.097327292,-0.249896288,1.01203609,-0.43076542,-0.0546584353
71,0.002074198796,0.02192588338,0.6122649908,0.6885746798,0.005525953654,0.01711334254,-0.7249424168,-0.2919725774,0.0622564532,0.0650271952,0.5440298436,-0.3392413794,-0.04751661046,-0.268004239,-0.01002010724,0.06488298622,0.4565705778,-0.2336434898,0.07744441328,-0.0219128784,0,-0.1743452758,-0.01544363724,0.2151264398,-0.6044279578,-0.477319938,-0.3684482096,-0.09732473044,-0.249959919,1.012021944,-0.4308358316,-0.0546947256
72,0.001990427866,0.02198441996,0.612201178,0.6885650847,0.005493969903,0.01703638124,-0.7249535862,-0.2921483456,0.06226123276,0.06475189474,0.5443855286,-0.3393706198,-0.0473961882,-0.2679493308,-0.01000656708,0.0646987498,0.4564087152,-0.233697024,0.07682168034,-0.0219280735,0,-0.1743462262,-0.01544039284,0.2152646986,-0.6044254064,-0.4773651364,-0.3684494852,-0.09731837514,-0.2500547114,1.01199744,-0.4309451934,-0.05475315224
73,0.001994501662,0.0220453728,0.6121784328,0.6885429254,0.005459777813,0.01696926673,-0.724976465,-0.2924492658,0.06229456814,0.06466276198,0.5450354572,-0.3398497522,-0.04686925936,-0.2678355632,-0.01004923268,0.06435019968,0.4561210392,-0.2340823798,0.0764084786,-0.02191891972,0,-0.1743469688,-0.01543786822,0.2153709564,-0.6044220684,-0.4774008868,-0.3684499202,-0.09731098862,-0.2501272498,1.011980246,-0.4310296416,-0.05479624642
74,0.001889129218,0.02196337992,0.6122483374,0.6885559285,0.005488753656,0.01693964913,-0.7249645889,-0.2922657254,0.06243512258,0.06501278726,0.5448831438,-0.3398308876,-0.04706059544,-0.2679163156,-0.00995018594,0.06458278898,0.456513435,-0.2342008026,0.07698051782,-0.02189065774,0,-0.1743476692,-0.01543634008,0.2154671758,-0.6044135808,-0.4774352608,-0.3684485436,-0.09730322514,-0.2501924696,1.011960962,-0.4311088684,-0.05483693182
75,0.00178093265,0.0219445489,0.612248659,0.6886272748,0.005522184319,0.0169287876,-0.7248968188,-0.291834503,0.0626447052,0.0654096156,0.544382572,-0.339600533,-0.0476050079,-0.267909974,-0.00976291113,0.0649186969,0.457037628,-0.234151796,0.0779784396,-0.0218583327,0,-0.174348667,-0.0154354172,0.215600535,-0.604393482,-0.477485567,-0.368443727,-0.0972929671,-0.250281751,1.01192296,-0.431224555,-0.0549009629
76,0.001656974852,0.02197751742,0.6122353196,0.6886700005,0.005492590339,0.01686989232,-0.7248578265,-0.2918911456,0.06267258076,0.06515816154,0.5446128128,-0.3397958754,-0.0474766247,-0.2677195368,-0.009743042106,0.06456686106,0.4567937258,-0.2342080834,0.0780584991,-0.02183813158,0,-0.1743496002,-0.01543526202,0.215720338,-0.604371572,-0.477532643,-0.3684380888,-0.09728415608,-0.250362748,1.011883996,-0.4313319742,-0.0549598202
77,0.001709782284,0.02190482582,0.6121470092,0.6886379345,0.00540391094,0.01679555931,-0.7248906829,-0.2919164834,0.06274394244,0.0648890838,0.5451010346,-0.3400447606,-0.04740237522,-0.2672609744,-0.009709748994,0.064187938,0.4562848328,-0.2343184712,0.07794631718,-0.02181815652,0,-0.1743515522,-0.01543394288,0.2159735652,-0.6043240548,-0.4776339534,-0.3684254352,-0.09726621656,-0.250535655,1.011800268,-0.431562793,-0.05507747158
78,0.001770556604,0.02182915174,0.6121342542,0.6885263342,0.005357285973,0.01672480439,-0.7249986672,-0.2917182918,0.06269316224,0.06485957202,0.5454761746,-0.3401677666,-0.04754934762,-0.2667824984,-0.00980632063,0.06412238326,0.456023514,-0.2347411182,0.077906774,-0.02192828656,0,-0.1743536056,-0.01542980712,0.2162366722,-0.6042738078,-0.4777394828,-0.3684110762,-0.09724952132,-0.2507093368,1.011699412,-0.4318075656,-0.05520516042
79,0.001646275978,0.02168501836,0.6121819496,0.6884799258,0.005326613888,0.01660509291,-0.7250457157,-0.2910595,0.06273393184,0.0653740093,0.545106125,-0.3399925592,-0.047855217,-0.2668865444,-0.009797414024,0.06461809722,0.4569683074,-0.2349565414,0.07788097112,-0.02206939496,0,-0.1743561234,-0.01542080308,0.216552976,-0.6042054058,-0.4778678362,-0.3683896664,-0.09722939132,-0.2509166302,1.011567162,-0.4321098746,-0.05536759944
80,0.0015446319,0.0216542855,0.612143159,0.6885420246,0.005313445937,0.01655448869,-0.7249879976,-0.290515751,0.0628805608,0.0658256859,0.544553757,-0.339776367,-0.0481420197,-0.267176092,-0.00966743287,0.0650307983,0.458030611,-0.23497358,0.077739954,-0.0221588854,0,-0.174357265,-0.0154168895,0.216692269,-0.604165077,-0.477925479,-0.368376315,-0.0972222835,-0.251007229,1.01149952,-0.432249933,-0.055447869
81,0.001529015228,0.02161111832,0.6121766088,0.6885162905,0.005312111478,0.01649050837,-0.7250139049,-0.290571308,0.06282241492,0.0656960502,0.5449550032,-0.3402358772,-0.04780978264,-0.2670588852,-0.00976007581,0.06452159282,0.458051318,-0.2356386808,0.07710659954,-0.02229576296,0,-0.1743580758,-0.01541470846,0.2167909564,-0.6041351676,-0.4779664398,-0.3683668314,-0.097219342,-0.2510719244,1.01145122,-0.4323499144,-0.05550751538
82,0.001567788448,0.02162049638,0.6121805188,0.6884010862,0.005271947449,0.01634922037,-0.7251267848,-0.2903122904,0.06277022214,0.06587949392,0.5451752546,-0.3405999962,-0.04759830904,-0.2668320596,-0.009899502058,0.06434337944,0.4581189928,-0.2362450304,0.07675059142,-0.02260652854,0,-0.1743601172,-0.01540750954,0.217036575,-0.6040556784,-0.4780688108,-0.3683425664,-0.09721195254,-0.2512378696,1.011338208,-0.432599008,-0.05565809384
83,0.001547437112,0.02154888958,0.61208266,0.6883377495,0.005217094313,0.01622875204,-0.7251900111,-0.2898884296,0.06276463268,0.06620058116,0.5450864314,-0.340653127,-0.04776610212,-0.2666574118,-0.0100063875,0.06467020512,0.458412117,-0.2365028116,0.07697800998,-0.0228618033,0,-0.1743622486,-0.01539858058,0.217286512,-0.603957617,-0.4781748474,-0.3683139206,-0.09720157684,-0.2514126242,1.011219836,-0.4328575194,-0.05581913962
84,0.001435922086,0.02146587256,0.6120771766,0.6883272208,0.00520476096,0.01615765522,-0.7252016808,-0.2895337818,0.06277113554,0.06632674634,0.5447471618,-0.3402135966,-0.04806947038,-0.266962975,-0.00996107944,0.06500508188,0.4593987942,-0.2365613458,0.07685632106,-0.0229683932,0,-0.174363393,-0.01539309734,0.2174197736,-0.603899503,-0.478231925,-0.3682981492,-0.09719341248,-0.2515093802,1.011156158,-0.432995671,-0.05590744166
85,0.0013965636,0.0214655921,0.612155676,0.6883455673,0.005210029562,0.01611269351,-0.7251852293,-0.289167732,0.0627854839,0.066370599,0.544217885,-0.339607328,-0.0483562499,-0.267312169,-0.00985212345,0.0652136952,0.460360497,-0.236485645,0.0766173825,-0.0229950752,0,-0.17436412,-0.015389015,0.217505664,-0.603863716,-0.478268445,-0.368289739,-0.0971859992,-0.251574099,1.01111877,-0.433081895,-0.0559627451
86,0.001383946628,0.02150749118,0.612134433,0.6883487946,0.0051997427,0.0160441032,-0.7251837604,-0.2892653226,0.0627714723,0.06638081374,0.5445211176,-0.3400344372,-0.0480106987,-0.2669278744,-0.00989946909,0.06500506104,0.4597131372,-0.2365284052,0.07714333236,-0.0230226431,0,-0.1743646678,-0.01538600514,0.2175705284,-0.6038383008,-0.4782955884,-0.3682854234,-0.09717998354,-0.2516243754,1.01109085,-0.4331447184,-0.05600291786
87,0.001330668874,0.02147975598,0.612083936,0.6883429607,0.005189075767,0.0159795775,-0.7251907991,-0.2892203872,0.06279193612,0.06646319326,0.5447010638,-0.340426344,-0.04787261484,-0.2668697416,-0.009923098798,0.06493119748,0.4598131836,-0.2367937088,0.07718926516,-0.02306424228,0,-0.174365455,-0.01538168158,0.2176626326,-0.6038024902,-0.47833392,-0.3682803628,-0.09717106072,-0.2516968548,1.011050204,-0.4332325284,-0.05605946782
88,0.001308351874,0.02144074102,0.6121286988,0.6883507232,0.005222545835,0.0159868731,-0.7251830298,-0.2887750332,0.06287566574,0.06661316754,0.54413799,-0.3403049408,-0.04825188366,-0.2673385084,-0.009846792184,0.06508620682,0.4610011162,-0.2371254358,0.07627669424,-0.02305419524,0,-0.1743658838,-0.01537981968,0.2177123306,-0.6037806626,-0.4783546862,-0.368276781,-0.09716518072,-0.251735842,1.011025502,-0.4332789834,-0.056092158
89,0.00131205383,0.02136930788,0.6121194484,0.6883630826,0.005224077282,0.01598638828,-0.7251712976,-0.28883087,0.0628317192,0.06658246668,0.5443829894,-0.3404177726,-0.04804645778,-0.2672108534,-0.009889401124,0.06501376478,0.4608013272,-0.237314564,0.07580322026,-0.02302593404,0,-0.1743663488,-0.01537800414,0.217766994,-0.6037556886,-0.4783768536,-0.3682722926,-0.09715787324,-0.2517784712,1.010999774,-0.4333287476,-0.05612815618
90,0.00130547117,0.0213512629,0.61208576,0.688373726,0.00519883758,0.0159522253,-0.725162128,-0.289060265,0.0627290159,0.0665040389,0.54496485,-0.34060666,-0.0475636832,-0.266739994,-0.00999611057,0.064865388,0.459925711,-0.237338439,0.0758506656,-0.0229843184,0,-0.174366876,-0.0153755937,0.217831358,-0.603726447,-0.478400856,-0.368267119,-0.0971481949,-0.251828253,1.01097596,-0.433384597,-0.0561677739
91,0.001216492176,0.0212297026,0.6120795014,0.6883906565,0.005224621266,0.01587992225,-0.7251474577,-0.2886186124,0.0627270803,0.06668091118,0.544497192,-0.3404756484,-0.047582148,-0.266692841,-0.01000754238,0.0650613576,0.4603403628,-0.2372710584,0.07680280956,-0.0228969507,0,-0.1743682088,-0.01536656862,0.2179936976,-0.6036498072,-0.4784578262,-0.3682543576,-0.09712087216,-0.2519546928,1.010920954,-0.4335230706,-0.05626496524
92,0.001157453776,0.0212102763,0.6121127966,0.6884135649,0.005252058189,0.01583933622,-0.7251263993,-0.2881549654,0.0627634272,0.06680218132,0.543953335,-0.3403005596,-0.04809213652,-0.2666882454,-0.009989759142,0.065145193,0.4607873974,-0.2372481968,0.07738922236,-0.02284191176,0,-0.1743691356,-0.01535760854,0.2181049346,-0.6035912392,-0.4784946856,-0.3682451364,-0.09710111616,-0.2520409998,1.010879472,-0.4336188618,-0.05633352176
93,0.001172754398,0.02114539368,0.6121194006,0.6884272455,0.005224184139,0.0157986698,-0.7251144997,-0.2877818646,0.0627757043,0.0668259755,0.5437194106,-0.3401937904,-0.04911830352,-0.266590351,-0.01002924254,0.06497097608,0.461035824,-0.2373956832,0.07711594102,-0.02273218814,0,-0.1743706408,-0.01533808148,0.2182800738,-0.6034856324,-0.4785509946,-0.368226051,-0.09706990722,-0.2521746814,1.010795666,-0.43377645,-0.05645826088
94,0.001154871192,0.02105088756,0.6120547772,0.6884185932,0.005149363474,0.01567554921,-0.7251259213,-0.287507218,0.06271021366,0.06675668358,0.543844032,-0.3402352392,-0.0493304789,-0.2662610348,-0.01015536952,0.06468799414,0.4610468866,-0.2380601314,0.07663137468,-0.02246064578,0,-0.174373588,-0.0152895622,0.2186142262,-0.603276908,-0.4786568824,-0.3681861162,-0.09700949194,-0.2524320844,1.010628514,-0.43408885,-0.05670597402
95,0.00116371782,0.021017652,0.612046123,0.688411281,0.00510694448,0.0156147085,-0.725134476,-0.287539959,0.0626523271,0.0665939301,0.544242859,-0.340474516,-0.0489563793,-0.265993714,-0.0102490401,0.0644666106,0.460929751,-0.238772497,0.0761241466,-0.0222421084,0,-0.174375042,-0.0152616184,0.218777969,-0.603177667,-0.478707373,-0.368167549,-0.0969824344,-0.252560049,1.01055801,-0.43424648,-0.0568181574
96,0.001114738662,0.02085931304,0.612048435,0.6884523417,0.005131506766,0.01562733937,-0.7250950469,-0.2873562094,0.06270038336,0.06672486812,0.544473946,-0.3410939278,-0.0483630292,-0.2658853172,-0.01023971624,0.06475261746,0.4613783836,-0.2384285092,0.0760724872,-0.02209178212,0,-0.1743761658,-0.01523737068,0.2189004572,-0.6031000496,-0.4787451388,-0.3681534646,-0.0969634995,-0.2526561738,1.010504268,-0.4343698084,-0.05690128058
97,0.001111742136,0.02082899546,0.6120700474,0.6885303392,0.005114909935,0.01560851213,-0.7250215059,-0.2869977354,0.06278290448,0.0668724924,0.5442911866,-0.341217762,-0.04833016394,-0.2658450782,-0.01020009686,0.06478325428,0.4619679928,-0.2383861902,0.07609815602,-0.02196449636,0,-0.1743773822,-0.01520865614,0.2190278384,-0.6030096178,-0.4787858726,-0.368136561,-0.0969445184,-0.2527569712,1.010442924,-0.4345048664,-0.05699370574
98,0.001050360362,0.02086654864,0.6120684382,0.6886161485,0.005014208657,0.01549749009,-0.7249430913,-0.2864246964,0.06286669226,0.06701087502,0.5434976934,-0.3404143394,-0.04922662746,-0.2658913434,-0.01016762798,0.06429519356,0.4625906464,-0.2391091526,0.07608461526,-0.0216495104,0,-0.17437962,-0.01515242852,0.2192541,-0.6028334972,-0.4788623456,-0.3680997488,-0.09691271632,-0.252942282,1.01034195,-0.4347539902,-0.0571686633
99,0.00105075743,0.0207528666,0.612032521,0.6886270197,0.004914470808,0.01541310325,-0.7249352467,-0.2864047588,0.0628167033,0.06681750866,0.544126761,-0.3408567486,-0.0491123371,-0.2650269444,-0.0103171708,0.06373250786,0.4614136812,-0.2392705622,0.0765968934,-0.0212550152,0,-0.1743827404,-0.0150672162,0.2195617144,-0.602589154,-0.4789694072,-0.3680453358,-0.09686744662,-0.2531984568,1.010209154,-0.435102558,-0.05741678174
100,0.00112780556,0.0205908455,0.611967206,0.6885844684,0.004798455833,0.01526104671,-0.7249796584,-0.286323011,0.0625917763,0.0666572973,0.545251489,-0.341878891,-0.0483239405,-0.263806164,-0.01065866,0.063388288,0.459963173,-0.2392295,0.0773218349,-0.020890737,0,-0.174387738,-0.0149109047,0.220041469,-0.602224827,-0.479135513,-0.367962897,-0.0967770889,-0.253600299,1.00998938,-0.435659111,-0.0578099228
101,0.001046939242,0.0204435505,0.6120048044,0.6886406092,0.004815864145,0.01524037012,-0.7249266514,-0.285980135,0.06264773756,0.06680597366,0.54491601,-0.3417910454,-0.04773321674,-0.264033705,-0.01057502946,0.0637547493,0.4611000716,-0.2390608046,0.07725795802,-0.02076105476,0,-0.1743891478,-0.01486470346,0.220173669,-0.6021184562,-0.479182291,-0.3679377976,-0.09675125778,-0.2537122846,1.009928204,-0.4358164072,-0.05792038068
102,0.0009986646716,0.02047075888,0.6120463132,0.6887191248,0.004815920793,0.01522967908,-0.7248522822,-0.2855967936,0.06277496962,0.06695120932,0.5444582102,-0.3416740478,-0.04778629618,-0.2642704902,-0.01046239216,0.0639536202,0.4621594248,-0.2393063782,0.0768420219,-0.02064350548,0,-0.1743900032,-0.01483684722,0.2202532474,-0.6020493982,-0.4792108238,-0.3679208278,-0.0967368782,-0.2537797572,1.009891868,-0.4359125016,-0.05798733752
103,0.0009517889582,0.0204162687,0.6120509508,0.6888821844,0.004695361877,0.01515999422,-0.7246995682,-0.2851572214,0.0628834814,0.0668035209,0.5442917704,-0.3418314456,-0.04874975308,-0.2638223288,-0.01049495096,0.06338717488,0.4621359702,-0.2402162968,0.07618620546,-0.02020923126,0,-0.1743928876,-0.01473879464,0.2205179332,-0.601806152,-0.479306799,-0.3678577602,-0.09668900816,-0.2540044606,1.009757496,-0.4362425924,-0.05821938958
104,0.001009320279,0.020297157,0.6119701742,0.6889091608,0.004567016607,0.01506956622,-0.7246766304,-0.284974885,0.0628591269,0.06644076408,0.5447076802,-0.3420338036,-0.0487269662,-0.2630684256,-0.01059887798,0.06270840766,0.4614718318,-0.2403064462,0.07644492982,-0.01982762514,0,-0.174396947,-0.0145933425,0.2208803382,-0.6014755012,-0.4794429182,-0.3677701894,-0.09661568848,-0.2543187558,1.00956013,-0.4367054524,-0.0585474931
105,0.00103680161,0.0202046838,0.611961186,0.6888455449,0.004537391739,0.0150424347,-0.7247378509,-0.285032094,0.0627241209,0.0661355555,0.5451563,-0.342155725,-0.0482241884,-0.262574106,-0.0107115274,0.0623409785,0.460783124,-0.23996146,0.0771376342,-0.019679375,0,-0.174398422,-0.0145393107,0.22100991,-0.601360023,-0.479494005,-0.36773926,-0.0965912938,-0.254433692,1.00948942,-0.436873913,-0.0586624518
106,0.001015443171,0.02011987682,0.6119779822,0.6888998756,0.004481789861,0.01502988988,-0.7246868133,-0.2843588348,0.0628594458,0.06652203354,0.5445047614,-0.3421450614,-0.04874054638,-0.2626307846,-0.01057095582,0.06280150716,0.4616969762,-0.2402769982,0.07693958578,-0.01956264748,0,-0.1744005442,-0.01445607988,0.2211909476,-0.6011949656,-0.4795682786,-0.36769495,-0.09656118602,-0.2545927524,1.009381342,-0.4371222554,-0.05883333534
107,0.000957983895,0.02005018704,0.6119409324,0.6889968054,0.004406476044,0.01499195451,-0.7245959056,-0.2839365898,0.06292840986,0.06662103832,0.5441835762,-0.3420428516,-0.04913362188,-0.262500602,-0.01051244806,0.0629400283,0.4621414004,-0.2403980824,0.07681235672,-0.01953695562,0,-0.174402869,-0.0143605344,0.221384415,-0.6010151862,-0.4796491446,-0.36764673,-0.09652823058,-0.2547623576,1.009258076,-0.4373961868,-0.05902628156
108,0.0009854717876,0.0200978693,0.6120233538,0.6890423866,0.004349070189,0.01494096332,-0.7245539612,-0.2841164052,0.06284188928,0.06620117278,0.544509399,-0.3417561414,-0.04900876732,-0.2619443778,-0.01062659264,0.06243350654,0.4610843836,-0.2398356678,0.07707228962,-0.0193667255,0,-0.17440449,-0.01429111418,0.221516496,-0.6008918048,-0.4797040642,-0.3676133034,-0.09650754036,-0.2548809472,1.009170726,-0.4375893172,-0.05915973112
109,0.001041844742,0.0200564478,0.6120282412,0.689049885,0.004330433834,0.01494447322,-0.7245468694,-0.2842309952,0.06278376878,0.06603304448,0.5448133706,-0.3421054304,-0.04869821814,-0.261706239,-0.01073395438,0.0622467421,0.4606747688,-0.2398277016,0.07729011772,-0.01923195796,0,-0.1744057238,-0.014237589,0.2216143072,-0.600799656,-0.4797451318,-0.367588669,-0.0964933217,-0.2549702464,1.009102248,-0.4377360582,-0.0592612475
110,0.00108378404,0.0200364999,0.611945987,0.689052153,0.00431982467,0.0149456363,-0.724544752,-0.284175634,0.0627188161,0.0660424232,0.545015216,-0.342693567,-0.0484058261,-0.26172179,-0.0108552435,0.0622710288,0.461023569,-0.240262389,0.0773818493,-0.0191759467,0,-0.174408242,-0.0141231576,0.221807137,-0.600607157,-0.479831249,-0.367539376,-0.0964680016,-0.255149156,1.00895071,-0.438042492,-0.0594809912
111,0.001080453626,0.01993051654,0.6119789124,0.6890591987,0.004328300903,0.01498581714,-0.7245371707,-0.2838774202,0.06271965504,0.06615588216,0.5443958402,-0.3421221496,-0.04875206948,-0.2618498324,-0.01082145946,0.06239517182,0.4615133104,-0.2401300492,0.07716025416,-0.019183895,0,-0.1744093776,-0.0140685983,0.2218952896,-0.6005230784,-0.4798700512,-0.367518753,-0.09645922928,-0.2552301762,1.008876994,-0.4381853878,-0.05958402084
112,0.001092345636,0.01999153498,0.6120103,0.689072175,0.004302957977,0.0149887606,-0.7245249196,-0.2838574348,0.0626879871,0.0661513969,0.5443479062,-0.341906607,-0.04870492516,-0.261898917,-0.01084220804,0.06235575898,0.4616712392,-0.2401690066,0.07659663258,-0.01917863974,0,-0.174410084,-0.0140343625,0.2219499974,-0.6004779456,-0.4798923314,-0.3675077436,-0.09645474702,-0.2552798628,1.00883114,-0.4382727686,-0.05964533388
113,0.001205580284,0.0200861063,0.6119762776,0.6890918475,0.004258836533,0.01495064636,-0.7245072575,-0.284298223,0.06250356288,0.06595835242,0.5451357244,-0.3424418388,-0.04780906808,-0.261700308,-0.01106391492,0.0619927801,0.4608662788,-0.2403992566,0.07572016866,-0.01912884042,0,-0.174412939,-0.0138911119,0.2221659152,-0.6002886174,-0.4799845338,-0.367458522,-0.09643041936,-0.2554869238,1.008639788,-0.4386269626,-0.05989929362
114,0.001240389702,0.0200605668,0.6119877938,0.6890994809,0.004267017237,0.01497181694,-0.7244995119,-0.284236115,0.06245483158,0.06608023796,0.544854963,-0.3424859344,-0.04799698818,-0.2619900886,-0.0111108426,0.06213805754,0.4614024402,-0.2405489714,0.07531404644,-0.0191361703,0,-0.174414012,-0.01383668574,0.2222437262,-0.6002129076,-0.4800202308,-0.3674386206,-0.09642002286,-0.255565596,1.0085649,-0.4387585462,-0.05999598726
115,0.00128567417,0.0200730413,0.61200285,0.6891330576,0.004305738178,0.01502656829,-0.7244662116,-0.283967227,0.0624320582,0.0662490577,0.544086397,-0.342190981,-0.0487176999,-0.262394667,-0.0110975299,0.0624612942,0.462323934,-0.240456283,0.0755408555,-0.0192924812,0,-0.174415901,-0.0137410173,0.222379267,-0.60007441,-0.480085641,-0.367405027,-0.0964023396,-0.255705744,1.00843048,-0.438989729,-0.0601658784
116,0.001356716852,0.02008916142,0.6119910596,0.6891845346,0.00442642703,0.01506603437,-0.7244156946,-0.2844088678,0.06214311718,0.06595063064,0.5442099094,-0.3417459726,-0.04864160568,-0.2623646082,-0.01125437242,0.06254710856,0.4612594486,-0.2395393642,0.07721634064,-0.01974971852,0,-0.1744244308,-0.01331427826,0.2229629574,-0.5995221378,-0.4804020762,-0.3672754348,-0.09630042318,-0.2563735364,1.00797491,-0.4399964038,-0.06091763898
117,0.001358963432,0.02015805876,0.6120091916,0.6891858122,0.004520199138,0.01510285286,-0.7244131334,-0.2848333124,0.061902234,0.0657232195,0.5444454432,-0.3415557266,-0.0481392324,-0.2624610778,-0.01141509304,0.06247045844,0.4606442632,-0.2390519528,0.07814590636,-0.01992156952,0,-0.1744309904,-0.01298257164,0.2233859594,-0.5991362098,-0.4806636036,-0.3671864924,-0.09620474874,-0.256907994,1.007699636,-0.4407514874,-0.06150362416
118,0.00139255137,0.02022083624,0.6120175358,0.6891298929,0.004564130188,0.01517195946,-0.7244646099,-0.2851030292,0.06188644466,0.0656708151,0.5445890904,-0.3418156024,-0.04730047958,-0.2628908516,-0.01145952026,0.06215414108,0.4612374244,-0.2394540104,0.07739134876,-0.01987179144,0,-0.1744331238,-0.01286959238,0.2235200998,-0.5990095498,-0.4807498868,-0.3671609522,-0.09616511316,-0.25708521,1.007603408,-0.4409958246,-0.06169540358
119,0.001438979806,0.02025540916,0.611968684,0.6890977768,0.004611884954,0.01527369269,-0.7244927183,-0.2855357944,0.06189125106,0.06567471476,0.5448969242,-0.342265701,-0.04706346766,-0.2629809856,-0.01148461124,0.06221923084,0.460851675,-0.2394204076,0.0775684714,-0.0199855201,0,-0.1744361994,-0.01270048524,0.223706326,-0.5988222006,-0.4808769288,-0.367126584,-0.09610047786,-0.2573441622,1.007462572,-0.4413434566,-0.06197852864
120,0.00155415898,0.0203492679,0.611991286,0.6891041192,0.004710894401,0.015398432,-0.7244834082,-0.286049396,0.0617839023,0.0656845123,0.545105696,-0.342582583,-0.0472467281,-0.263100952,-0.0115577206,0.0626064166,0.460165143,-0.239190698,0.0782383606,-0.0204731561,0,-0.174443409,-0.0122968573,0.224114284,-0.598380506,-0.481190622,-0.367047012,-0.0959380642,-0.257956147,1.00717235,-0.442144215,-0.0626564994
121,0.00160626273,0.02035605798,0.6119932176,0.6891255098,0.004755477432,0.0154451869,-0.724461775,-0.286105591,0.06165794582,0.0657377109,0.544834554,-0.3420564294,-0.04767926558,-0.263487184,-0.01157680952,0.06297964454,0.4603604076,-0.2390671434,0.07817454486,-0.02085778412,0,-0.1744473012,-0.01205981896,0.2243297788,-0.5981617806,-0.4813632012,-0.3669974624,-0.09582689852,-0.2582944096,1.007043838,-0.4425698994,-0.06301905216
122,0.001654958352,0.02039722468,0.6120257854,0.6891182938,0.004773490632,0.01546304242,-0.7244681396,-0.286181039,0.06154950484,0.06568490564,0.5447441816,-0.3416266738,-0.04771873132,-0.2637829958,-0.01161065434,0.06307593736,0.4606896464,-0.2388414174,0.07797949166,-0.02108311836,0,-0.174448916,-0.01195439102,0.2244227946,-0.598084557,-0.4814326348,-0.3669751406,-0.09577139466,-0.2584357798,1.006995798,-0.4427452686,-0.06316508946
123,0.00166273722,0.02046061006,0.6120445846,0.6889659247,0.004793824618,0.01551708945,-0.7246117538,-0.2864668132,0.06148286686,0.06567763984,0.5449849846,-0.3416158736,-0.04702215638,-0.2639762346,-0.01166140474,0.06300113502,0.4608031634,-0.2383311156,0.07786188574,-0.02143698336,0,-0.1744506808,-0.01183431852,0.2245276212,-0.59800818,-0.481504756,-0.3669645368,-0.09570702908,-0.2585807026,1.006923868,-0.4429365694,-0.06334323738
124,0.001766554706,0.0205015365,0.6119849562,0.6887751238,0.004901633332,0.01555716903,-0.7247915406,-0.2867916822,0.06132690536,0.06606191548,0.5450913546,-0.3418616294,-0.04673645574,-0.2643306198,-0.01177728366,0.06337115166,0.4604841112,-0.2385371474,0.07819887104,-0.02211313208,0,-0.1744578094,-0.01135453658,0.2249300124,-0.5976552606,-0.4818038106,-0.3669285416,-0.09544866832,-0.259135568,1.006647106,-0.4437208176,-0.06409603358
125,0.00188839342,0.0205962043,0.611923933,0.6886507397,0.005018215278,0.01544977249,-0.7249112227,-0.286659867,0.0609138161,0.0666899756,0.544801056,-0.342069566,-0.0466811731,-0.264684796,-0.0121430745,0.0639896393,0.460474491,-0.239314109,0.0787407085,-0.0228269435,0,-0.174469993,-0.0105128866,0.225527972,-0.596987545,-0.482366055,-0.366826296,-0.0949577689,-0.260097206,1.00625777,-0.445068926,-0.0654165968
126,0.001949945328,0.02062505598,0.6120130542,0.6886547462,0.005027638033,0.01544087882,-0.7249075408,-0.2865419328,0.06090138108,0.0669022113,0.5447397232,-0.3421160818,-0.04652476162,-0.2649368166,-0.01212100314,0.0646146968,0.4610017362,-0.2391336408,0.07871418744,-0.02312328368,0,-0.1744719208,-0.01036781424,0.2256130276,-0.5968720676,-0.4824615538,-0.3668042306,-0.09486405998,-0.2602499902,1.006178572,-0.445286244,-0.06564495562
127,0.001934257336,0.02056609244,0.612055647,0.6886350825,0.005023661605,0.01544684918,-0.7249261209,-0.2863346876,0.06090790108,0.0670462623,0.5444129344,-0.3418977794,-0.04667569694,-0.2653749944,-0.01207369174,0.06499515024,0.461961329,-0.2390481504,0.0782654151,-0.02349101266,0,-0.1744730232,-0.0102861695,0.225661716,-0.5968102696,-0.4825182732,-0.3667938588,-0.0948049858,-0.2603328462,1.00610733,-0.445411956,-0.06578112544
128,0.001940736474,0.02061087674,0.612025249,0.6883825873,0.004993538364,0.01539908576,-0.7251671161,-0.2859024288,0.06104790122,0.06757556048,0.5438121794,-0.3414852976,-0.04734908416,-0.2660255612,-0.01193683816,0.06526245178,0.4632689296,-0.2392917604,0.07734784182,-0.02439016666,0,-0.1744766324,-0.0100337036,0.2258326616,-0.5966221214,-0.4827212032,-0.3667972742,-0.09459283948,-0.2605761708,1.005853442,-0.4458240274,-0.06623815002
129,0.001939571786,0.02072680146,0.6119437336,0.688153906,0.005006226961,0.01531362328,-0.7253858506,-0.2861579122,0.06099299492,0.06812359542,0.5443437574,-0.3417534648,-0.04710809292,-0.265951848,-0.01201403142,0.06586486848,0.4625302908,-0.239369157,0.07762340008,-0.02484280314,0,-0.1744826346,-0.009631214664,0.2261086942,-0.5963266016,-0.4830995146,-0.3668245016,-0.09419718834,-0.2609723148,1.005481482,-0.4464957778,-0.06696372928
130,0.0020142179,0.0208774935,0.611888587,0.6879161332,0.005108237541,0.0151826221,-0.7256133872,-0.286540329,0.0606963821,0.0688598379,0.54504025,-0.342156738,-0.0463802293,-0.265915364,-0.0122877471,0.06689623,0.461508691,-0.239433005,0.0785197392,-0.0248378739,0,-0.174491823,-0.00901399367,0.226462409,-0.595887601,-0.483746916,-0.366832495,-0.093537949,-0.261637241,1.00500691,-0.4475061,-0.0680272058
131,0.001892517666,0.02085417582,0.6120080472,0.6877858995,0.00514660581,0.01518174166,-0.72573658,-0.2860900404,0.06103560178,0.0693623036,0.5442461252,-0.3415178716,-0.04656814338,-0.2668242456,-0.01189216878,0.06736854764,0.4633001446,-0.238914341,0.07825436592,-0.02512273568,0,-0.1744946864,-0.008821421118,0.2265754316,-0.5957758308,-0.4839695454,-0.3668430444,-0.09331841914,-0.2618148744,1.004780598,-0.4478438498,-0.06846140774
132,0.001820568856,0.02083415312,0.612072575,0.6876049774,0.005118494766,0.01522440282,-0.7259073037,-0.285842919,0.0615762301,0.06987542956,0.5439450146,-0.3413558426,-0.0469744541,-0.2673406244,-0.01137507854,0.06786101162,0.4642778872,-0.2385562006,0.07807215156,-0.0254375685,0,-0.1744985968,-0.008551389914,0.2267487468,-0.5956383106,-0.484276527,-0.3668724478,-0.09300841238,-0.2620217148,1.004431322,-0.4483278512,-0.06914429066
133,0.001801820826,0.02089197672,0.6119556908,0.6872551337,0.005050329878,0.01519891167,-0.7262395393,-0.2858581002,0.0620282002,0.07076122462,0.5445421818,-0.3421254754,-0.04736854882,-0.2671166482,-0.01106094528,0.06881286354,0.463546258,-0.2388641146,0.07839263376,-0.02545619644,0,-0.1745067028,-0.007923075276,0.2271309254,-0.5953990458,-0.4849165084,-0.3669688168,-0.09226642702,-0.262431568,1.003850126,-0.4493297038,-0.07068927286
134,0.001725285084,0.02098190078,0.611896443,0.6870336762,0.005017476162,0.01514468583,-0.7264504052,-0.2858460188,0.06218348746,0.07118441012,0.5446285844,-0.3421497704,-0.0473384559,-0.2673288642,-0.01087213252,0.06930156944,0.463740778,-0.239177376,0.07733994574,-0.02547951228,0,-0.1745105532,-0.007585634474,0.2273176138,-0.5953594562,-0.485239142,-0.3670480428,-0.0918587059,-0.2626486778,1.003641962,-0.4498031018,-0.07147898526
135,0.00164855563,0.0210819654,0.611957371,0.686825673,0.00499956435,0.0151481075,-0.726647118,-0.28591159,0.0624656267,0.0714476705,0.544533312,-0.341829866,-0.0472413898,-0.267757654,-0.0104844458,0.069630824,0.464245677,-0.23923485,0.0757669061,-0.0256060138,0,-0.174513251,-0.00734275719,0.227490589,-0.595531166,-0.485477835,-0.367175847,-0.0915618986,-0.26280877,1.00353479,-0.450138748,-0.0720437318
136,0.001460111022,0.02106710748,0.6120262382,0.6864997857,0.004854307899,0.01526590027,-0.7269535282,-0.2857976912,0.06361000688,0.07208721936,0.5447920684,-0.342025769,-0.0479091637,-0.267533976,-0.00947732255,0.07006055416,0.463903815,-0.2386435124,0.07620215118,-0.02589948512,0,-0.1745188204,-0.00683433544,0.2278625518,-0.595794201,-0.4860028092,-0.3674544992,-0.09108864066,-0.2630723714,1.00331669,-0.4509832442,-0.07326354828
137,0.001358151414,0.02096338498,0.6119867562,0.6862504839,0.004636053485,0.01529188684,-0.7271897542,-0.2853907284,0.06461729854,0.07273344398,0.5451098558,-0.3424341918,-0.04841917082,-0.2669889272,-0.00860284604,0.0705629513,0.463538712,-0.2383592512,0.07645367682,-0.02592880728,0,-0.1745243582,-0.0062697866,0.2282168596,-0.5958578226,-0.4865669732,-0.367740542,-0.09071675692,-0.2632674694,1.002978278,-0.4520012196,-0.07459855828
138,0.001203327436,0.02087161838,0.6119510056,0.6861911958,0.00442163275,0.01511891321,-0.7272506517,-0.2846769514,0.06500764932,0.07314568314,0.5453305484,-0.342930722,-0.04844182802,-0.266352981,-0.008219605122,0.07111732214,0.4636027278,-0.2388653634,0.07576224354,-0.0256373305,0,-0.1745286318,-0.005773671998,0.228457767,-0.595993471,-0.4870459852,-0.3680747744,-0.090418306,-0.2633980394,1.002314738,-0.4528857652,-0.07569707782
139,0.001025618287,0.02094286198,0.611910391,0.6860799631,0.00431116381,0.01499748903,-0.7273587653,-0.284232557,0.06542650164,0.07347433118,0.545081556,-0.3429565488,-0.04862986952,-0.2661600468,-0.00783003159,0.0713250846,0.4637138906,-0.2388706982,0.07533071192,-0.02563082574,0,-0.1745321456,-0.005302075952,0.2286474528,-0.596299827,-0.4874828994,-0.3684505524,-0.09027014824,-0.2635460556,1.001257372,-0.4537975786,-0.076306352
140,0.000811014441,0.0210314225,0.611984313,0.685938567,0.00432291608,0.014973325,-0.727492539,-0.284153521,0.0659053847,0.0736875907,0.544609606,-0.342592001,-0.0490346439,-0.266384423,-0.00738278683,0.0713457167,0.463830024,-0.238492876,0.0749755427,-0.0257921312,0,-0.17453526,-0.00486469176,0.228842258,-0.596758842,-0.487930834,-0.368826658,-0.0905737728,-0.263730377,0.999563992,-0.455042034,-0.0759924576
141,0.0006429924744,0.0210328154,0.6120472312,0.6855509912,0.004313721478,0.01485373946,-0.7278602865,-0.2832568526,0.0663750961,0.07489746212,0.5437667132,-0.3417306782,-0.05002039522,-0.2667209446,-0.006947564056,0.0723592639,0.4647182704,-0.2382419974,0.07396549432,-0.0242640715,0,-0.1745488374,-0.001894537402,0.2294488458,-0.5975455164,-0.4916081252,-0.370883757,-0.0925794736,-0.2653412344,0.9744958882,-0.4665053668,-0.04632164686
142,0.000516934297,0.02109238614,0.6119640828,0.6852666695,0.00452369078,0.01465085134,-0.7281308127,-0.2829096374,0.06616488544,0.07586891056,0.5431950688,-0.3409492492,-0.05005464478,-0.267396867,-0.007135873752,0.07337285878,0.4653284374,-0.2384063806,0.07409696284,-0.02294979394,0,-0.174549907,-0.0009863600592,0.2292920202,-0.5966340896,-0.4931244848,-0.3717691068,-0.09737579974,-0.2654480752,0.9418102024,-0.4779285788,0.0027866438
143,0.000479259674,0.0213568002,0.611983442,0.685016853,0.005079071551,0.01449037447,-0.7283653913,-0.2837505284,0.06524872778,0.0766348645,0.5431275486,-0.3405372438,-0.04856653364,-0.2686866584,-0.007940085602,0.07460918578,0.4649720012,-0.238901755,0.0760560855,-0.02170293928,0,-0.174549907,-0.0014239501,0.228931633,-0.5961531998,-0.493783915,-0.3722024562,-0.1118820964,-0.2668759164,0.9024821874,-0.4927176,0.05344151854
144,0.000382862613,0.02173225248,0.6121017932,0.6844202221,0.005897415847,0.0145740618,-0.7289182236,-0.2845824894,0.0645101562,0.07802994998,0.5415942672,-0.3391320642,-0.04857492818,-0.2717253508,-0.00829730183,0.07714842264,0.4664941014,-0.2386379718,0.0766024247,-0.02075849588,0,-0.174549907,-0.001826509554,0.2286540118,-0.594006109,-0.4944507898,-0.372653675,-0.1352321626,-0.2693171798,0.8539027808,-0.514848828,0.09735183548
145,0.000363918662,0.0221304707,0.612169266,0.6835975171,0.006933561981,0.0148400272,-0.7296753621,-0.285788208,0.0637871772,0.0798886493,0.539408267,-0.337179571,-0.0495573506,-0.275759906,-0.00851660408,0.0805078521,0.468359411,-0.23761043,0.0769945905,-0.0202036686,0,-0.174549907,-0.00194042863,0.228406861,-0.590316594,-0.495357007,-0.373473227,-0.16640529,-0.274088621,0.798565686,-0.546851814,0.132738844
146,0.0005232944388,0.02286559122,0.6121111516,0.682811835,0.008169271833,0.01513520411,-0.7303918034,-0.2884913924,0.06254428772,0.08202589754,0.538603175,-0.335846114,-0.05030128582,-0.2790928898,-0.009573502652,0.08374473602,0.4665898502,-0.2357802872,0.08077422678,-0.02035823464,0,-0.174549907,-0.002035656758,0.228024402,-0.586140776,-0.4964498044,-0.3733575584,-0.2037221342,-0.2827754734,0.7364485146,-0.594657171,0.1688327102
147,0.000737633882,0.02375910616,0.6121700882,0.6821159625,0.009414120432,0.01558424933,-0.731017318,-0.291889638,0.06134621874,0.08341980428,0.5380059246,-0.3341062192,-0.0509784691,-0.2824898066,-0.0105805684,0.08641162812,0.4641807078,-0.2336554706,0.08494412598,-0.02100943774,0,-0.174549907,-0.002026519462,0.2277629014,-0.5826529856,-0.4976084886,-0.3729249358,-0.2428040296,-0.2947255374,0.6690589662,-0.6613385916,0.2109041718
148,0.00101347265,0.02467438358,0.6122547152,0.681569442,0.01057449707,0.01623384266,-0.731496916,-0.2957477328,0.06038477196,0.08356565686,0.5372946498,-0.3316150428,-0.05155383122,-0.2861591522,-0.01125695258,0.0881993949,0.4621245978,-0.2314488586,0.0884847045,-0.02210176512,0,-0.174549907,-0.001738080848,0.2276653884,-0.5802621838,-0.4988639416,-0.373193914,-0.2811466996,-0.3087576988,0.5968410252,-0.7495551112,0.2634454492
149,0.001193663616,0.0256420825,0.6122954846,0.6815866401,0.01156997315,0.01684655202,-0.7314519679,-0.2994151412,0.05907230524,0.08288602084,0.5367061616,-0.3296568512,-0.05114311876,-0.289423698,-0.01231407096,0.08854296802,0.4608049334,-0.229641995,0.09041995704,-0.02293508312,0,-0.174549907,-0.001685713678,0.227696225,-0.5795017,-0.500661385,-0.3728771982,-0.3148013532,-0.3213177384,0.5162501694,-0.8546023962,0.3202584386
150,0.00155647949,0.0263002142,0.612368584,0.6820366249,0.012421224,0.0173972246,-0.7310055349,-0.302722275,0.0574207827,0.081489943,0.535999358,-0.328006536,-0.0502130277,-0.292281151,-0.0136711095,0.0877838731,0.460044533,-0.22820583,0.0913978741,-0.0232681707,0,-0.174549907,-0.00191619375,0.227938846,-0.580380499,-0.5027529,-0.371427476,-0.345637023,-0.33063516,0.431163579,-0.972813487,0.377949804
151,0.00194270136,0.02694785706,0.6124496936,0.6826386346,0.01320581948,0.01785956786,-0.7304184669,-0.305362046,0.05545667784,0.07945406586,0.534554017,-0.3261125684,-0.0499730028,-0.2948768194,-0.0151370721,0.08664550486,0.4595303596,-0.227226135,0.09298829584,-0.02254242116,0,-0.174549907,-0.002454830382,0.2283209112,-0.5821698072,-0.5043184398,-0.3702525376,-0.3769440176,-0.3347405254,0.348629689,-1.100868896,0.432824874
152,0.002349760524,0.02744707318,0.6124827622,0.6835054515,0.01375160196,0.01810234149,-0.7295913215,-0.3070696176,0.05315899926,0.07704149188,0.5328685046,-0.3243318734,-0.04954269828,-0.2965556626,-0.01699688244,0.08494069278,0.459229821,-0.2264326394,0.0942495316,-0.02097250336,0,-0.174549907,-0.002782522468,0.2288416238,-0.5832548856,-0.5055713416,-0.3702100634,-0.41203379,-0.3355677484,0.2714079202,-1.231917024,0.485959578
153,0.003005185726,0.02780339458,0.6125879648,0.6846841107,0.01395750205,0.01807953818,-0.7284819744,-0.3076859174,0.0504988074,0.07432801274,0.5311385988,-0.322795898,-0.04861920622,-0.2969999252,-0.01938091072,0.08259094508,0.4591177822,-0.2257418094,0.09490939228,-0.01857683586,0,-0.174549907,-0.00227214652,0.229497382,-0.5823201898,-0.5068498014,-0.372620106,-0.4547294142,-0.3340893686,0.2017512592,-1.360535742,0.5396190886
154,0.003660783688,0.02811912038,0.6126628402,0.6863254805,0.01397543041,0.01814752347,-0.7269337587,-0.3085877478,0.04784486742,0.07045672238,0.5301969052,-0.3215768996,-0.04727221952,-0.2965160368,-0.02185848244,0.07876884492,0.4583767,-0.2254782082,0.09648767114,-0.0161714047,0,-0.174549907,-0.001018267787,0.2298738602,-0.5778668286,-0.5082612874,-0.3728436354,-0.5066873192,-0.3324499726,0.1420207676,-1.478767896,0.5922701236
155,0.0042376346,0.0282362029,0.612698436,0.6884329731,0.0138050351,0.018178198,-0.7249406981,-0.309504092,0.0449735001,0.065397501,0.529855967,-0.320563942,-0.0456910133,-0.29507944,-0.0246467404,0.0733170658,0.457309276,-0.225579366,0.0984041095,-0.0138527844,0,-0.174549907,0.000856780505,0.230311438,-0.571754456,-0.509747148,-0.369402856,-0.569100678,-0.332182944,0.0930382833,-1.58202291,0.642318785
156,0.00493419999,0.02829019914,0.612703538,0.6911611051,0.01335054928,0.01788750661,-0.7223559557,-0.309720355,0.04129142762,0.05868273004,0.5296259882,-0.319369036,-0.04443228392,-0.2924066722,-0.02829551882,0.0652992412,0.4566102208,-0.2258817196,0.09902963046,-0.0119127141,0,-0.174549907,0.003925580064,0.2311910746,-0.5665477396,-0.5113706112,-0.3639225664,-0.6412703276,-0.335624343,0.05666467994,-1.664250064,0.6877890228
157,0.005758910724,0.0280850578,0.6127222064,0.6940694316,0.01275850463,0.01726394565,-0.7195879382,-0.3089078064,0.03704664558,0.05191539896,0.5292445304,-0.3184155162,-0.04266690612,-0.2890690446,-0.03268659856,0.05684535202,0.4566662904,-0.2270496668,0.09971757832,-0.009660497116,0,-0.174549907,0.007907604614,0.2324863044,-0.5630064372,-0.5126925708,-0.3583499252,-0.7219550494,-0.3444900694,0.03306437728,-1.7232631,0.7290470838
158,0.00678363461,0.02780526244,0.6126797678,0.6969818229,0.01208465565,0.01627250482,-0.7168022776,-0.306849128,0.03224882562,0.04576758894,0.5285713672,-0.3178664684,-0.0400598422,-0.2852941156,-0.03786361142,0.04883033338,0.4577561262,-0.2293900906,0.1009412186,-0.006778375714,0,-0.174549907,0.0126285067,0.2340846148,-0.5615989444,-0.5132001282,-0.354578519,-0.810346603,-0.3588079276,0.02273923678,-1.757295918,0.7663736228
159,0.007888218944,0.02746650804,0.6127095106,0.6997521646,0.01161168313,0.01521651857,-0.7141292142,-0.304474884,0.02676149496,0.04029247834,0.5272601486,-0.3167265298,-0.03775885032,-0.2814995114,-0.04364625516,0.04144745692,0.458403939,-0.2309877602,0.1033775614,-0.002912452678,0,-0.174549907,0.01766254342,0.2356380136,-0.55966897,-0.5126498698,-0.3529395756,-0.901500261,-0.3762373332,0.02525568564,-1.771080972,0.7930660248
160,0.0092086019,0.0270633306,0.612761676,0.7024325142,0.0112470509,0.0140781493,-0.7115222222,-0.30172807,0.0207894072,0.0352681875,0.525618911,-0.315361768,-0.0355436094,-0.277533114,-0.0498921722,0.0343430974,0.458864093,-0.232293442,0.106629334,0.00179018034,0,-0.174549907,0.0231833383,0.237064138,-0.556536317,-0.510878265,-0.353378743,-0.990219831,-0.396184385,0.0386020429,-1.77047288,0.811118484
161,0.01040938776,0.02629817126,0.612775731,0.7052235884,0.01081399375,0.01276721756,-0.7087875183,-0.2986648084,0.01459496956,0.02996863014,0.524881816,-0.3149396182,-0.03272336944,-0.2729406414,-0.05659082976,0.02652187574,0.459716475,-0.2344704416,0.1099266198,0.007057757672,0,-0.174549907,0.02976007944,0.2384777484,-0.5518351912,-0.5076599598,-0.3541667224,-1.072591496,-0.4203674916,0.06277448536,-1.756481358,0.828762364
162,0.01190253294,0.02578842118,0.612578249,0.7077029871,0.01028110643,0.01129540215,-0.7063449545,-0.2955773412,0.008441050908,0.0253563132,0.5254990342,-0.3154232442,-0.02994497344,-0.2688081208,-0.06338022944,0.01964226666,0.4622159184,-0.2375907328,0.113254313,0.01305054292,0,-0.174549907,0.03729063572,0.2396868888,-0.5439695236,-0.5034683346,-0.3538695276,-1.148958106,-0.4455228988,0.09717451816,-1.727494646,0.8428994056
163,0.01342555306,0.0250203159,0.6123235468,0.7096846563,0.009574422788,0.009682708975,-0.7043878649,-0.292436999,0.002522103468,0.02188258768,0.5275303366,-0.3167852048,-0.02743291666,-0.2662704946,-0.070025745,0.01460992318,0.4683505712,-0.2424640684,0.1165325534,0.0198305573,0,-0.174549907,0.0459780902,0.2406538368,-0.5318678622,-0.4985653936,-0.3514589606,-1.221657824,-0.4714239302,0.1424644086,-1.677515624,0.850981557
164,0.01525048876,0.0242944777,0.612035775,0.7113439632,0.00910240521,0.007684726473,-0.7027430947,-0.2888470116,-0.004632625728,0.02003584466,0.5294916268,-0.3180112538,-0.0240639217,-0.2655356468,-0.0778740838,0.0116796028,0.477634436,-0.2479273972,0.120206195,0.0257896047,0,-0.174549907,0.05650897546,0.2406823664,-0.5163822292,-0.4930352508,-0.3504204516,-1.29513979,-0.4944214284,0.2035752266,-1.601864052,0.8502787944
165,0.0173447672,0.0237459913,0.611647725,0.7127279029,0.008798118669,0.005386109459,-0.7013647549,-0.285465389,-0.0127605619,0.0191269051,0.532310367,-0.319550037,-0.0198135599,-0.266650379,-0.0866956264,0.0105450535,0.490060121,-0.254142076,0.124403164,0.0311958268,0,-0.174549907,0.0687066615,0.239754975,-0.498007059,-0.487308472,-0.35213536,-1.37281954,-0.514758468,0.282627285,-1.49926245,0.840975702
166,0.01956720168,0.0234413203,0.610989106,0.7139580964,0.00837699882,0.003082043418,-0.700131533,-0.2841219124,-0.02100571058,0.01715959272,0.5386925934,-0.3226134004,-0.0146319898,-0.2692956386,-0.09560600224,0.01011769696,0.5049879792,-0.2612502456,0.1295014682,0.03665772978,0,-0.174549907,0.08107776194,0.2384642332,-0.479301971,-0.4817904772,-0.3541981342,-1.46034987,-0.5335071442,0.384034854,-1.36581874,0.82217356
167,0.02229149042,0.02308711116,0.6101031664,0.7146550472,0.008209972598,0.0002493794774,-0.6994288367,-0.2831493614,-0.03100563922,0.0172688786,0.5470654128,-0.3269791368,-0.008067301844,-0.274916476,-0.106343076,0.01268724596,0.5248932484,-0.270217079,0.1353183774,0.04258315336,0,-0.174549907,0.09411873964,0.2364501032,-0.46230787,-0.4765695872,-0.3565248012,-1.55826793,-0.545354152,0.5163572134,-1.20607455,0.7859604714
168,0.0255623221,0.0228973262,0.60885216,0.7146120536,0.008461488414,-0.003334455626,-0.6994618628,-0.2819280324,-0.04351390896,0.02082757916,0.5569420216,-0.3326975588,0.0001767267008,-0.284727585,-0.1196455968,0.01953932232,0.5517823698,-0.281827527,0.1419107794,0.04933213742,0,-0.174549907,0.1082495274,0.2335297348,-0.4480653702,-0.4719742654,-0.359784794,-1.67034812,-0.5437568662,0.6879110932,-1.019052291,0.7175639038
169,0.02923252282,0.02254381926,0.607323849,0.7143640905,0.009249912323,-0.006898792545,-0.6996790635,-0.2825375558,-0.0573539473,0.02518787868,0.5692080498,-0.3399123014,0.009146184824,-0.2992027286,-0.1341257038,0.0296583563,0.5851374028,-0.2940109674,0.1498870406,0.05803745538,0,-0.174549907,0.1213811454,0.230100918,-0.4353236676,-0.4689856354,-0.3632013858,-1.781542946,-0.5160140872,0.8943513272,-0.8129221316,0.6013438704
170,0.0332646668,0.022332646,0.605445683,0.713882137,0.0104438847,-0.0104377818,-0.700110186,-0.28464824,-0.072284013,0.0302979685,0.583508968,-0.348543942,0.0186857693,-0.317802697,-0.149348751,0.0431629121,0.624013662,-0.306228012,0.159197569,0.0686496869,0,-0.174549907,0.132990554,0.226538792,-0.424363762,-0.467417449,-0.366348028,-1.87227023,-0.458752245,1.11825621,-0.600533187,0.442899555
171,0.03771463634,0.02215074968,0.6032195566,0.7130436332,0.01148211427,-0.01375029177,-0.7008907673,-0.2884011384,-0.08718096614,0.03584905792,0.6009574292,-0.3596657634,0.0284007799,-0.338570362,-0.1639548958,0.06010948196,0.6652675154,-0.3164124372,0.1694141206,0.08043269218,0,-0.174549907,0.14196133,0.2240556358,-0.4163850486,-0.4671197714,-0.3680080952,-1.886191558,-0.3971649944,1.259578946,-0.4546577928,0.3072476564
172,0.04245322942,0.02188603318,0.6007799746,0.7120603281,0.01239544687,-0.01683162395,-0.7018070522,-0.293260181,-0.1016723033,0.04157428144,0.6203254464,-0.3713076474,0.0384838313,-0.3606261552,-0.1773177564,0.07965360584,0.7078719736,-0.3236517128,0.1824179234,0.0936519012,0,-0.174549907,0.1483999162,0.2221194474,-0.408458525,-0.467611599,-0.3681059304,-1.830562666,-0.3888918458,1.312544946,-0.4131314632,0.263252425
173,0.0470039219,0.02133815066,0.5983288284,0.7111098694,0.01355535473,-0.01976155217,-0.7026723896,-0.298964542,-0.1162817432,0.04714691338,0.6404776928,-0.3824114022,0.04918624906,-0.383944958,-0.189941499,0.1017748953,0.7510415796,-0.3273230614,0.1993350564,0.1084502932,0,-0.174549907,0.151810208,0.2202117534,-0.4000451028,-0.4687356296,-0.367185956,-1.76287222,-0.401225698,1.33996537,-0.3959673104,0.2730170372
174,0.05097154006,0.02087253142,0.595930481,0.7104401927,0.01474915071,-0.02252585965,-0.7032423343,-0.3038167832,-0.1299367874,0.05262196736,0.6580817816,-0.3928788244,0.05939420384,-0.4072384058,-0.2008725254,0.1239554076,0.7930429574,-0.3284264144,0.215417409,0.123950857,0,-0.174549907,0.1534922062,0.21847496,-0.3911070108,-0.4699243726,-0.3666054668,-1.688255812,-0.4208906294,1.354479548,-0.3836807492,0.2905085622
175,0.0545475744,0.0203634165,0.593593717,0.7103726642,0.0158794126,-0.02493252901,-0.7032047292,-0.308410853,-0.142245367,0.0564290695,0.673541248,-0.402365863,0.0685281083,-0.429219276,-0.210008696,0.144348219,0.832091987,-0.327121019,0.230053097,0.138702899,0,-0.174549907,0.153196916,0.216920733,-0.382262796,-0.470414847,-0.366527289,-1.61466253,-0.442070335,1.36216772,-0.375709742,0.302872062
176,0.05701152532,0.02020399608,0.591673672,0.7114349823,0.0166751615,-0.02646632091,-0.7020553673,-0.313914579,-0.1519566742,0.05556066114,0.6875609994,-0.4099718154,0.07503421454,-0.448352921,-0.216363719,0.1597517964,0.8662373662,-0.3239601494,0.241494778,0.1501915218,0,-0.174549907,0.1515175166,0.2153765294,-0.3731329086,-0.4695746182,-0.3658290682,-1.544863892,-0.4548972186,1.364629816,-0.3741529762,0.309204471
177,0.05877619388,0.0200026158,0.5901831862,0.7132458789,0.01686257663,-0.02762604213,-0.7001662457,-0.3187021254,-0.1591402916,0.0523280881,0.7003203156,-0.4160019044,0.07955800448,-0.462120825,-0.2210394298,0.1694818256,0.8939979676,-0.3204462588,0.2511050578,0.1599286108,0,-0.174549907,0.1495077696,0.213828415,-0.3652469576,-0.4672076582,-0.3661298694,-1.484291652,-0.4632387102,1.364914582,-0.3729193088,0.3132385846
178,0.05968136412,0.01972718794,0.589106035,0.7156462407,0.0163053695,-0.02858108269,-0.6976874047,-0.3219284592,-0.1634639202,0.04756701216,0.711785781,-0.420470262,0.08210550848,-0.469191539,-0.2244906546,0.172921467,0.9142801878,-0.3173061252,0.2589185236,0.1686208544,0,-0.174549907,0.1481928498,0.2119671072,-0.3592173336,-0.4632282618,-0.3707989816,-1.433912062,-0.4735844078,1.363089796,-0.3710873012,0.3206212702
179,0.0595429964,0.0197257556,0.5884210702,0.7194427786,0.01531256751,-0.02870206353,-0.6937894531,-0.3256943048,-0.1653333426,0.03790458144,0.7220557212,-0.4228870752,0.08200312254,-0.4709937456,-0.2269370916,0.1676825522,0.9272329092,-0.315579557,0.2609723868,0.1723355112,0,-0.174549907,0.1466694716,0.2100708928,-0.356429875,-0.4599488496,-0.37905941,-1.396714188,-0.4844798088,1.359084656,-0.370494348,0.3256630302
180,0.0586798117,0.0193318576,0.588262677,0.7232040602,0.0144163283,-0.02826695271,-0.6899050922,-0.328748763,-0.165085852,0.0276023727,0.728776813,-0.423327684,0.0800970644,-0.469587505,-0.227962673,0.158360735,0.93337518,-0.315077692,0.257850736,0.173738241,0,-0.174549907,0.145372942,0.209093586,-0.357282698,-0.458716303,-0.385843754,-1.37993014,-0.491122395,1.35518646,-0.370657444,0.325134307
181,0.05726241544,0.01896381268,0.5885298848,0.7287841922,0.01308717662,-0.02715998428,-0.6840794269,-0.3313718558,-0.1645574182,0.01083556975,0.733092189,-0.4224128898,0.07897350338,-0.4612402262,-0.230497426,0.1369078664,0.9314079998,-0.317289752,0.2515515806,0.1659603626,0,-0.174549907,0.1405915468,0.2102704736,-0.3746777412,-0.4601047458,-0.4084125638,-1.362130426,-0.498466146,1.349442984,-0.3728844102,0.311851871
182,0.055477272,0.01874038394,0.5892645838,0.7343967882,0.01159623122,-0.02538830461,-0.6781462371,-0.332731032,-0.1620589794,-0.00682176044,0.733347714,-0.41966607,0.076326251,-0.4494212028,-0.2318189624,0.1101180224,0.9232033488,-0.3200344026,0.2399889858,0.155727938,0,-0.174549907,0.1318841964,0.2144988182,-0.405070311,-0.466078126,-0.4479815066,-1.354958604,-0.5022269014,1.345714376,-0.3750527438,0.2898127136
183,0.05341746662,0.01838886848,0.5904585126,0.7380049581,0.01061193086,-0.02333401458,-0.6743082325,-0.3324867906,-0.1569400194,-0.0190607749,0.7286050442,-0.415520269,0.07137312142,-0.438525462,-0.230037016,0.08598040936,0.9115633842,-0.3233089686,0.2221917688,0.1489319416,0,-0.174549907,0.1223143832,0.219549948,-0.4287496808,-0.4734639226,-0.4948024634,-1.352942774,-0.5046548248,1.34490969,-0.3759493944,0.2756959974
184,0.05090119542,0.01816952338,0.5920280812,0.7422334962,0.008951715686,-0.02010651377,-0.6697798385,-0.3331599774,-0.1488734604,-0.0345877178,0.7227944852,-0.410317445,0.06469230952,-0.4242245738,-0.2249313298,0.05767063498,0.8937481282,-0.3265780868,0.2007605882,0.1397141758,0,-0.174549907,0.1033683284,0.229391384,-0.4594060364,-0.489243728,-0.5720884088,-1.350384976,-0.5089514016,1.348620988,-0.3767816426,0.2641581356
185,0.0480793118,0.0179512296,0.59370178,0.7447731923,0.007976920164,-0.01676806401,-0.6670592873,-0.333657622,-0.139269561,-0.0457140915,0.714168251,-0.404504418,0.0571931228,-0.411589473,-0.216835544,0.0348110348,0.872994483,-0.330417693,0.178715348,0.133538395,0,-0.174549907,0.080915682,0.24106662,-0.483513117,-0.510134518,-0.631342232,-1.35347283,-0.507986724,1.3410269,-0.376935184,0.265167981
186,0.04497847784,0.0176947549,0.5956371544,0.7476256812,0.00657810814,-0.01275708423,-0.6639652296,-0.3344270228,-0.1280263036,-0.05896184366,0.7048478482,-0.398430526,0.05048580692,-0.3940300822,-0.2072025032,0.006833666564,0.8434247256,-0.332753807,0.162936887,0.1241152582,0,-0.174549907,0.03988153638,0.2630154194,-0.4960713508,-0.5613380314,-0.7429731252,-1.357034466,-0.5060845378,1.338131214,-0.376670122,0.261818558
187,0.04185306508,0.01768601056,0.5973764898,0.7486435304,0.005715297336,-0.008951302343,-0.6628876782,-0.3355604592,-0.115649912,-0.06673720034,0.6951889276,-0.39311105,0.04268139976,-0.3789689956,-0.1949920832,-0.01325110986,0.813171601,-0.334138727,0.149437952,0.1179794834,0,-0.174549907,0.004325696632,0.2861671626,-0.4888929364,-0.6300583962,-0.8101275566,-1.361281394,-0.5036149856,1.336288666,-0.376356208,0.2561384442
188,0.03851945624,0.01777167956,0.5989856602,0.7487049043,0.004837416465,-0.004799212101,-0.6628684132,-0.337978733,-0.1014626028,-0.07195180204,0.6862215518,-0.3884953026,0.0328289047,-0.3651566386,-0.1796936784,-0.02786110936,0.7814792868,-0.3332827154,0.1368823054,0.1133334232,0,-0.174549907,-0.03346662672,0.31999824,-0.47059502,-0.7374938728,-0.8434972166,-1.367035196,-0.501722276,1.335347674,-0.3760827126,0.2513737888
189,0.03507470862,0.01813696102,0.6004111288,0.7478572605,0.003922347003,9.13113127e-06,-0.6638479744,-0.3434843598,-0.08524577764,-0.07585984616,0.6810638786,-0.3853485464,0.02244206932,-0.3530399562,-0.1621139972,-0.04049743786,0.7486448288,-0.3310542284,0.126463428,0.1118456752,0,-0.174549907,-0.0731055975,0.3630550684,-0.4337134006,-0.8870034098,-0.8543556572,-1.37359209,-0.503130877,1.338756868,-0.3761340856,0.2450753272
190,0.0314769521,0.0188655462,0.601534545,0.7461798802,0.003214327831,0.005194710631,-0.6657163582,-0.351871461,-0.0678420141,-0.078479588,0.679230392,-0.383359015,0.0118972603,-0.343648225,-0.143124446,-0.0502444059,0.71648246,-0.327948242,0.117254145,0.112494722,0,-0.174549907,-0.112254545,0.410878927,-0.376734465,-1.07297075,-0.853791833,-1.38460088,-0.50326705,1.33551836,-0.376392901,0.241795793
191,0.0274666857,0.01977303516,0.6022776606,0.7436795119,0.002476968965,0.01078134986,-0.6684447701,-0.3644598246,-0.0486020282,-0.08039766848,0.6830812692,-0.3838498592,0.001915769883,-0.3383313058,-0.1215694276,-0.05577375144,0.6877186892,-0.3242329954,0.1069517434,0.1138770562,0,-0.174549907,-0.1560675714,0.455982977,-0.3020496844,-1.28366101,-0.8526803134,-1.396652246,-0.501820791,1.336228942,-0.3769031826,0.2410144568
192,0.02302531708,0.02120487652,0.6025774126,0.7409305228,0.001796001095,0.01653703926,-0.6713756483,-0.380412126,-0.02847446502,-0.08296239972,0.691621637,-0.385397589,-0.008835578246,-0.335986382,-0.09905862956,-0.06008944736,0.6628248812,-0.3208171426,0.09644632342,0.1149723948,0,-0.174549907,-0.207087347,0.4907863914,-0.2176021342,-1.50367768,-0.849746299,-1.41021547,-0.499077189,1.33677714,-0.3774222492,0.2397941498
193,0.0181487549,0.02273465436,0.6025316596,0.738199956,0.001191354971,0.02235398794,-0.6742104307,-0.4001914386,-0.007917402557,-0.0869146541,0.7058395978,-0.3879318594,-0.02085680964,-0.3364872752,-0.07614078522,-0.06438609958,0.6425670388,-0.3181729558,0.08592939526,0.1151049122,0,-0.174549907,-0.27467851,0.5104156136,-0.1326072244,-1.718975546,-0.8440970068,-1.425282356,-0.4950193342,1.336672874,-0.3777400852,0.2372964202
194,0.01270805502,0.0246110968,0.6021846656,0.7355961803,0.0005577919897,0.02828615048,-0.6768292562,-0.42447384,0.01303783265,-0.09366188198,0.726656413,-0.3896606804,-0.03220543262,-0.3413315948,-0.05173152536,-0.06477477698,0.62907033,-0.3158551992,0.07529248002,0.1141285388,0,-0.174549907,-0.38919009,0.517869413,-0.0667999819,-1.864065124,-0.8394701954,-1.44122543,-0.488555688,1.336596062,-0.3780412616,0.2347454396
195,0.00681559788,0.0264783818,0.601530552,0.733160159,-0.000121002734,0.0341706444,-0.679196977,-0.453574359,0.033968728,-0.102960162,0.7550053,-0.389534712,-0.0438075513,-0.34967342,-0.0265492406,-0.062820524,0.621768951,-0.313798606,0.063873589,0.111888051,0,-0.174549907,-0.576029658,0.518364131,-0.0377970822,-1.91519082,-0.836482346,-1.45698881,-0.4804928,1.33589685,-0.3783122,0.233458579
196,0.0007554251224,0.02857451552,0.6006937264,0.7309400352,-0.001016382566,0.0398102711,-0.6812787786,-0.4875666618,0.05470005648,-0.1138803946,0.7923898694,-0.3849519852,-0.05852234662,-0.3604918242,-0.001437140164,-0.0616126612,0.6208531614,-0.3120521064,0.0492860384,0.1078152966,0,-0.174549907,-0.7978904484,0.5172397492,-0.03735291658,-1.934238314,-0.8393406036,-1.472454862,-0.4719902452,1.334933876,-0.3780839564,0.232543522
197,-0.00515388679,0.03058994038,0.5998052716,0.7292638439,-0.002140359046,0.04513536542,-0.6827389425,-0.5271209118,0.07321154178,-0.12984245,0.8393213512,-0.3723252534,-0.07542984936,-0.3703746258,0.02265399136,-0.0618965328,0.6210019826,-0.3099685256,0.03546686474,0.1005371168,0,-0.174549907,-1.014843086,0.5111397386,-0.05467703342,-1.945835326,-0.8485210184,-1.486433508,-0.4623910966,1.334261942,-0.3779768648,0.2334706456
198,-0.0107054172,0.03227941466,0.5988871456,0.7283645332,-0.003499645065,0.05005281283,-0.6833502581,-0.5720153454,0.08745554388,-0.1524247764,0.8959942224,-0.3492199182,-0.09558145408,-0.3780503096,0.0448235318,-0.06408403966,0.6201938872,-0.3073749128,0.02407016906,0.08907934726,0,-0.174549907,-1.21236594,0.4957578662,-0.08544484226,-1.954038004,-0.862499309,-1.498652008,-0.4508864882,1.33411431,-0.3780505536,0.2381064412
199,-0.01586716998,0.03353806806,0.5980067968,0.7282585353,-0.005214603028,0.05434980718,-0.6831240093,-0.617629707,0.09687501934,-0.1828964264,0.9545333982,-0.3147500632,-0.1211208222,-0.381531203,0.06463685928,-0.0693804115,0.6167011742,-0.3053708074,0.01498021784,0.0736420661,0,-0.174549907,-1.387911822,0.4703693388,-0.131384447,-1.958486792,-0.8800178768,-1.50919812,-0.4369127808,1.334265664,-0.3782310008,0.2445067612
200,-0.0205546971,0.0340542719,0.597332895,0.7287325311,-0.007284312431,0.0577170582,-0.6823229281,-0.660256505,0.101010218,-0.218013063,1.01113677,-0.27340436,-0.151509821,-0.381126642,0.0816737562,-0.0765282139,0.611310065,-0.303888261,0.0077452641,0.0554942451,0,-0.174549907,-1.52745092,0.438951015,-0.183726802,-1.96025872,-0.898017108,-1.51728606,-0.421154231,1.33403456,-0.378570557,0.251214713
201,-0.024352321,0.0340031095,0.5968173622,0.7293691986,-0.009736659135,0.05961207447,-0.6814485822,-0.6941902994,0.1003777982,-0.2526236834,1.058456778,-0.2320409628,-0.1831439076,-0.3768932342,0.09523055404,-0.08327955904,0.605694175,-0.3024421632,0.001443465378,0.03749499548,0,-0.174549907,-1.614223862,0.412031442,-0.2377110868,-1.955401704,-0.9149260758,-1.52216444,-0.403924948,1.332269954,-0.3784736334,0.2567584216
202,-0.0272584844,0.03328785526,0.59646132,0.7295209213,-0.01281758751,0.05977772256,-0.6812206388,-0.7156398416,0.09973765166,-0.2810710852,1.095049958,-0.1989336102,-0.2165720644,-0.368035644,0.1060790348,-0.08868967442,0.5992908832,-0.3018693328,-0.004066109564,0.02036304512,0,-0.174549907,-1.649000404,0.3932745694,-0.2908177194,-1.945628496,-0.9256716968,-1.52304957,-0.3854281546,1.330198906,-0.3785217704,0.2623001996
203,-0.0295041304,0.0316910796,0.5963729024,0.7287122843,-0.01657749048,0.05795351553,-0.6821619922,-0.7221452356,0.1024791944,-0.2995470346,1.118632532,-0.1785181854,-0.2504123688,-0.3542145016,0.1143754022,-0.09167695048,0.5923510668,-0.302664149,-0.0088627249,0.005240800164,0,-0.174549907,-1.63381624,0.3873949942,-0.3395407616,-1.929806686,-0.9286850336,-1.519837142,-0.3674759864,1.327968934,-0.3793957588,0.2678721842
204,-0.031118457,0.02934147976,0.5964042786,0.725987344,-0.0215837685,0.05439584905,-0.6852135499,-0.7149655464,0.1120817584,-0.305282843,1.1329602,-0.1725114914,-0.2739633262,-0.3353883086,0.1225044578,-0.08942358342,0.5855757832,-0.3026268776,-0.01274047344,-0.004061812626,0,-0.174549907,-1.588005878,0.3866728482,-0.3949003516,-1.903744766,-0.9276901486,-1.51001551,-0.3461743948,1.321441058,-0.3794414338,0.2800201418
205,-0.0321780555,0.0265068635,0.59652108,0.721477553,-0.0273934299,0.0494498302,-0.690126405,-0.695796669,0.128149137,-0.298706084,1.13787913,-0.177800536,-0.287476212,-0.313330293,0.130135074,-0.0821656883,0.579820693,-0.30219239,-0.0157747343,-0.00809183717,0,-0.174549907,-1.52571356,0.393614382,-0.444476873,-1.86666322,-0.922636449,-1.49524903,-0.327337116,1.31711566,-0.379973769,0.293932348
206,-0.03280460166,0.02332168294,0.596747184,0.7157535075,-0.03365843346,0.04342229149,-0.6961885743,-0.6650121094,0.1489171984,-0.280464971,1.13211877,-0.1906782898,-0.2929099318,-0.2895626244,0.13647072,-0.07161413432,0.5759397266,-0.3018012346,-0.01798352634,-0.009455921126,0,-0.174549907,-1.464072846,0.4056610048,-0.4901713492,-1.808793474,-0.914775944,-1.476246974,-0.3098273458,1.314099166,-0.3814301016,0.3049853028
207,-0.03296276706,0.01979515814,0.5968571184,0.7095609376,-0.04015901588,0.03664960923,-0.7025434758,-0.625872171,0.1709848912,-0.252824318,1.118775298,-0.2090506614,-0.28661015,-0.2657550634,0.140804616,-0.0595384836,0.575117135,-0.3039801596,-0.01885585818,-0.009396749924,0,-0.174549907,-1.417156032,0.420825607,-0.5367646576,-1.716411378,-0.910105658,-1.454126456,-0.2943396624,1.310732866,-0.3830668388,0.3132071916
208,-0.03254612538,0.01633899774,0.5965807196,0.7033956666,-0.04672078671,0.02932883966,-0.7086547279,-0.579591608,0.191852999,-0.2167991816,1.099041632,-0.2325511308,-0.2669666712,-0.2428272904,0.14254778,-0.04708878028,0.5779349686,-0.3100098134,-0.0180480607,-0.009016452728,0,-0.174549907,-1.396792176,0.4337798956,-0.5907493232,-1.57842224,-0.9122120616,-1.429470898,-0.2812878366,1.30639486,-0.3846642198,0.3174621586
209,-0.03180680724,0.01265707036,0.5961423874,0.6976197075,-0.05299474437,0.0222698205,-0.7141584949,-0.5293179992,0.211073083,-0.175820997,1.07419045,-0.2652875244,-0.2426774708,-0.2236186864,0.1426046344,-0.03566867706,0.587624979,-0.3178991196,-0.01588885876,-0.01023868194,0,-0.174549907,-1.395783684,0.437358612,-0.6583199022,-1.407237792,-0.9160385012,-1.405533552,-0.2694834172,1.303519366,-0.3864533542,0.3231190084
210,-0.0307302792,0.00916092005,0.595193028,0.6922366647,-0.05882220367,0.01532573259,-0.7191060216,-0.47603628,0.227422073,-0.13074024,1.04544318,-0.30678004,-0.218237206,-0.208418742,0.140820175,-0.02478927,0.604196787,-0.328277409,-0.0127546294,-0.0134187313,0,-0.174549907,-1.40396261,0.428862423,-0.73781389,-1.21496415,-0.920078099,-1.3831625,-0.258209825,1.3023957,-0.388653696,0.333440691
211,-0.02930323852,0.005679083244,0.5937002658,0.6870034025,-0.06390164931,0.008103729673,-0.7237936403,-0.4203809264,0.2402545388,-0.07994790378,1.013365558,-0.3573452,-0.2035725858,-0.199015662,0.1364757628,-0.01231940907,0.6301844834,-0.3434467732,-0.009622153848,-0.01879747994,0,-0.174549907,-1.413196324,0.4083909928,-0.8271630166,-1.009493707,-0.9209796432,-1.363668846,-0.2462292552,1.304321934,-0.392241973,0.355376148
212,-0.02772402132,0.002424461018,0.5917994496,0.6817720971,-0.06845633398,0.001003863365,-0.7283539869,-0.3658528026,0.2481198576,-0.03109549362,0.9811018466,-0.4089293124,-0.1920329988,-0.1929203898,0.1312914554,0.000778422692,0.6602191564,-0.361064005,-0.006128307802,-0.02590774036,0,-0.174549907,-1.415470122,0.3763852894,-0.9227309108,-0.7994211198,-0.917409635,-1.346576356,-0.2353384852,1.306754086,-0.3962055506,0.3838406086
213,-0.0258522913,-0.0007195339768,0.5896387934,0.6764564683,-0.07254930432,-0.005780551611,-0.732877773,-0.3146104634,0.25080874,0.01222617812,0.9500419972,-0.4579511222,-0.1809298454,-0.1894874394,0.1257861134,0.01437679418,0.6925013064,-0.3804386558,-0.002209782272,-0.0346746646,0,-0.174549907,-1.40462599,0.3400135516,-1.020886514,-0.5956955312,-0.9081881996,-1.332311682,-0.2261220452,1.309216858,-0.4000408528,0.4125644802
214,-0.0239291802,-0.003692585884,0.5873824958,0.6716251932,-0.07591381715,-0.01167914436,-0.7368991042,-0.2717499616,0.2499137582,0.04950111064,0.9253808738,-0.499840391,-0.1691727696,-0.1878503592,0.1198545826,0.02682875468,0.723006284,-0.3986613038,0.002486768504,-0.04657984004,0,-0.174549907,-1.37524965,0.3246319892,-1.113650584,-0.4532528344,-0.9062268378,-1.320247126,-0.2193628224,1.307909678,-0.4020557222,0.4458381474
215,-0.0216707438,-0.00622789515,0.585326195,0.6674539283,-0.07849964304,-0.01666784621,-0.7403142863,-0.238540977,0.246386647,0.0802406594,0.908740222,-0.532832801,-0.156368762,-0.187643841,0.113306403,0.0380141921,0.750630796,-0.41464743,0.00804909877,-0.0606802553,0,-0.174549907,-1.32308877,0.349758714,-1.17976153,-0.399759471,-0.909743249,-1.3094821,-0.213343263,1.30302858,-0.404910922,0.48037079
216,-0.0192429826,-0.008528516256,0.5837828636,0.664325123,-0.08024832098,-0.02008409109,-0.7428519148,-0.2208398134,0.2420797884,0.1024900408,0.9075947166,-0.5511881236,-0.1407668768,-0.1883411048,0.1071258296,0.0475463748,0.7720748666,-0.4248180806,0.01466280502,-0.07493551968,0,-0.174549907,-1.274321272,0.3802295386,-1.201260778,-0.3753746748,-0.9015974642,-1.298456644,-0.2046685932,1.2936131,-0.4158059714,0.5086659904
217,-0.01620289758,-0.01010368562,0.5828587294,0.6615422249,-0.08136809136,-0.02279145402,-0.7451319802,-0.210621202,0.236331567,0.117647302,0.9120425466,-0.560378659,-0.1284213394,-0.1887924192,0.1000311644,0.05614724086,0.7873098968,-0.4313973486,0.02255437448,-0.0866684109,0,-0.174549907,-1.232637308,0.4049346686,-1.202409528,-0.3623000202,-0.8917361972,-1.285336278,-0.196105388,1.2819201,-0.4312006476,0.5373379586
218,-0.01282380612,-0.01143134462,0.5824728486,0.6589484957,-0.08184367883,-0.02502995482,-0.7473031471,-0.2054974434,0.2285072414,0.1256990728,0.9183743956,-0.5616452694,-0.1221869124,-0.188464424,0.09126455336,0.06388798804,0.795463717,-0.4347203314,0.03187179268,-0.09458782526,0,-0.174549907,-1.197515656,0.4188934024,-1.18584139,-0.359144968,-0.8870495436,-1.268191788,-0.1888014408,1.26854787,-0.4518967924,0.570772731
219,-0.009176951634,-0.0120736027,0.5825435876,0.6564358154,-0.08093975369,-0.02671374326,-0.7495513008,-0.1998410402,0.218076739,0.135244119,0.915797281,-0.5624830006,-0.1182699306,-0.1918263708,0.08124745194,0.07308492062,0.8018983006,-0.4347309168,0.04153338892,-0.09861921522,0,-0.174549907,-1.173236298,0.4251021864,-1.169257304,-0.359966987,-0.8859211084,-1.249472522,-0.1832883598,1.255631492,-0.4728679004,0.5948969604
220,-0.00522836624,-0.0119783096,0.582972407,0.6530139028,-0.07858541848,-0.02822993329,-0.7527285338,-0.193214819,0.205252409,0.149465054,0.905707896,-0.562226832,-0.114665516,-0.20031032,0.0701304749,0.0863854736,0.809749782,-0.430770129,0.051718507,-0.0973346904,0,-0.174549907,-1.15450561,0.427874684,-1.15307832,-0.363546729,-0.88564837,-1.22394109,-0.178355962,1.24173033,-0.49943763,0.607728243
221,-0.001057297835,-0.0111130351,0.583770227,0.6459883667,-0.07403108326,-0.02986800452,-0.7591615974,-0.1859392016,0.1908073576,0.1767648546,0.891040492,-0.5589114904,-0.1069606586,-0.219342896,0.05914065762,0.1106800736,0.8261334538,-0.42097857,0.06290937364,-0.08582430926,0,-0.174549907,-1.137245348,0.4324214162,-1.14400895,-0.3689219892,-0.8810267686,-1.174090382,-0.1766726824,1.223400828,-0.5541280392,0.5987692236
222,0.003544181492,-0.009603015516,0.5846740004,0.6397833605,-0.06849753227,-0.03000230636,-0.7649086229,-0.185516718,0.1758860974,0.1987984296,0.8762056468,-0.5535886286,-0.09759017824,-0.2460157696,0.04993301854,0.135666099,0.8469653966,-0.4038108226,0.07438654452,-0.0748629391,0,-0.174549907,-1.137626696,0.4389066218,-1.150323654,-0.3720621524,-0.8722381356,-1.12725387,-0.1819622458,1.212782742,-0.6297714712,0.5341746214
223,0.008352088,-0.007204419656,0.5857457044,0.6355469003,-0.06142021581,-0.02868610343,-0.7690804913,-0.1935604516,0.1582196592,0.2117524386,0.8613786342,-0.5457352994,-0.08662355988,-0.282053465,0.04149017932,0.1604702178,0.8742914082,-0.3791382552,0.08666915742,-0.06680869166,0,-0.174549907,-1.148426798,0.4463224232,-1.155837894,-0.372589105,-0.870625556,-1.102445292,-0.1855528118,1.206099938,-0.7057666182,0.4168474912
224,0.01363753808,-0.004014798116,0.5869313474,0.6329725143,-0.05273176826,-0.02610789786,-0.7719349289,-0.208930609,0.1386296034,0.2198946176,0.8460318924,-0.5362887384,-0.07225768864,-0.3287732958,0.0346150391,0.1867932916,0.9095732092,-0.3452457368,0.1068914206,-0.06024717316,0,-0.174549907,-1.163841772,0.451760644,-1.149705506,-0.3731036304,-0.8720075962,-1.106962656,-0.1888095586,1.19984903,-0.7901919846,0.2919174076
225,0.0191153493,-0.00018651248,0.588077247,0.6318323119,-0.04278326479,-0.0225519858,-0.7735948099,-0.229821607,0.117131837,0.223903,0.830587387,-0.525511444,-0.055214636,-0.384654552,0.0302282665,0.214656383,0.952236772,-0.303188175,0.130381763,-0.055381313,0,-0.174549907,-1.18260539,0.456301212,-1.13465285,-0.373670489,-0.874007404,-1.13576567,-0.19371751,1.1905731,-0.884282231,0.170720056
226,0.0246106468,0.00403628652,0.5892023202,0.6317789727,-0.03206223848,-0.01835988459,-0.7742675617,-0.2550734878,0.09462630452,0.2228078336,0.816390276,-0.5132253406,-0.03633381424,-0.4483377338,0.02953377032,0.2445122448,1.00088575,-0.2506471574,0.1440867602,-0.05292186064,0,-0.174549907,-1.204684804,0.4617885114,-1.11815224,-0.3742755296,-0.8685473204,-1.189826416,-0.2004100648,1.177969074,-0.9850005038,0.06205607356
227,0.02979453352,0.008619443978,0.5900325058,0.6329586778,-0.02118778627,-0.013819185,-0.7737722017,-0.2821719344,0.0721697807,0.2183809462,0.8033360602,-0.5008848192,-0.01771724408,-0.5130766752,0.03122379744,0.2733573558,1.049025558,-0.194812003,0.1588220656,-0.05301341634,0,-0.174549907,-1.229468082,0.4684851468,-1.108092808,-0.3749368842,-0.8613206268,-1.250968052,-0.2070556488,1.157210042,-1.081801844,-0.04740527776
228,0.0343237378,0.0128898263,0.5907114152,0.6354676024,-0.01054543907,-0.009030584833,-0.7720026999,-0.3103690982,0.05073593332,0.2107618722,0.7917624832,-0.489049214,-0.000449761378,-0.5757529852,0.03472726642,0.3002346518,1.093532014,-0.138847877,0.1780821056,-0.05587932612,0,-0.174549907,-1.25691564,0.4768004236,-1.10867953,-0.3757873654,-0.8552327872,-1.313194296,-0.2125097696,1.126927188,-1.169376902,-0.1737513964
229,0.03840588852,0.01717044264,0.591063118,0.6390401733,-0.0003704777233,-0.00435862104,-0.7691609208,-0.3377894458,0.02962042538,0.2010879544,0.781532228,-0.4778085174,0.01555010302,-0.6339294672,0.0381160669,0.3254289504,1.133521486,-0.09268106532,0.2009083362,-0.05939988124,0,-0.174549907,-1.286236168,0.4830069422,-1.116261242,-0.376615834,-0.8529454944,-1.370599082,-0.2164050396,1.086417412,-1.2448426,-0.318979454
230,0.0420347936,0.0211010762,0.591261268,0.6434287158,0.009170287827,7.614495958e-05,-0.7654511008,-0.363933027,0.0092188241,0.18984969,0.772465467,-0.467099279,0.0296727307,-0.687354267,0.0415550619,0.349707514,1.16945827,-0.0564721934,0.224600464,-0.06274198,0,-0.174549907,-1.31589353,0.486166239,-1.12524509,-0.377685338,-0.855062306,-1.42360449,-0.219197914,1.03646183,-1.30675769,-0.478726208
231,0.04524893316,0.0246695094,0.5912407278,0.648454358,0.0178193811,0.003954521638,-0.7610346753,-0.387340188,-0.01059293188,0.178094548,0.764232123,-0.4571626602,0.0402339466,-0.7353018162,0.046003332,0.3746712802,1.202519416,-0.03253904134,0.2442484528,-0.06411226388,0,-0.174549907,-1.344475462,0.4833881024,-1.12677102,-0.3795371952,-0.8591695664,-1.472480582,-0.2208719788,0.9810418726,-1.352243184,-0.6386931654
